;FLAVOR:Marlin
;TIME:4933
;Filament used: 3.20353m
;Layer height: 0.24
;MINX:20.776
;MINY:1.008
;MINZ:0.2
;MAXX:120.247
;MAXY:66.6
;MAXZ:29.96
;POSTPROCESSED
;Generated with Cura_SteamEngine 4.4.0
M140 S60
M105
M190 S60
M104 S200
M105
M109 S200
M82 ;absolute extrusion mode
M201 X500.00 Y500.00 Z100.00 E5000.00 ;Setup machine max acceleration
M203 X500.00 Y500.00 Z10.00 E50.00 ;Setup machine max feedrate
M204 P500.00 R1000.00 T500.00 ;Setup Print/Retract/Travel acceleration
M205 X8.00 Y8.00 Z0.40 E5.00 ;Setup Jerk
M220 S100 ;Reset Feedrate
M221 S100 ;Reset Flowrate

G28 ;Home

G92 E0 ;Reset Extruder
G1 Z2.0 F3000 ;Move Z Axis up
G1 X10.1 Y20 Z0.28 F5000.0 ;Move to start position
G1 X10.1 Y200.0 Z0.28 F1500.0 E15 ;Draw the first line
G1 X10.4 Y200.0 Z0.28 F5000.0 ;Move to side a little
G1 X10.4 Y20 Z0.28 F1500.0 E30 ;Draw the second line
G92 E0 ;Reset Extruder
G1 Z2.0 F3000 ;Move Z Axis up

G92 E0
G92 E0
G1 F2700 E-5
;LAYER_COUNT:125
;LAYER:[layer_num]
;LAYER:0
M107
M204 S500
M205 X8 Y8
G0 F6000 X22.173 Y16.267 Z0.2
;TYPE:SKIRT
G1 F2700 E0
G1 F1200 X22.656 Y15.643 E0.02625
G1 X23.061 Y15.206 E0.04606
G1 X23.178 Y15.089 E0.05157
G1 X23.764 Y14.559 E0.07785
G1 X24.4 Y14.092 E0.10409
G1 X25.08 Y13.691 E0.13035
G1 X25.798 Y13.361 E0.15663
G1 X26.545 Y13.106 E0.18288
G1 X27.314 Y12.927 E0.20914
G1 X28.098 Y12.827 E0.23543
G1 X28.693 Y12.804 E0.25523
G1 X58.354 Y12.804 E1.24176
G1 X58.984 Y12.77 E1.26275
G1 X59.773 Y12.768 E1.28899
G1 X60.242 Y12.804 E1.30463
G1 X61.093 Y12.896 E1.3331
G1 X61.873 Y13.021 E1.35938
G1 X62.416 Y13.156 E1.37799
G1 X63.231 Y13.391 E1.4062
G1 X63.978 Y13.648 E1.43247
G1 X64.486 Y13.874 E1.45097
G1 X65.262 Y14.252 E1.47967
G1 X65.953 Y14.633 E1.50592
G1 X66.405 Y14.935 E1.524
G1 X66.465 Y14.978 E1.52646
G1 X66.507 Y14.703 E1.53571
G1 X66.705 Y13.939 E1.56196
G1 X66.979 Y13.198 E1.58823
G1 X67.327 Y12.489 E1.6145
G1 X67.744 Y11.819 E1.64075
G1 X68.227 Y11.194 E1.66702
G1 X68.633 Y10.757 E1.68686
G1 X68.75 Y10.64 E1.69237
G1 X69.336 Y10.11 E1.71865
G1 X69.972 Y9.643 E1.74489
G1 X70.652 Y9.242 E1.77115
G1 X71.37 Y8.912 E1.79743
G1 X72.117 Y8.657 E1.82368
G1 X72.886 Y8.478 E1.84994
G1 X73.67 Y8.378 E1.87623
G1 X74.265 Y8.355 E1.89603
G1 X74.649 Y8.355 E1.90881
G1 X75.046 Y8.375 E1.92203
G1 X75.566 Y8.355 E1.93933
G1 X76.673 Y8.355 E1.97615
G1 X77.083 Y8.376 E1.98981
G1 X77.188 Y8.365 E1.99332
G1 X77.59 Y8.355 E2.00669
G1 X77.974 Y8.355 E2.01947
G1 X78.763 Y8.395 E2.04574
G1 X79.543 Y8.514 E2.07199
G1 X80.308 Y8.712 E2.09827
G1 X81.048 Y8.986 E2.12451
G1 X81.757 Y9.334 E2.15078
G1 X82.428 Y9.752 E2.17708
G1 X83.052 Y10.235 E2.20332
G1 X83.625 Y10.778 E2.22958
G1 X84.14 Y11.377 E2.25585
G1 X84.591 Y12.025 E2.28211
G1 X84.975 Y12.716 E2.3084
G1 X85.287 Y13.441 E2.33465
G1 X85.524 Y14.194 E2.36091
G1 X85.683 Y14.968 E2.38719
G1 X85.774 Y16.109 E2.42526
G1 X85.861 Y30.726 E2.91143
G1 X88.209 Y30.726 E2.98953
G1 X88.71 Y30.742 E3.0062
G1 X89.648 Y30.802 E3.03746
G1 X89.647 Y16.302 E3.51973
G1 X89.67 Y15.698 E3.53984
G1 X89.758 Y14.564 E3.57767
G1 X89.859 Y13.78 E3.60396
G1 X89.943 Y13.378 E3.61762
G1 X90.214 Y12.228 E3.65692
G1 X90.434 Y11.469 E3.6832
G1 X90.591 Y11.053 E3.69799
G1 X91.038 Y9.965 E3.73711
G1 X91.375 Y9.251 E3.76337
G1 X91.582 Y8.887 E3.7773
G1 X92.191 Y7.882 E3.81638
G1 X92.634 Y7.228 E3.84266
G1 X92.914 Y6.878 E3.85756
G1 X93.675 Y5.981 E3.89669
G1 X94.216 Y5.405 E3.92297
G1 X94.52 Y5.128 E3.93665
G1 X95.41 Y4.358 E3.97579
G1 X96.032 Y3.872 E4.00205
G1 X96.417 Y3.619 E4.01737
G1 X97.417 Y3.002 E4.05645
G1 X98.109 Y2.622 E4.08271
G1 X98.494 Y2.448 E4.09676
G1 X99.585 Y1.99 E4.13611
G1 X100.327 Y1.722 E4.16235
G1 X100.751 Y1.605 E4.17698
G1 X101.888 Y1.327 E4.21591
G1 X102.664 Y1.179 E4.24219
G1 X103.099 Y1.13 E4.25675
G1 X104.274 Y1.033 E4.29596
G1 X105.064 Y1.008 E4.32225
G1 X105.475 Y1.027 E4.33594
G1 X106.645 Y1.111 E4.37495
G1 X107.428 Y1.207 E4.40119
G1 X107.884 Y1.301 E4.41667
G1 X109.032 Y1.573 E4.45591
G1 X109.791 Y1.794 E4.48221
G1 X110.198 Y1.948 E4.49668
G1 X111.286 Y2.395 E4.5358
G1 X112 Y2.732 E4.56206
G1 X112.357 Y2.934 E4.5757
G1 X113.363 Y3.542 E4.6148
G1 X114.017 Y3.985 E4.64107
G1 X114.377 Y4.273 E4.65641
G1 X115.273 Y5.034 E4.69551
G1 X115.849 Y5.575 E4.72179
G1 X116.126 Y5.879 E4.73547
G1 X116.896 Y6.77 E4.77464
G1 X117.381 Y7.393 E4.8009
G1 X117.629 Y7.769 E4.81588
G1 X118.247 Y8.769 E4.85498
G1 X118.628 Y9.461 E4.88125
G1 X118.804 Y9.852 E4.89551
G1 X119.261 Y10.941 E4.93479
G1 X119.53 Y11.683 E4.96104
G1 X119.647 Y12.11 E4.97577
G1 X119.925 Y13.249 E5.01476
G1 X120.073 Y14.024 E5.04101
G1 X120.12 Y14.453 E5.05536
G1 X120.217 Y15.622 E5.09437
G1 X120.244 Y16.266 E5.11581
G1 X120.247 Y51.306 E6.28125
G1 X120.224 Y51.904 E6.30115
G1 X120.137 Y53.038 E6.33898
G1 X120.037 Y53.821 E6.36523
G1 X119.951 Y54.236 E6.37933
G1 X119.679 Y55.386 E6.41863
G1 X119.458 Y56.145 E6.44493
G1 X119.305 Y56.55 E6.45933
G1 X118.859 Y57.638 E6.49844
G1 X118.523 Y58.352 E6.52468
G1 X118.314 Y58.719 E6.53873
G1 X117.703 Y59.728 E6.57796
G1 X117.26 Y60.382 E6.60424
G1 X116.972 Y60.742 E6.61957
G1 X116.215 Y61.632 E6.65843
G1 X115.674 Y62.206 E6.68466
G1 X115.382 Y62.473 E6.69782
G1 X114.49 Y63.246 E6.73708
G1 X113.868 Y63.732 E6.76334
G1 X113.48 Y63.988 E6.7788
G1 X112.479 Y64.606 E6.81792
G1 X111.786 Y64.986 E6.84421
G1 X111.397 Y65.162 E6.85841
G1 X110.307 Y65.619 E6.89772
G1 X109.564 Y65.887 E6.92399
G1 X109.142 Y66.003 E6.93855
G1 X108.004 Y66.281 E6.97751
G1 X107.228 Y66.43 E7.0038
G1 X106.795 Y66.478 E7.01828
G1 X105.62 Y66.575 E7.0575
G1 X104.83 Y66.6 E7.08379
G1 X104.419 Y66.581 E7.09747
G1 X103.249 Y66.497 E7.13649
G1 X102.466 Y66.401 E7.16272
G1 X102.008 Y66.307 E7.17827
G1 X100.861 Y66.035 E7.21748
G1 X100.103 Y65.814 E7.24374
G1 X99.705 Y65.663 E7.2579
G1 X98.616 Y65.217 E7.29704
G1 X97.901 Y64.881 E7.32332
G1 X97.53 Y64.67 E7.33751
G1 X96.52 Y64.058 E7.37679
G1 X95.866 Y63.615 E7.40306
G1 X95.512 Y63.331 E7.41816
G1 X94.621 Y62.574 E7.45705
G1 X94.046 Y62.033 E7.4833
G1 X93.764 Y61.724 E7.49722
G1 X92.994 Y60.831 E7.53644
G1 X92.818 Y60.605 E7.54596
G1 X92.733 Y60.634 E7.54895
G1 X91.735 Y60.906 E7.58335
G1 X90.776 Y61.1 E7.6159
G1 X89.77 Y61.236 E7.64966
G1 X88.778 Y61.305 E7.68274
G1 X88.238 Y61.324 E7.70071
G1 X73.231 Y61.326 E8.19984
G1 X72.722 Y61.309 E8.21678
G1 X71.756 Y61.246 E8.24898
G1 X70.773 Y61.119 E8.28194
G1 X69.813 Y60.932 E8.31447
G1 X68.823 Y60.671 E8.34853
G1 X67.902 Y60.362 E8.38084
G1 X66.958 Y59.975 E8.41477
G1 X66.07 Y59.541 E8.44764
G1 X65.188 Y59.036 E8.48145
G1 X64.365 Y58.491 E8.51428
G1 X63.549 Y57.87 E8.54839
G1 X63.39 Y57.732 E8.55539
G1 X62.934 Y57.79 E8.57068
G1 X62.339 Y57.813 E8.59048
G1 X47.573 Y57.813 E9.0816
G1 X46.784 Y57.773 E9.10788
G1 X46.004 Y57.654 E9.13412
G1 X45.239 Y57.456 E9.1604
G1 X44.499 Y57.182 E9.18665
G1 X43.923 Y56.899 E9.20799
G1 X43.468 Y57.232 E9.22675
G1 X43.006 Y57.532 E9.24507
G1 X42.219 Y57.98 E9.27519
G1 X41.712 Y58.231 E9.294
G1 X40.882 Y58.584 E9.324
G1 X40.363 Y58.77 E9.34234
G1 X39.526 Y59.018 E9.37137
G1 X38.976 Y59.148 E9.39017
G1 X38.069 Y59.306 E9.42079
G1 X37.51 Y59.37 E9.43951
G1 X36.924 Y59.415 E9.45905
G1 X36.639 Y59.426 E9.46854
G1 X36.113 Y59.429 E9.48604
G1 X35.836 Y59.421 E9.49525
G1 X35.203 Y59.377 E9.51636
G1 X34.652 Y59.316 E9.5348
G1 X33.775 Y59.168 E9.56438
G1 X33.227 Y59.043 E9.58307
G1 X32.324 Y58.779 E9.61436
G1 X31.798 Y58.59 E9.63295
G1 X31.01 Y58.256 E9.66142
G1 X30.511 Y58.012 E9.67989
G1 X29.73 Y57.573 E9.70969
G1 X29.26 Y57.272 E9.72826
G1 X28.569 Y56.774 E9.75658
G1 X28.134 Y56.423 E9.77518
G1 X27.428 Y55.778 E9.80698
G1 X27.033 Y55.37 E9.82587
G1 X26.484 Y54.739 E9.85369
G1 X26.142 Y54.3 E9.8722
G1 X25.617 Y53.536 E9.90303
G1 X25.331 Y53.062 E9.92144
G1 X24.923 Y52.292 E9.95043
G1 X24.687 Y51.779 E9.96921
G1 X24.351 Y50.918 E9.99995
G1 X24.18 Y50.389 E10.01844
G1 X23.963 Y49.568 E10.04668
G1 X23.849 Y49.016 E10.06543
G1 X23.72 Y48.139 E10.09491
G1 X23.67 Y47.585 E10.11341
G1 X23.64 Y46.689 E10.14323
G1 X23.654 Y46.13 E10.16183
G1 X23.727 Y45.243 E10.19143
G1 X23.805 Y44.686 E10.21014
G1 X23.987 Y43.781 E10.24084
G1 X24.129 Y43.242 E10.25938
G1 X24.398 Y42.414 E10.28834
G1 X24.6 Y41.892 E10.30695
G1 X24.969 Y41.08 E10.33662
G1 X25.229 Y40.585 E10.35521
G1 X25.681 Y39.831 E10.38445
G1 X25.996 Y39.367 E10.40311
G1 X26.55 Y38.644 E10.4334
G1 X26.916 Y38.221 E10.45201
G1 X27.017 Y38.117 E10.45683
G1 X26.358 Y37.947 E10.47946
G1 X25.617 Y37.672 E10.50575
G1 X24.908 Y37.325 E10.53201
G1 X24.238 Y36.907 E10.55827
G1 X23.613 Y36.424 E10.58454
G1 X23.153 Y35.996 E10.60544
G1 X23.037 Y35.879 E10.61092
G1 X22.51 Y35.291 E10.63718
G1 X22.045 Y34.652 E10.66347
G1 X21.648 Y33.97 E10.68971
G1 X21.321 Y33.251 E10.71599
G1 X21.068 Y32.503 E10.74225
G1 X20.893 Y31.733 E10.76851
G1 X20.796 Y30.949 E10.79479
G1 X20.776 Y30.387 E10.81349
G1 X20.776 Y20.721 E11.13498
G1 X20.816 Y19.932 E11.16126
G1 X20.935 Y19.152 E11.1875
G1 X21.133 Y18.387 E11.21378
G1 X21.407 Y17.647 E11.24003
G1 X21.755 Y16.938 E11.2663
G1 X22.173 Y16.267 E11.29259
G0 F6000 X22.57 Y16.398
G1 F1200 X23.051 Y15.798 E11.31817
G1 X23.343 Y15.488 E11.33233
G1 X23.46 Y15.371 E11.33784
G1 X24.032 Y14.857 E11.36341
G1 X24.654 Y14.404 E11.38901
G1 X25.319 Y14.018 E11.41458
G1 X26.021 Y13.703 E11.44017
G1 X26.752 Y13.463 E11.46576
G1 X27.503 Y13.3 E11.49132
G1 X28.268 Y13.216 E11.51692
G1 X28.693 Y13.204 E11.53106
G1 X58.375 Y13.204 E12.51829
G1 X59.005 Y13.17 E12.53927
G1 X59.774 Y13.168 E12.56485
G1 X60.199 Y13.202 E12.57903
G1 X61.05 Y13.294 E12.6075
G1 X61.81 Y13.416 E12.6331
G1 X62.305 Y13.541 E12.65008
G1 X63.12 Y13.776 E12.67829
G1 X63.847 Y14.027 E12.70387
G1 X64.311 Y14.233 E12.72076
G1 X65.087 Y14.611 E12.74947
G1 X65.76 Y14.984 E12.77506
G1 X66.171 Y15.259 E12.79151
G1 X66.778 Y15.696 E12.81639
G1 X66.788 Y15.504 E12.82278
G1 X66.907 Y14.744 E12.84837
G1 X67.105 Y14.001 E12.87394
G1 X67.379 Y13.282 E12.89953
G1 X67.726 Y12.596 E12.9251
G1 X68.142 Y11.949 E12.95068
G1 X68.623 Y11.349 E12.97626
G1 X68.915 Y11.039 E12.99043
G1 X69.032 Y10.922 E12.99593
G1 X69.604 Y10.408 E13.02151
G1 X70.226 Y9.955 E13.0471
G1 X70.891 Y9.569 E13.07267
G1 X71.593 Y9.254 E13.09827
G1 X72.324 Y9.014 E13.12386
G1 X73.075 Y8.851 E13.14942
G1 X73.84 Y8.767 E13.17501
G1 X74.265 Y8.755 E13.18915
G1 X74.649 Y8.755 E13.20193
G1 X75.057 Y8.776 E13.21551
G1 X75.141 Y8.767 E13.21832
G1 X75.566 Y8.755 E13.23246
G1 X76.673 Y8.755 E13.26928
G1 X77.155 Y8.78 E13.28534
G1 X77.59 Y8.755 E13.29983
G1 X77.974 Y8.755 E13.3126
G1 X78.742 Y8.795 E13.33818
G1 X79.502 Y8.914 E13.36376
G1 X80.245 Y9.112 E13.38934
G1 X80.964 Y9.386 E13.41493
G1 X81.65 Y9.733 E13.4405
G1 X82.297 Y10.149 E13.46608
G1 X82.897 Y10.63 E13.49166
G1 X83.444 Y11.171 E13.51725
G1 X83.932 Y11.766 E13.54284
G1 X84.355 Y12.408 E13.56841
G1 X84.71 Y13.091 E13.59402
G1 X84.991 Y13.806 E13.61957
G1 X85.197 Y14.548 E13.64518
G1 X85.325 Y15.306 E13.67075
G1 X85.374 Y16.111 E13.69757
G1 X85.463 Y31.126 E14.19698
G1 X88.209 Y31.126 E14.28832
G1 X88.684 Y31.141 E14.30412
G1 X89.649 Y31.203 E14.33628
G1 X90.048 Y31.255 E14.34967
G1 X90.047 Y16.302 E14.84701
G1 X90.069 Y15.728 E14.86611
G1 X90.157 Y14.594 E14.90394
G1 X90.332 Y13.47 E14.94178
G1 X90.603 Y12.32 E14.98107
G1 X90.818 Y11.581 E15.00667
G1 X90.961 Y11.205 E15.02005
G1 X91.408 Y10.117 E15.05917
G1 X91.924 Y9.094 E15.09728
G1 X92.533 Y8.089 E15.13637
G1 X92.966 Y7.453 E15.16196
G1 X93.219 Y7.137 E15.17542
G1 X93.98 Y6.24 E15.21454
G1 X94.781 Y5.431 E15.25241
G1 X95.671 Y4.661 E15.29155
G1 X96.278 Y4.188 E15.31715
G1 X96.627 Y3.959 E15.33103
G1 X97.627 Y3.342 E15.37011
G1 X98.649 Y2.817 E15.40833
G1 X99.74 Y2.359 E15.44768
G1 X100.463 Y2.098 E15.47325
G1 X100.846 Y1.994 E15.48645
G1 X101.983 Y1.716 E15.52538
G1 X102.739 Y1.572 E15.55097
G1 X103.132 Y1.529 E15.56412
G1 X104.307 Y1.432 E15.60334
G1 X105.446 Y1.426 E15.64122
G1 X106.616 Y1.51 E15.68024
G1 X107.379 Y1.605 E15.70581
G1 X107.792 Y1.69 E15.71983
G1 X108.94 Y1.962 E15.75907
G1 X109.678 Y2.178 E15.78465
G1 X110.046 Y2.318 E15.79774
G1 X111.134 Y2.765 E15.83687
G1 X112.15 Y3.277 E15.87471
G1 X113.156 Y3.885 E15.9138
G1 X113.792 Y4.316 E15.93936
G1 X114.118 Y4.578 E15.95327
G1 X115.014 Y5.339 E15.99237
G1 X115.823 Y6.14 E16.03023
G1 X116.593 Y7.031 E16.0694
G1 X117.065 Y7.639 E16.095
G1 X117.289 Y7.98 E16.10857
G1 X117.907 Y8.98 E16.14767
G1 X118.277 Y9.654 E16.17324
G1 X118.436 Y10.007 E16.18612
G1 X118.893 Y11.096 E16.2254
G1 X119.153 Y11.819 E16.25095
G1 X119.258 Y12.204 E16.26423
G1 X119.536 Y13.343 E16.30322
G1 X119.679 Y14.099 E16.32881
G1 X119.722 Y14.486 E16.34176
G1 X119.819 Y15.655 E16.38078
G1 X119.844 Y16.266 E16.40112
G1 X119.847 Y51.306 E17.56655
G1 X119.825 Y51.873 E17.58542
G1 X119.738 Y53.007 E17.62325
G1 X119.561 Y54.144 E17.66152
G1 X119.289 Y55.294 E17.70083
G1 X119.074 Y56.033 E17.72643
G1 X118.935 Y56.398 E17.73942
G1 X118.489 Y57.486 E17.77853
G1 X117.972 Y58.512 E17.81674
G1 X117.361 Y59.521 E17.85597
G1 X116.929 Y60.157 E17.88154
G1 X116.668 Y60.482 E17.89541
G1 X115.911 Y61.372 E17.93427
G1 X115.12 Y62.17 E17.97164
G1 X114.228 Y62.943 E18.0109
G1 X113.622 Y63.416 E18.03647
G1 X113.269 Y63.648 E18.05052
G1 X112.268 Y64.266 E18.08964
G1 X111.594 Y64.635 E18.1152
G1 X111.242 Y64.793 E18.12803
G1 X110.152 Y65.25 E18.16735
G1 X109.428 Y65.511 E18.19294
G1 X109.047 Y65.615 E18.20608
G1 X107.909 Y65.893 E18.24504
G1 X107.153 Y66.036 E18.27063
G1 X106.762 Y66.079 E18.28371
G1 X105.587 Y66.176 E18.32293
G1 X104.448 Y66.182 E18.36081
G1 X103.278 Y66.098 E18.39983
G1 X102.515 Y66.003 E18.4254
G1 X102.101 Y65.917 E18.43946
G1 X100.954 Y65.645 E18.47867
G1 X99.856 Y65.293 E18.51702
G1 X98.767 Y64.847 E18.55616
G1 X98.072 Y64.519 E18.58172
G1 X97.737 Y64.328 E18.59455
G1 X96.727 Y63.716 E18.63383
G1 X96.091 Y63.284 E18.6594
G1 X95.771 Y63.026 E18.67307
G1 X94.88 Y62.269 E18.71196
G1 X94.067 Y61.462 E18.75006
G1 X93.297 Y60.569 E18.78928
G1 X92.958 Y60.133 E18.80764
G1 X92.603 Y60.256 E18.82014
G1 X91.655 Y60.514 E18.85282
G1 X90.696 Y60.708 E18.88536
G1 X89.742 Y60.837 E18.91738
G1 X88.75 Y60.906 E18.95045
G1 X88.238 Y60.924 E18.96749
G1 X73.231 Y60.926 E19.46663
G1 X72.748 Y60.91 E19.4827
G1 X71.782 Y60.847 E19.5149
G1 X70.849 Y60.726 E19.54619
G1 X69.889 Y60.539 E19.57872
G1 X68.95 Y60.292 E19.61101
G1 X68.029 Y59.983 E19.64332
G1 X67.134 Y59.615 E19.67551
G1 X66.246 Y59.181 E19.70838
G1 X65.409 Y58.703 E19.74044
G1 X64.586 Y58.158 E19.77327
G1 X63.812 Y57.568 E19.80564
G1 X63.524 Y57.318 E19.81833
G1 X62.764 Y57.401 E19.84376
G1 X62.339 Y57.413 E19.8579
G1 X47.573 Y57.413 E20.34902
G1 X46.805 Y57.373 E20.37459
G1 X46.045 Y57.254 E20.40018
G1 X45.302 Y57.056 E20.42575
G1 X44.583 Y56.782 E20.45135
G1 X43.897 Y56.435 E20.47692
G1 X43.889 Y56.43 E20.47723
G1 X43.25 Y56.896 E20.50353
G1 X42.788 Y57.196 E20.52186
G1 X42.041 Y57.622 E20.55046
G1 X41.534 Y57.873 E20.56927
G1 X40.748 Y58.207 E20.59768
G1 X40.229 Y58.393 E20.61602
G1 X39.434 Y58.629 E20.6436
G1 X38.884 Y58.759 E20.66239
G1 X38.024 Y58.909 E20.69143
G1 X37.465 Y58.973 E20.71014
G1 X36.908 Y59.015 E20.72872
G1 X36.623 Y59.026 E20.73821
G1 X36.124 Y59.029 E20.75481
G1 X35.847 Y59.021 E20.76402
G1 X35.247 Y58.979 E20.78403
G1 X34.696 Y58.918 E20.80247
G1 X33.864 Y58.778 E20.83053
G1 X33.316 Y58.653 E20.84922
G1 X32.46 Y58.402 E20.87889
G1 X31.934 Y58.213 E20.89748
G1 X31.185 Y57.897 E20.92452
G1 X30.686 Y57.653 E20.94299
G1 X29.946 Y57.237 E20.97123
G1 X29.476 Y56.936 E20.98979
G1 X28.82 Y56.463 E21.01669
G1 X28.385 Y56.112 E21.03528
G1 X27.715 Y55.5 E21.06546
G1 X27.32 Y55.092 E21.08435
G1 X26.799 Y54.493 E21.11076
G1 X26.457 Y54.054 E21.12927
G1 X25.959 Y53.329 E21.15852
G1 X25.673 Y52.855 E21.17693
G1 X25.286 Y52.125 E21.20441
G1 X25.05 Y51.612 E21.22319
G1 X24.732 Y50.795 E21.25235
G1 X24.561 Y50.266 E21.27084
G1 X24.355 Y49.487 E21.29765
G1 X24.241 Y48.935 E21.31639
G1 X24.118 Y48.103 E21.34437
G1 X24.068 Y47.549 E21.36287
G1 X24.04 Y46.699 E21.39115
G1 X24.054 Y46.14 E21.40975
G1 X24.124 Y45.299 E21.43782
G1 X24.202 Y44.742 E21.45653
G1 X24.374 Y43.883 E21.48566
G1 X24.516 Y43.344 E21.5042
G1 X24.771 Y42.558 E21.53169
G1 X24.973 Y42.036 E21.5503
G1 X25.323 Y41.266 E21.57843
G1 X25.583 Y40.771 E21.59703
