;FLAVOR:Marlin
;TIME:5701
;Filament used: 2.2101m
;Layer height: 0.2
;MINX:84.809
;MINY:96.051
;MINZ:0.2
;MAXX:153.54
;MAXY:144.116
;MAXZ:20
;POSTPROCESSED
;Generated with Cura_SteamEngine 4.4.0
M140 S60
M105
M190 S60
M104 S200
M105
M109 S200
M82 ;absolute extrusion mode
M201 X500.00 Y500.00 Z100.00 E5000.00 ;Setup machine max acceleration
M203 X500.00 Y500.00 Z10.00 E50.00 ;Setup machine max feedrate
M204 P500.00 R1000.00 T500.00 ;Setup Print/Retract/Travel acceleration
M205 X8.00 Y8.00 Z0.40 E5.00 ;Setup Jerk
M220 S100 ;Reset Feedrate
M221 S100 ;Reset Flowrate

G28 ;Home

G92 E0 ;Reset Extruder
G1 Z2.0 F3000 ;Move Z Axis up
G1 X10.1 Y20 Z0.28 F5000.0 ;Move to start position
G1 X10.1 Y200.0 Z0.28 F1500.0 E15 ;Draw the first line
G1 X10.4 Y200.0 Z0.28 F5000.0 ;Move to side a little
G1 X10.4 Y20 Z0.28 F1500.0 E30 ;Draw the second line
G92 E0 ;Reset Extruder
G1 Z2.0 F3000 ;Move Z Axis up

G92 E0
G92 E0
G1 F2700 E-5
;LAYER_COUNT:100
;LAYER:[layer_num]
;LAYER:0
M107
M204 S500
M205 X8 Y8
G0 F6000 X104.025 Y99.797 Z0.2
;TYPE:SKIRT
G1 F2700 E0
G1 F1200 X104.491 Y99.368 E0.02107
G1 X104.722 Y99.172 E0.03114
G1 X105.349 Y98.693 E0.05739
G1 X106.021 Y98.279 E0.08364
G1 X106.127 Y98.228 E0.08755
G1 X106.213 Y98.159 E0.09122
G1 X106.876 Y97.73 E0.11748
G1 X107.369 Y97.469 E0.13604
G1 X107.658 Y97.329 E0.14672
G1 X108.386 Y97.021 E0.17301
G1 X109.14 Y96.789 E0.19925
G1 X109.224 Y96.772 E0.2021
G1 X109.307 Y96.734 E0.20513
G1 X110.055 Y96.48 E0.23141
G1 X110.668 Y96.332 E0.25238
G1 X110.974 Y96.271 E0.26276
G1 X111.755 Y96.156 E0.28902
G1 X112.544 Y96.12 E0.31529
G1 X112.612 Y96.124 E0.31755
G1 X112.655 Y96.116 E0.31901
G1 X113.442 Y96.051 E0.34527
G1 X114.124 Y96.059 E0.36796
G1 X114.43 Y96.076 E0.37815
G1 X115.215 Y96.16 E0.40441
G1 X115.988 Y96.322 E0.43068
G1 X116.064 Y96.346 E0.43333
G1 X116.118 Y96.35 E0.43513
G1 X116.896 Y96.485 E0.46139
G1 X117.478 Y96.641 E0.48143
G1 X117.772 Y96.732 E0.49167
G1 X118.514 Y97.003 E0.51794
G1 X119.224 Y97.348 E0.5442
G1 X119.3 Y97.395 E0.54717
G1 X119.331 Y97.405 E0.54825
G1 X120.053 Y97.724 E0.5745
G1 X120.673 Y98.072 E0.59815
G1 X120.941 Y98.239 E0.60865
G1 X121.589 Y98.69 E0.63491
G1 X122.189 Y99.204 E0.66119
G1 X122.249 Y99.267 E0.66408
G1 X122.277 Y99.285 E0.66519
G1 X122.895 Y99.777 E0.69146
G1 X123.3 Y100.162 E0.71005
G1 X123.51 Y100.376 E0.72002
G1 X124.034 Y100.967 E0.74629
G1 X124.495 Y101.608 E0.77255
G1 X124.581 Y101.756 E0.77825
G1 X124.601 Y101.778 E0.77924
G1 X125.081 Y102.406 E0.80553
G1 X125.193 Y102.586 E0.81258
G1 X125.327 Y102.566 E0.81708
G1 X126.056 Y102.532 E0.84136
G1 X126.359 Y102.532 E0.85143
G1 X127.148 Y102.572 E0.87771
G1 X127.928 Y102.691 E0.90395
G1 X128.192 Y102.759 E0.91302
G1 X128.532 Y102.784 E0.92436
G1 X129.31 Y102.92 E0.95063
G1 X129.953 Y103.096 E0.9728
G1 X130.253 Y103.192 E0.98328
G1 X130.992 Y103.471 E1.00955
G1 X131.699 Y103.822 E1.0358
G1 X131.958 Y103.986 E1.046
G1 X132.302 Y104.128 E1.05838
G1 X132.998 Y104.502 E1.08466
G1 X133.535 Y104.858 E1.10609
G1 X133.789 Y105.042 E1.11652
G1 X134.404 Y105.537 E1.14278
G1 X134.966 Y106.092 E1.16905
G1 X135.141 Y106.304 E1.17819
G1 X135.444 Y106.563 E1.19145
G1 X135.989 Y107.134 E1.2177
G1 X136.383 Y107.631 E1.2388
G1 X136.563 Y107.878 E1.24896
G1 X136.995 Y108.539 E1.27522
G1 X137.358 Y109.24 E1.30148
G1 X137.463 Y109.507 E1.31102
G1 X137.662 Y109.83 E1.32364
G1 X138.006 Y110.541 E1.34991
G1 X138.252 Y111.209 E1.37359
G1 X138.344 Y111.498 E1.38368
G1 X138.546 Y112.262 E1.40996
G1 X138.669 Y113.042 E1.43622
G1 X138.68 Y113.247 E1.44305
G1 X138.767 Y113.6 E1.45514
G1 X138.877 Y114.382 E1.48141
G1 X138.908 Y115.078 E1.50458
G1 X138.908 Y115.385 E1.51479
G1 X145.623 Y115.385 E1.73813
G1 X146.412 Y115.425 E1.76441
G1 X147.192 Y115.544 E1.79065
G1 X147.957 Y115.742 E1.81693
G1 X148.697 Y116.016 E1.84318
G1 X149.406 Y116.364 E1.86945
G1 X150.077 Y116.782 E1.89574
G1 X150.701 Y117.265 E1.92199
G1 X151.138 Y117.67 E1.94181
G1 X151.255 Y117.787 E1.94731
G1 X151.785 Y118.373 E1.97359
G1 X152.252 Y119.009 E1.99983
G1 X152.653 Y119.689 E2.02609
G1 X152.983 Y120.407 E2.05237
G1 X153.238 Y121.154 E2.07862
G1 X153.417 Y121.923 E2.10488
G1 X153.517 Y122.707 E2.13117
G1 X153.54 Y123.302 E2.15098
G1 X153.54 Y133.055 E2.47536
G1 X153.5 Y133.844 E2.50164
G1 X153.381 Y134.624 E2.52788
G1 X153.183 Y135.389 E2.55416
G1 X152.909 Y136.129 E2.58041
G1 X152.561 Y136.838 E2.60668
G1 X152.143 Y137.509 E2.63297
G1 X151.66 Y138.133 E2.65922
G1 X151.255 Y138.57 E2.67903
G1 X151.138 Y138.687 E2.68454
G1 X150.552 Y139.217 E2.71082
G1 X149.916 Y139.684 E2.73706
G1 X149.236 Y140.085 E2.76332
G1 X148.518 Y140.415 E2.7896
G1 X147.771 Y140.67 E2.81585
G1 X147.002 Y140.849 E2.84211
G1 X146.218 Y140.949 E2.8684
G1 X145.629 Y140.972 E2.88801
G1 X127.863 Y140.985 E3.47891
G1 X127.074 Y140.946 E3.50518
G1 X126.293 Y140.827 E3.53146
G1 X125.529 Y140.629 E3.55771
G1 X124.788 Y140.356 E3.58397
G1 X124.079 Y140.009 E3.61023
G1 X123.408 Y139.592 E3.6365
G1 X122.783 Y139.109 E3.66277
G1 X122.342 Y138.7 E3.68278
G1 X122.225 Y138.583 E3.68828
G1 X121.695 Y137.997 E3.71456
G1 X121.228 Y137.361 E3.7408
G1 X120.933 Y136.861 E3.76011
G1 X120.164 Y136.996 E3.78608
G1 X120.053 Y137.004 E3.78978
G1 X119.314 Y137.167 E3.81495
G1 X118.635 Y137.251 E3.83771
G1 X118.333 Y137.275 E3.84778
G1 X118.323 Y137.275 E3.84812
G1 X118.25 Y137.755 E3.86427
G1 X118.052 Y138.52 E3.89055
G1 X117.778 Y139.26 E3.91679
G1 X117.43 Y139.969 E3.94306
G1 X117.012 Y140.64 E3.96936
G1 X116.529 Y141.264 E3.9956
G1 X116.124 Y141.701 E4.01542
G1 X116.007 Y141.818 E4.02092
G1 X115.421 Y142.348 E4.0472
G1 X114.785 Y142.815 E4.07345
G1 X114.105 Y143.216 E4.0997
G1 X113.387 Y143.546 E4.12598
G1 X112.64 Y143.801 E4.15224
G1 X111.871 Y143.98 E4.1785
G1 X111.087 Y144.08 E4.20479
G1 X110.498 Y144.103 E4.22439
G1 X92.732 Y144.116 E4.81529
G1 X91.943 Y144.077 E4.84156
G1 X91.162 Y143.958 E4.86784
G1 X90.398 Y143.76 E4.89409
G1 X89.657 Y143.487 E4.92036
G1 X88.948 Y143.14 E4.94661
G1 X88.277 Y142.723 E4.97289
G1 X87.652 Y142.24 E4.99916
G1 X87.211 Y141.831 E5.01916
G1 X87.094 Y141.714 E5.02467
G1 X86.564 Y141.128 E5.05095
G1 X86.097 Y140.492 E5.07719
G1 X85.696 Y139.812 E5.10345
G1 X85.366 Y139.094 E5.12973
G1 X85.111 Y138.347 E5.15598
G1 X84.932 Y137.578 E5.18224
G1 X84.832 Y136.794 E5.20853
G1 X84.809 Y136.199 E5.22833
G1 X84.809 Y126.433 E5.55315
G1 X84.849 Y125.644 E5.57943
G1 X84.968 Y124.864 E5.60567
G1 X85.166 Y124.099 E5.63195
G1 X85.44 Y123.359 E5.6582
G1 X85.788 Y122.65 E5.68447
G1 X86.206 Y121.979 E5.71076
G1 X86.689 Y121.355 E5.73701
G1 X87.094 Y120.918 E5.75682
G1 X87.211 Y120.801 E5.76233
G1 X87.797 Y120.271 E5.78861
G1 X88.433 Y119.804 E5.81485
G1 X89.113 Y119.403 E5.84111
G1 X89.831 Y119.073 E5.86739
G1 X90.578 Y118.818 E5.89364
G1 X91.347 Y118.639 E5.9199
G1 X92.131 Y118.539 E5.94619
G1 X92.274 Y118.533 E5.95095
G1 X92.285 Y118.318 E5.95811
G1 X92.404 Y117.538 E5.98435
G1 X92.471 Y117.28 E5.99322
G1 X92.494 Y116.948 E6.00429
G1 X92.629 Y116.17 E6.03055
G1 X92.808 Y115.517 E6.05307
G1 X92.902 Y115.223 E6.06334
G1 X93.18 Y114.484 E6.0896
G1 X93.531 Y113.776 E6.11588
G1 X93.699 Y113.51 E6.12635
G1 X93.833 Y113.182 E6.13813
G1 X94.206 Y112.485 E6.16442
G1 X94.561 Y111.945 E6.18592
G1 X94.744 Y111.691 E6.19633
G1 X95.238 Y111.075 E6.22259
G1 X95.791 Y110.511 E6.24886
G1 X96.01 Y110.33 E6.25831
G1 X96.245 Y110.052 E6.27042
G1 X96.814 Y109.503 E6.29672
G1 X97.422 Y109.024 E6.32246
G1 X97.677 Y108.843 E6.33286
G1 X98.344 Y108.42 E6.35913
G1 X99.049 Y108.065 E6.38539
G1 X99.217 Y108.001 E6.39137
G1 X99.59 Y107.776 E6.40585
G1 X99.857 Y107.65 E6.41567
G1 X99.919 Y107.274 E6.42835
G1 X100.126 Y106.512 E6.45461
G1 X100.16 Y106.423 E6.45778
G1 X100.162 Y106.409 E6.45825
G1 X100.34 Y105.64 E6.4845
G1 X100.56 Y104.981 E6.50761
G1 X100.673 Y104.687 E6.51809
G1 X100.994 Y103.965 E6.54437
G1 X101.385 Y103.279 E6.57063
G1 X101.43 Y103.215 E6.57323
G1 X101.443 Y103.184 E6.57435
G1 X101.809 Y102.484 E6.60062
G1 X102.135 Y101.977 E6.62067
G1 X102.314 Y101.721 E6.63106
G1 X102.798 Y101.098 E6.6573
G1 X103.344 Y100.527 E6.68358
G1 X103.465 Y100.423 E6.68888
G1 X103.495 Y100.383 E6.69055
G1 X104.025 Y99.797 E6.71683
G0 F6000 X104.393 Y99.996
G1 F1200 X104.749 Y99.673 E6.73281
G1 X104.98 Y99.477 E6.74289
G1 X105.592 Y99.011 E6.76847
G1 X106.249 Y98.61 E6.79407
G1 X106.357 Y98.558 E6.79806
G1 X106.528 Y98.425 E6.80527
G1 X107.18 Y98.018 E6.83083
G1 X107.544 Y97.829 E6.84447
G1 X107.833 Y97.689 E6.85515
G1 X108.542 Y97.39 E6.88075
G1 X109.277 Y97.167 E6.90629
G1 X109.37 Y97.149 E6.90944
G1 X109.549 Y97.07 E6.91595
G1 X110.28 Y96.832 E6.94152
G1 X110.746 Y96.724 E6.95743
G1 X111.052 Y96.663 E6.96781
G1 X111.813 Y96.552 E6.99339
G1 X112.582 Y96.52 E7.01899
G1 X112.663 Y96.525 E7.02168
G1 X112.808 Y96.5 E7.02658
G1 X113.575 Y96.448 E7.05215
G1 X114.101 Y96.458 E7.06965
G1 X114.407 Y96.475 E7.07984
G1 X115.172 Y96.558 E7.10543
G1 X115.924 Y96.719 E7.13101
G1 X116.005 Y96.746 E7.13385
G1 X116.169 Y96.759 E7.13932
G1 X116.924 Y96.902 E7.16488
G1 X117.36 Y97.023 E7.17993
G1 X117.654 Y97.114 E7.19017
G1 X118.376 Y97.379 E7.21575
G1 X119.067 Y97.718 E7.24135
G1 X119.152 Y97.771 E7.24468
G1 X119.281 Y97.815 E7.24921
G1 X119.98 Y98.136 E7.27479
G1 X120.462 Y98.412 E7.29327
G1 X120.73 Y98.579 E7.30377
G1 X121.36 Y99.019 E7.32933
G1 X121.942 Y99.522 E7.35491
G1 X122.006 Y99.591 E7.35804
G1 X122.125 Y99.669 E7.36278
G1 X122.719 Y100.157 E7.38834
G1 X123.015 Y100.442 E7.40201
G1 X123.225 Y100.656 E7.41198
G1 X123.734 Y101.232 E7.43755
G1 X124.181 Y101.858 E7.46313
G1 X124.271 Y102.017 E7.46921
G1 X124.36 Y102.114 E7.47359
G1 X124.818 Y102.732 E7.49917
G1 X124.993 Y103.018 E7.51033
G1 X125.484 Y102.954 E7.52679
G1 X126.056 Y102.932 E7.54583
G1 X126.359 Y102.932 E7.55591
G1 X127.127 Y102.972 E7.58149
G1 X127.887 Y103.091 E7.60707
G1 X128.129 Y103.156 E7.61541
G1 X128.582 Y103.194 E7.63053
G1 X129.338 Y103.338 E7.65613
G1 X129.831 Y103.477 E7.67316
G1 X130.131 Y103.573 E7.68364
G1 X130.851 Y103.845 E7.70924
G1 X131.538 Y104.191 E7.73482
G1 X131.772 Y104.341 E7.74407
G1 X132.221 Y104.533 E7.76031
G1 X132.893 Y104.907 E7.78589
G1 X133.3 Y105.182 E7.80222
G1 X133.554 Y105.366 E7.81266
G1 X134.153 Y105.849 E7.83825
G1 X134.698 Y106.392 E7.86384
G1 X134.853 Y106.582 E7.87199
G1 X135.241 Y106.923 E7.88917
G1 X135.763 Y107.487 E7.91473
G1 X136.059 Y107.867 E7.93075
G1 X136.239 Y108.114 E7.94092
G1 X136.66 Y108.758 E7.96651
G1 X137.01 Y109.443 E7.99209
G1 X137.102 Y109.681 E8.00058
G1 X137.359 Y110.11 E8.01721
G1 X137.683 Y110.808 E8.04281
G1 X137.871 Y111.33 E8.06126
G1 X137.963 Y111.619 E8.07135
G1 X138.158 Y112.363 E8.09693
G1 X138.275 Y113.124 E8.12254
G1 X138.284 Y113.31 E8.12873
G1 X138.392 Y113.774 E8.14458
G1 X138.488 Y114.537 E8.17016
G1 X138.508 Y115.078 E8.18816
G1 X138.508 Y115.384 E8.19834
G1 X138.487 Y115.785 E8.2117
G1 X145.623 Y115.785 E8.44904
G1 X146.391 Y115.825 E8.47462
G1 X147.151 Y115.944 E8.5002
G1 X147.894 Y116.142 E8.52578
G1 X148.613 Y116.416 E8.55137
G1 X149.299 Y116.763 E8.57694
G1 X149.946 Y117.179 E8.60252
G1 X150.546 Y117.66 E8.6281
G1 X150.856 Y117.952 E8.64227
G1 X150.973 Y118.069 E8.64777
G1 X151.487 Y118.641 E8.67335
G1 X151.94 Y119.263 E8.69894
G1 X152.326 Y119.928 E8.72451
G1 X152.641 Y120.63 E8.7501
G1 X152.881 Y121.361 E8.77569
G1 X153.044 Y122.112 E8.80125
G1 X153.128 Y122.877 E8.82685
G1 X153.14 Y123.302 E8.84099
G1 X153.14 Y133.055 E9.16538
G1 X153.1 Y133.823 E9.19096
G1 X152.981 Y134.583 E9.21654
G1 X152.783 Y135.326 E9.24212
G1 X152.509 Y136.045 E9.26771
G1 X152.162 Y136.731 E9.29328
G1 X151.746 Y137.378 E9.31886
G1 X151.265 Y137.978 E9.34444
G1 X150.973 Y138.288 E9.3586
G1 X150.856 Y138.405 E9.36411
G1 X150.284 Y138.919 E9.38968
G1 X149.662 Y139.372 E9.41528
G1 X148.997 Y139.758 E9.44085
G1 X148.295 Y140.073 E9.46644
G1 X147.564 Y140.313 E9.49203
G1 X146.813 Y140.476 E9.51759
G1 X146.048 Y140.56 E9.54319
G1 X145.628 Y140.572 E9.55716
G1 X127.862 Y140.585 E10.14806
G1 X127.094 Y140.546 E10.17364
G1 X126.334 Y140.427 E10.19923
G1 X125.591 Y140.229 E10.2248
G1 X124.872 Y139.956 E10.25038
G1 X124.185 Y139.61 E10.27596
G1 X123.538 Y139.194 E10.30155
G1 X122.938 Y138.713 E10.32713
G1 X122.624 Y138.418 E10.34146
G1 X122.507 Y138.301 E10.34696
G1 X121.993 Y137.729 E10.37254
G1 X121.54 Y137.107 E10.39813
G1 X121.154 Y136.442 E10.4237
G1 X121.131 Y136.39 E10.42559
G1 X120.833 Y136.474 E10.43589
G1 X120.075 Y136.604 E10.46147
G1 X119.965 Y136.611 E10.46514
G1 X119.883 Y136.637 E10.468
G1 X119.129 Y136.792 E10.4936
G1 X118.603 Y136.853 E10.51121
G1 X118.301 Y136.877 E10.52129
G1 X117.973 Y136.886 E10.5322
G1 X117.969 Y136.954 E10.53447
G1 X117.85 Y137.714 E10.56005
G1 X117.652 Y138.457 E10.58563
G1 X117.378 Y139.176 E10.61122
G1 X117.031 Y139.862 E10.63679
G1 X116.615 Y140.509 E10.66237
G1 X116.134 Y141.109 E10.68795
G1 X115.842 Y141.419 E10.70211
G1 X115.725 Y141.536 E10.70762
G1 X115.153 Y142.05 E10.7332
G1 X114.531 Y142.503 E10.75879
G1 X113.866 Y142.889 E10.78436
G1 X113.164 Y143.204 E10.80995
G1 X112.433 Y143.444 E10.83554
G1 X111.682 Y143.607 E10.8611
G1 X110.917 Y143.691 E10.8867
G1 X110.497 Y143.703 E10.90068
G1 X92.731 Y143.716 E11.49158
G1 X91.963 Y143.677 E11.51715
G1 X91.203 Y143.558 E11.54274
G1 X90.46 Y143.36 E11.56831
G1 X89.741 Y143.087 E11.59389
G1 X89.054 Y142.741 E11.61948
G1 X88.407 Y142.325 E11.64506
G1 X87.807 Y141.844 E11.67064
G1 X87.493 Y141.549 E11.68497
G1 X87.376 Y141.432 E11.69047
G1 X86.862 Y140.86 E11.71605
G1 X86.409 Y140.238 E11.74164
G1 X86.023 Y139.573 E11.76721
G1 X85.708 Y138.871 E11.79281
G1 X85.468 Y138.14 E11.8184
G1 X85.305 Y137.389 E11.84396
G1 X85.221 Y136.624 E11.86955
G1 X85.209 Y136.199 E11.88369
G1 X85.209 Y126.433 E12.20851
G1 X85.249 Y125.665 E12.23409
G1 X85.368 Y124.905 E12.25968
G1 X85.566 Y124.162 E12.28525
G1 X85.84 Y123.443 E12.31084
G1 X86.187 Y122.757 E12.33641
G1 X86.603 Y122.11 E12.362
G1 X87.084 Y121.51 E12.38757
G1 X87.376 Y121.2 E12.40174
G1 X87.493 Y121.083 E12.40724
G1 X88.065 Y120.569 E12.43282
G1 X88.687 Y120.116 E12.45841
G1 X89.352 Y119.73 E12.48399
G1 X90.054 Y119.415 E12.50958
G1 X90.785 Y119.175 E12.53517
G1 X91.536 Y119.012 E12.56073
G1 X92.301 Y118.928 E12.58632
G1 X92.655 Y118.918 E12.5981
G1 X92.685 Y118.339 E12.61739
G1 X92.804 Y117.579 E12.64297
G1 X92.868 Y117.34 E12.6512
G1 X92.904 Y116.897 E12.66598
G1 X93.047 Y116.142 E12.69154
G1 X93.189 Y115.638 E12.70896
G1 X93.283 Y115.344 E12.71922
G1 X93.555 Y114.625 E12.74479
G1 X93.9 Y113.938 E12.77036
G1 X94.055 Y113.695 E12.77995
G1 X94.238 Y113.262 E12.79558
G1 X94.611 Y112.589 E12.82117
G1 X94.886 Y112.179 E12.83759
G1 X95.069 Y111.925 E12.84801
G1 X95.55 Y111.325 E12.87358
G1 X96.092 Y110.779 E12.89917
G1 X96.293 Y110.614 E12.90782
G1 X96.606 Y110.253 E12.92371
G1 X97.168 Y109.727 E12.94931
G1 X97.654 Y109.351 E12.96975
G1 X97.909 Y109.17 E12.98015
G1 X98.558 Y108.758 E13.00572
G1 X99.247 Y108.415 E13.03132
G1 X99.39 Y108.362 E13.03639
G1 X99.867 Y108.081 E13.05481
G1 X100.216 Y107.922 E13.06756
G1 X100.314 Y107.339 E13.08722
G1 X100.519 Y106.598 E13.1128
G1 X100.557 Y106.5 E13.11629
G1 X100.574 Y106.381 E13.12029
G1 X100.759 Y105.634 E13.14589
G1 X100.934 Y105.124 E13.16382
G1 X101.047 Y104.83 E13.17429
G1 X101.36 Y104.127 E13.19989
G1 X101.744 Y103.461 E13.22546
G1 X101.793 Y103.394 E13.22822
G1 X101.848 Y103.26 E13.23304
G1 X102.215 Y102.584 E13.25862
G1 X102.462 Y102.207 E13.27361
G1 X102.641 Y101.951 E13.284
G1 X103.114 Y101.344 E13.3096
G1 X103.648 Y100.79 E13.33519
G1 X103.777 Y100.681 E13.34081
G1 X103.869 Y100.559 E13.34589
G1 X104.393 Y99.996 E13.37147
G0 F6000 X104.242 Y100.738
G1 F1200 X105.008 Y99.978 E13.40736
G1 X105.239 Y99.782 E13.41743
G1 X105.835 Y99.33 E13.44231
G1 X106.475 Y98.943 E13.46719
G1 X106.579 Y98.895 E13.471
G1 X106.842 Y98.695 E13.48199
G1 X107.718 Y98.189 E13.51563
G1 X108.007 Y98.049 E13.52632
G1 X108.697 Y97.76 E13.5512
G1 X109.414 Y97.545 E13.57609
G1 X109.505 Y97.528 E13.57917
G1 X109.788 Y97.407 E13.58941
G1 X110.825 Y97.116 E13.62523
G1 X111.131 Y97.055 E13.63561
G1 X111.871 Y96.948 E13.66048
G1 X112.618 Y96.921 E13.68534
G1 X112.701 Y96.927 E13.68811
G1 X112.957 Y96.886 E13.69673
G1 X113.704 Y96.847 E13.72161
