;FLAVOR:Marlin
;TIME:2756
;Filament used: 1.84857m
;Layer height: 0.24
;MINX:21.908
;MINY:12.585
;MINZ:0.2
;MAXX:107.277
;MAXY:66.154
;MAXZ:9.8
;POSTPROCESSED
;Generated with Cura_SteamEngine 4.4.0
M140 S60
M105
M190 S60
M104 S200
M105
M109 S200
M82 ;absolute extrusion mode
M201 X500.00 Y500.00 Z100.00 E5000.00 ;Setup machine max acceleration
M203 X500.00 Y500.00 Z10.00 E50.00 ;Setup machine max feedrate
M204 P500.00 R1000.00 T500.00 ;Setup Print/Retract/Travel acceleration
M205 X8.00 Y8.00 Z0.40 E5.00 ;Setup Jerk
M220 S100 ;Reset Feedrate
M221 S100 ;Reset Flowrate

G28 ;Home

G92 E0 ;Reset Extruder
G1 Z2.0 F3000 ;Move Z Axis up
G1 X10.1 Y20 Z0.28 F5000.0 ;Move to start position
G1 X10.1 Y200.0 Z0.28 F1500.0 E15 ;Draw the first line
G1 X10.4 Y200.0 Z0.28 F5000.0 ;Move to side a little
G1 X10.4 Y20 Z0.28 F1500.0 E30 ;Draw the second line
G92 E0 ;Reset Extruder
G1 Z2.0 F3000 ;Move Z Axis up

G92 E0
G92 E0
G1 F2700 E-5
;LAYER_COUNT:41
;LAYER:[layer_num]
;LAYER:0
M107
M204 S500
M205 X8 Y8
G0 F6000 X27.388 Y20.326 Z0.2
;TYPE:SKIRT
G1 F2700 E0
G1 F1200 X27.874 Y19.704 E0.02625
G1 X28.421 Y19.134 E0.05253
G1 X29.022 Y18.623 E0.07877
G1 X29.672 Y18.175 E0.10502
G1 X30.082 Y17.939 E0.12076
G1 X30.345 Y17.798 E0.13068
G1 X31.059 Y17.46 E0.15696
G1 X31.804 Y17.197 E0.18324
G1 X32.01 Y17.147 E0.19029
G1 X32.461 Y16.556 E0.21501
G1 X33 Y15.98 E0.24125
G1 X33.595 Y15.461 E0.26751
G1 X34.24 Y15.005 E0.29378
G1 X34.928 Y14.616 E0.32007
G1 X35.651 Y14.299 E0.34633
G1 X36.402 Y14.057 E0.37257
G1 X37.175 Y13.892 E0.39886
G1 X37.633 Y13.831 E0.41423
G1 X37.93 Y13.801 E0.42416
G1 X38.719 Y13.762 E0.45043
G1 X39.507 Y13.802 E0.47667
G1 X39.715 Y13.834 E0.48367
G1 X40.377 Y13.449 E0.50914
G1 X41.096 Y13.123 E0.5354
G1 X41.845 Y12.871 E0.56169
G1 X42.615 Y12.697 E0.58794
G1 X43.399 Y12.601 E0.61421
G1 X44.188 Y12.585 E0.64046
G1 X44.975 Y12.648 E0.66672
G1 X45.752 Y12.791 E0.693
G1 X46.189 Y12.909 E0.70805
G1 X46.473 Y12.994 E0.71791
G1 X47.218 Y13.258 E0.7442
G1 X47.931 Y13.596 E0.77044
G1 X48.191 Y13.754 E0.78056
G1 X48.964 Y13.647 E0.80652
G1 X49.753 Y13.619 E0.83278
G1 X50.541 Y13.671 E0.85904
G1 X51.319 Y13.802 E0.88528
G1 X52.081 Y14.011 E0.91156
G1 X52.817 Y14.296 E0.93781
G1 X53.521 Y14.654 E0.96408
G1 X54.185 Y15.081 E0.99034
G1 X54.573 Y15.379 E1.00661
G1 X54.803 Y15.567 E1.01649
G1 X55.389 Y16.097 E1.04277
G1 X55.917 Y16.683 E1.06901
G1 X56.053 Y16.868 E1.07664
G1 X56.747 Y17.051 E1.10052
G1 X57.486 Y17.329 E1.12678
G1 X58.193 Y17.681 E1.15304
G1 X58.862 Y18.102 E1.17934
G1 X59.484 Y18.588 E1.20559
G1 X60.054 Y19.135 E1.23186
G1 X60.565 Y19.736 E1.2581
G1 X60.63 Y19.83 E1.2619
G1 X61.289 Y19.441 E1.28736
G1 X62.007 Y19.111 E1.31364
G1 X62.754 Y18.856 E1.33989
G1 X63.523 Y18.677 E1.36615
G1 X64.307 Y18.577 E1.39244
G1 X64.902 Y18.554 E1.41224
G1 X96.374 Y18.554 E2.45901
G1 X96.786 Y18.575 E2.47273
G1 X96.882 Y18.565 E2.47594
G1 X97.291 Y18.554 E2.48955
G1 X99.36 Y18.554 E2.55836
G1 X100.149 Y18.594 E2.58464
G1 X100.929 Y18.713 E2.61088
G1 X101.694 Y18.911 E2.63716
G1 X102.434 Y19.185 E2.66341
G1 X103.143 Y19.533 E2.68968
G1 X103.814 Y19.951 E2.71597
G1 X104.438 Y20.434 E2.74222
G1 X104.875 Y20.839 E2.76203
G1 X104.992 Y20.956 E2.76754
G1 X105.522 Y21.542 E2.79382
G1 X105.989 Y22.178 E2.82006
G1 X106.39 Y22.858 E2.84632
G1 X106.72 Y23.576 E2.8726
G1 X106.975 Y24.323 E2.89885
G1 X107.154 Y25.092 E2.92511
G1 X107.254 Y25.876 E2.9514
G1 X107.277 Y26.471 E2.9712
G1 X107.277 Y29.83 E3.08293
G1 X107.237 Y30.619 E3.1092
G1 X107.118 Y31.399 E3.13544
G1 X107.07 Y31.583 E3.14177
G1 X107.051 Y31.996 E3.15552
G1 X106.934 Y32.777 E3.18179
G1 X106.739 Y33.543 E3.20808
G1 X106.468 Y34.284 E3.23432
G1 X106.406 Y34.412 E3.23905
G1 X106.406 Y58.237 E4.03147
G1 X106.366 Y59.026 E4.05775
G1 X106.247 Y59.806 E4.08399
G1 X106.049 Y60.571 E4.11027
G1 X105.775 Y61.311 E4.13652
G1 X105.427 Y62.02 E4.16279
G1 X105.009 Y62.691 E4.18908
G1 X104.526 Y63.315 E4.21533
G1 X104.121 Y63.752 E4.23514
G1 X104.004 Y63.869 E4.24065
G1 X103.418 Y64.399 E4.26693
G1 X102.782 Y64.866 E4.29317
G1 X102.102 Y65.267 E4.31943
G1 X101.384 Y65.597 E4.34571
G1 X100.637 Y65.852 E4.37196
G1 X99.868 Y66.031 E4.39822
G1 X99.084 Y66.131 E4.42451
G1 X98.489 Y66.154 E4.44431
G1 X91.082 Y66.154 E4.69067
G1 X90.293 Y66.114 E4.71695
G1 X89.513 Y65.995 E4.74319
G1 X88.748 Y65.797 E4.76947
G1 X88.008 Y65.523 E4.79572
G1 X87.299 Y65.175 E4.82199
G1 X86.628 Y64.757 E4.84828
G1 X86.004 Y64.274 E4.87453
G1 X85.567 Y63.869 E4.89434
G1 X85.45 Y63.752 E4.89985
G1 X84.92 Y63.166 E4.92613
G1 X84.453 Y62.53 E4.95237
G1 X84.052 Y61.85 E4.97863
G1 X83.722 Y61.132 E5.00491
G1 X83.467 Y60.385 E5.03116
G1 X83.288 Y59.616 E5.05742
G1 X83.188 Y58.832 E5.08371
G1 X83.165 Y58.237 E5.10351
G1 X83.164 Y39.154 E5.73822
G1 X65.519 Y39.154 E6.32509
G1 X65.582 Y39.622 E6.3408
G1 X65.607 Y40.411 E6.36705
G1 X65.552 Y41.199 E6.39333
G1 X65.417 Y41.977 E6.41959
G1 X65.205 Y42.738 E6.44587
G1 X64.916 Y43.473 E6.47213
G1 X64.555 Y44.175 E6.49839
G1 X64.125 Y44.837 E6.52464
G1 X63.847 Y45.198 E6.5398
G1 X63.659 Y45.428 E6.54968
G1 X63.129 Y46.014 E6.57596
G1 X62.543 Y46.542 E6.60219
G1 X62.337 Y46.693 E6.61069
G1 X62.14 Y47.441 E6.63642
G1 X61.862 Y48.18 E6.66268
G1 X61.51 Y48.888 E6.68897
G1 X61.089 Y49.556 E6.71524
G1 X60.603 Y50.178 E6.74149
G1 X60.056 Y50.748 E6.76777
G1 X59.455 Y51.259 E6.794
G1 X58.804 Y51.707 E6.82029
G1 X58.395 Y51.943 E6.83599
G1 X58.132 Y52.084 E6.84592
G1 X57.418 Y52.422 E6.87219
G1 X56.673 Y52.685 E6.89847
G1 X56.476 Y52.733 E6.90521
G1 X56.014 Y53.339 E6.93056
G1 X55.475 Y53.916 E6.95682
G1 X54.879 Y54.434 E6.98309
G1 X54.235 Y54.891 E7.00935
G1 X53.547 Y55.279 E7.03562
G1 X52.824 Y55.596 E7.06188
G1 X52.072 Y55.838 E7.08815
G1 X51.3 Y56.003 E7.11441
G1 X50.842 Y56.064 E7.12978
G1 X50.545 Y56.094 E7.13971
G1 X49.756 Y56.133 E7.16598
G1 X48.968 Y56.093 E7.19222
G1 X48.76 Y56.061 E7.19922
G1 X48.097 Y56.447 E7.22474
G1 X47.378 Y56.773 E7.251
G1 X46.629 Y57.025 E7.27728
G1 X45.859 Y57.199 E7.30354
G1 X45.075 Y57.295 E7.32981
G1 X44.286 Y57.311 E7.35605
G1 X43.498 Y57.248 E7.38235
G1 X42.722 Y57.105 E7.40859
G1 X42.285 Y56.987 E7.42365
G1 X42.001 Y56.902 E7.43351
G1 X41.256 Y56.638 E7.4598
G1 X40.543 Y56.3 E7.48604
G1 X40.312 Y56.16 E7.49502
G1 X40.305 Y56.162 E7.49527
G1 X39.522 Y56.263 E7.52152
G1 X38.733 Y56.284 E7.54778
G1 X37.945 Y56.225 E7.57406
G1 X37.168 Y56.087 E7.60031
G1 X36.408 Y55.871 E7.62658
G1 X35.674 Y55.58 E7.65285
G1 X34.974 Y55.215 E7.6791
G1 X34.313 Y54.782 E7.70538
G1 X33.94 Y54.491 E7.72112
G1 X33.712 Y54.302 E7.73097
G1 X33.13 Y53.768 E7.75724
G1 X32.606 Y53.178 E7.78349
G1 X32.511 Y53.047 E7.78887
G1 X31.777 Y52.854 E7.81411
G1 X31.038 Y52.576 E7.84037
G1 X30.331 Y52.225 E7.86663
G1 X29.663 Y51.804 E7.89289
G1 X29.04 Y51.317 E7.91919
G1 X28.471 Y50.771 E7.94542
G1 X27.959 Y50.169 E7.9717
G1 X27.511 Y49.519 E7.99796
G1 X27.275 Y49.109 E8.01369
G1 X27.134 Y48.846 E8.02362
G1 X26.796 Y48.132 E8.04989
G1 X26.533 Y47.387 E8.07617
G1 X26.485 Y47.189 E8.08295
G1 X25.879 Y46.727 E8.10829
G1 X25.302 Y46.188 E8.13455
G1 X24.784 Y45.592 E8.16082
G1 X24.327 Y44.948 E8.18708
G1 X23.939 Y44.26 E8.21335
G1 X23.622 Y43.537 E8.23961
G1 X23.38 Y42.785 E8.26588
G1 X23.215 Y42.013 E8.29214
G1 X23.154 Y41.555 E8.30751
G1 X23.124 Y41.258 E8.31744
G1 X23.085 Y40.469 E8.34371
G1 X23.125 Y39.681 E8.36995
G1 X23.157 Y39.472 E8.37699
G1 X22.772 Y38.812 E8.4024
G1 X22.446 Y38.093 E8.42866
G1 X22.195 Y37.344 E8.45493
G1 X22.02 Y36.574 E8.48119
G1 X21.924 Y35.79 E8.50746
G1 X21.908 Y35.001 E8.53371
G1 X21.971 Y34.214 E8.55997
G1 X22.114 Y33.437 E8.58625
G1 X22.232 Y32.999 E8.60134
G1 X22.317 Y32.715 E8.6112
G1 X22.581 Y31.97 E8.63748
G1 X22.919 Y31.257 E8.66373
G1 X23.05 Y31.041 E8.67213
G1 X23.042 Y31.009 E8.67323
G1 X22.934 Y30.226 E8.69952
G1 X22.906 Y29.437 E8.72578
G1 X22.958 Y28.649 E8.75204
G1 X23.089 Y27.871 E8.77828
G1 X23.298 Y27.109 E8.80456
G1 X23.583 Y26.373 E8.83081
G1 X23.941 Y25.669 E8.85708
G1 X24.368 Y25.005 E8.88334
G1 X24.668 Y24.614 E8.89973
G1 X24.857 Y24.383 E8.90966
G1 X25.387 Y23.798 E8.93591
G1 X25.974 Y23.269 E8.9622
G1 X26.153 Y23.138 E8.96957
G1 X26.337 Y22.441 E8.99355
G1 X26.615 Y21.702 E9.01981
G1 X26.967 Y20.995 E9.04608
G1 X27.388 Y20.326 E9.07237
G0 F6000 X27.808 Y20.427
G1 F1200 X28.296 Y19.832 E9.09796
G1 X28.842 Y19.291 E9.12353
G1 X29.442 Y18.809 E9.14913
G1 X30.271 Y18.291 E9.18164
G1 X30.534 Y18.15 E9.19156
G1 X31.23 Y17.822 E9.21715
G1 X31.956 Y17.569 E9.24273
G1 X32.261 Y17.497 E9.25315
G1 X32.357 Y17.344 E9.25916
G1 X32.831 Y16.738 E9.28475
G1 X33.365 Y16.185 E9.31031
G1 X33.954 Y15.69 E9.3359
G1 X34.59 Y15.258 E9.36148
G1 X35.268 Y14.895 E9.38705
G1 X35.981 Y14.605 E9.41266
G1 X36.719 Y14.389 E9.43823
G1 X37.673 Y14.229 E9.4704
G1 X37.97 Y14.199 E9.48033
G1 X38.739 Y14.162 E9.50594
G1 X39.507 Y14.205 E9.53152
G1 X39.816 Y14.255 E9.54193
G1 X39.98 Y14.138 E9.54864
G1 X40.649 Y13.759 E9.57421
G1 X41.355 Y13.452 E9.59981
G1 X42.088 Y13.22 E9.62539
G1 X42.841 Y13.065 E9.65096
G1 X43.607 Y12.989 E9.67656
G1 X44.376 Y12.993 E9.70214
G1 X45.14 Y13.077 E9.7277
G1 X46.075 Y13.292 E9.75961
G1 X46.359 Y13.377 E9.76947
G1 X47.083 Y13.635 E9.79503
G1 X47.777 Y13.968 E9.82064
G1 X48.126 Y14.182 E9.83425
G1 X48.335 Y14.134 E9.84138
G1 X49.098 Y14.038 E9.86696
G1 X49.867 Y14.022 E9.89254
G1 X50.633 Y14.085 E9.91811
G1 X51.389 Y14.228 E9.9437
G1 X52.126 Y14.449 E9.96929
G1 X52.836 Y14.745 E9.99487
G1 X53.511 Y15.113 E10.02044
G1 X54.32 Y15.688 E10.05346
G1 X54.55 Y15.876 E10.06334
G1 X55.12 Y16.394 E10.08895
G1 X55.632 Y16.967 E10.11451
G1 X55.824 Y17.232 E10.12539
G1 X55.979 Y17.258 E10.13062
G1 X56.72 Y17.464 E10.1562
G1 X57.436 Y17.745 E10.18179
G1 X58.119 Y18.099 E10.20737
G1 X58.761 Y18.522 E10.23294
G1 X59.356 Y19.01 E10.25854
G1 X59.897 Y19.556 E10.2841
G1 X60.379 Y20.156 E10.3097
G1 X60.53 Y20.397 E10.31916
G1 X60.863 Y20.154 E10.33287
G1 X61.528 Y19.768 E10.35844
G1 X62.23 Y19.453 E10.38404
G1 X62.961 Y19.213 E10.40963
G1 X63.712 Y19.05 E10.43519
G1 X64.477 Y18.966 E10.46078
G1 X64.902 Y18.954 E10.47492
G1 X96.374 Y18.954 E11.52169
G1 X96.859 Y18.979 E11.53784
G1 X97.291 Y18.954 E11.55223
G1 X99.36 Y18.954 E11.62105
G1 X100.128 Y18.994 E11.64663
G1 X100.888 Y19.113 E11.67221
G1 X101.631 Y19.311 E11.69779
G1 X102.35 Y19.585 E11.72338
G1 X103.036 Y19.932 E11.74895
G1 X103.683 Y20.348 E11.77453
G1 X104.283 Y20.829 E11.80011
G1 X104.593 Y21.121 E11.81427
G1 X104.71 Y21.238 E11.81978
G1 X105.224 Y21.81 E11.84535
G1 X105.677 Y22.432 E11.87095
G1 X106.063 Y23.097 E11.89652
G1 X106.378 Y23.799 E11.92211
G1 X106.618 Y24.53 E11.9477
G1 X106.781 Y25.281 E11.97326
G1 X106.865 Y26.046 E11.99886
G1 X106.877 Y26.471 E12.013
G1 X106.877 Y29.83 E12.12472
G1 X106.837 Y30.598 E12.1503
G1 X106.718 Y31.358 E12.17588
G1 X106.673 Y31.528 E12.18173
G1 X106.651 Y31.977 E12.19668
G1 X106.534 Y32.737 E12.22226
G1 X106.339 Y33.482 E12.24787
G1 X106.068 Y34.201 E12.27343
G1 X106.006 Y34.325 E12.27804
G1 X106.006 Y58.237 E13.07336
G1 X105.966 Y59.005 E13.09894
G1 X105.847 Y59.765 E13.12452
G1 X105.649 Y60.508 E13.1501
G1 X105.375 Y61.227 E13.17569
G1 X105.028 Y61.913 E13.20126
G1 X104.612 Y62.56 E13.22684
G1 X104.131 Y63.16 E13.25242
G1 X103.839 Y63.47 E13.26658
G1 X103.722 Y63.587 E13.27209
G1 X103.15 Y64.101 E13.29766
G1 X102.528 Y64.554 E13.32326
G1 X101.863 Y64.94 E13.34883
G1 X101.161 Y65.255 E13.37442
G1 X100.43 Y65.495 E13.40001
G1 X99.679 Y65.658 E13.42557
G1 X98.914 Y65.742 E13.45117
G1 X98.489 Y65.754 E13.46531
G1 X91.082 Y65.754 E13.71167
G1 X90.314 Y65.714 E13.73725
G1 X89.554 Y65.595 E13.76283
G1 X88.811 Y65.397 E13.78841
G1 X88.092 Y65.123 E13.814
G1 X87.406 Y64.776 E13.83957
G1 X86.759 Y64.36 E13.86515
G1 X86.159 Y63.879 E13.89073
G1 X85.849 Y63.587 E13.90489
G1 X85.732 Y63.47 E13.9104
G1 X85.218 Y62.898 E13.93597
G1 X84.765 Y62.276 E13.96157
G1 X84.379 Y61.611 E13.98714
G1 X84.064 Y60.909 E14.01273
G1 X83.824 Y60.178 E14.03832
G1 X83.661 Y59.427 E14.06388
G1 X83.577 Y58.662 E14.08948
G1 X83.565 Y58.237 E14.10362
G1 X83.564 Y38.754 E14.75163
G1 X65.059 Y38.754 E15.36711
G1 X65.048 Y38.771 E15.36778
G1 X65.098 Y38.991 E15.37528
G1 X65.191 Y39.755 E15.40088
G1 X65.203 Y40.524 E15.42646
G1 X65.136 Y41.29 E15.45204
G1 X64.99 Y42.045 E15.47761
G1 X64.766 Y42.781 E15.5032
G1 X64.467 Y43.489 E15.52876
G1 X64.096 Y44.163 E15.55435
G1 X63.538 Y44.945 E15.5863
G1 X63.35 Y45.175 E15.59618
G1 X62.832 Y45.745 E15.6218
G1 X62.259 Y46.257 E15.64736
G1 X61.967 Y46.468 E15.65934
G1 X61.933 Y46.673 E15.66625
G1 X61.727 Y47.415 E15.69187
G1 X61.446 Y48.13 E15.71742
G1 X61.092 Y48.813 E15.743
G1 X60.669 Y49.456 E15.7686
G1 X60.181 Y50.05 E15.79417
G1 X59.635 Y50.592 E15.81976
G1 X59.035 Y51.073 E15.84534
G1 X58.206 Y51.591 E15.87785
G1 X57.943 Y51.732 E15.88777
G1 X57.247 Y52.06 E15.91337
G1 X56.521 Y52.313 E15.93894
G1 X56.222 Y52.384 E15.94916
G1 X56.117 Y52.551 E15.95572
G1 X55.644 Y53.157 E15.98129
G1 X55.11 Y53.71 E16.00686
G1 X54.521 Y54.205 E16.03245
G1 X53.884 Y54.637 E16.05805
G1 X53.206 Y55 E16.08362
G1 X52.494 Y55.29 E16.10919
G1 X51.756 Y55.506 E16.13477
G1 X50.802 Y55.666 E16.16694
G1 X50.505 Y55.696 E16.17687
G1 X49.736 Y55.733 E16.20248
G1 X48.968 Y55.69 E16.22806
G1 X48.659 Y55.64 E16.23847
G1 X48.494 Y55.758 E16.24522
G1 X47.824 Y56.137 E16.27082
G1 X47.119 Y56.444 E16.2964
G1 X46.386 Y56.676 E16.32197
G1 X45.632 Y56.831 E16.34757
G1 X44.867 Y56.907 E16.37314
G1 X44.098 Y56.903 E16.39872
G1 X43.333 Y56.819 E16.42432
G1 X42.399 Y56.604 E16.45619
G1 X42.115 Y56.519 E16.46605
G1 X41.391 Y56.261 E16.49162
G1 X40.697 Y55.928 E16.51722
G1 X40.378 Y55.732 E16.52967
G1 X40.155 Y55.782 E16.53727
G1 X39.391 Y55.871 E16.56286
G1 X38.622 Y55.88 E16.58843
G1 X37.856 Y55.809 E16.61402
G1 X37.102 Y55.66 E16.63958
G1 X36.367 Y55.432 E16.66518
G1 X35.66 Y55.13 E16.69075
G1 X34.988 Y54.756 E16.71633
G1 X34.195 Y54.183 E16.74887
G1 X33.967 Y53.994 E16.75872
G1 X33.402 Y53.473 E16.78428
G1 X32.893 Y52.896 E16.80987
G1 X32.739 Y52.68 E16.8187
G1 X32.545 Y52.647 E16.82524
G1 X31.804 Y52.442 E16.85081
G1 X31.088 Y52.16 E16.87641
G1 X30.405 Y51.806 E16.90199
G1 X29.763 Y51.383 E16.92756
G1 X29.168 Y50.896 E16.95314
G1 X28.627 Y50.349 E16.97873
G1 X28.145 Y49.749 E17.00432
G1 X27.627 Y48.92 E17.03684
G1 X27.486 Y48.657 E17.04676
G1 X27.158 Y47.961 E17.07235
G1 X26.905 Y47.235 E17.09792
G1 X26.834 Y46.935 E17.10818
G1 X26.667 Y46.83 E17.11474
G1 X26.061 Y46.357 E17.14031
G1 X25.508 Y45.823 E17.16588
G1 X25.013 Y45.234 E17.19147
G1 X24.581 Y44.597 E17.21706
G1 X24.218 Y43.919 E17.24264
G1 X23.928 Y43.207 E17.26821
G1 X23.712 Y42.469 E17.29379
G1 X23.552 Y41.515 E17.32596
G1 X23.522 Y41.218 E17.33589
G1 X23.485 Y40.449 E17.3615
G1 X23.528 Y39.681 E17.38708
G1 X23.578 Y39.372 E17.39749
G1 X23.461 Y39.209 E17.40417
G1 X23.083 Y38.539 E17.42975
G1 X22.775 Y37.834 E17.45534
G1 X22.543 Y37.101 E17.48091
G1 X22.388 Y36.347 E17.50652
G1 X22.312 Y35.582 E17.53208
G1 X22.316 Y34.813 E17.55766
G1 X22.4 Y34.048 E17.58326
G1 X22.615 Y33.113 E17.61517
G1 X22.7 Y32.829 E17.62503
G1 X22.958 Y32.105 E17.65059
G1 X23.291 Y31.411 E17.67619
G1 X23.479 Y31.105 E17.68814
G1 X23.421 Y30.855 E17.69668
G1 X23.325 Y30.092 E17.72225
G1 X23.309 Y29.323 E17.74784
G1 X23.372 Y28.557 E17.7734
G1 X23.515 Y27.801 E17.79899
G1 X23.736 Y27.064 E17.82458
G1 X24.032 Y26.354 E17.85017
G1 X24.4 Y25.679 E17.87574
G1 X24.978 Y24.867 E17.90889
G1 X25.167 Y24.636 E17.91881
G1 X25.684 Y24.067 E17.94438
G1 X26.258 Y23.554 E17.96999
G1 X26.517 Y23.367 E17.98061
G1 X26.544 Y23.209 E17.98594
G1 X26.75 Y22.468 E18.01152
G1 X27.031 Y21.752 E18.03711
G1 X27.385 Y21.069 E18.06269
G1 X27.808 Y20.427 E18.08827
G0 F6000 X28.229 Y20.533
G1 F1200 X28.717 Y19.966 E18.11315
G1 X29.264 Y19.455 E18.13804
G1 X29.861 Y19.005 E18.16291
G1 X30.46 Y18.644 E18.18617
G1 X30.723 Y18.503 E18.1961
G1 X31.401 Y18.185 E18.221
G1 X32.108 Y17.941 E18.24588
G1 X32.513 Y17.849 E18.25969
G1 X32.732 Y17.507 E18.2732
G1 X33.201 Y16.924 E18.29809
G1 X33.729 Y16.394 E18.32297
G1 X34.31 Y15.923 E18.34785
G1 X34.939 Y15.517 E18.37275
G1 X35.607 Y15.181 E18.39762
G1 X36.307 Y14.918 E18.42249
G1 X37.031 Y14.731 E18.44736
G1 X37.714 Y14.627 E18.47034
