;FLAVOR:Marlin
;TIME:5230
;Filament used: 3.79922m
;Layer height: 0.24
;MINX:21.249
;MINY:11.425
;MINZ:0.2
;MAXX:113.819
;MAXY:76.025
;MAXZ:20.84
;POSTPROCESSED
;Generated with Cura_SteamEngine 4.4.0
M140 S60
M105
M190 S60
M104 S200
M105
M109 S200
M82 ;absolute extrusion mode
M201 X500.00 Y500.00 Z100.00 E5000.00 ;Setup machine max acceleration
M203 X500.00 Y500.00 Z10.00 E50.00 ;Setup machine max feedrate
M204 P500.00 R1000.00 T500.00 ;Setup Print/Retract/Travel acceleration
M205 X8.00 Y8.00 Z0.40 E5.00 ;Setup Jerk
M220 S100 ;Reset Feedrate
M221 S100 ;Reset Flowrate

G28 ;Home

G92 E0 ;Reset Extruder
G1 Z2.0 F3000 ;Move Z Axis up
G1 X10.1 Y20 Z0.28 F5000.0 ;Move to start position
G1 X10.1 Y200.0 Z0.28 F1500.0 E15 ;Draw the first line
G1 X10.4 Y200.0 Z0.28 F5000.0 ;Move to side a little
G1 X10.4 Y20 Z0.28 F1500.0 E30 ;Draw the second line
G92 E0 ;Reset Extruder
G1 Z2.0 F3000 ;Move Z Axis up

G92 E0
G92 E0
G1 F2700 E-5
;LAYER_COUNT:87
;LAYER:[layer_num]
;LAYER:0
M107
M204 S500
M205 X8 Y8
G0 F6000 X22.646 Y14.888 Z0.2
;TYPE:SKIRT
G1 F2700 E0
G1 F1200 X23.129 Y14.264 E0.02625
G1 X23.534 Y13.827 E0.04606
G1 X23.651 Y13.71 E0.05157
G1 X24.237 Y13.18 E0.07785
G1 X24.873 Y12.713 E0.10409
G1 X25.553 Y12.312 E0.13035
G1 X26.271 Y11.982 E0.15663
G1 X27.018 Y11.727 E0.18288
G1 X27.787 Y11.548 E0.20914
G1 X28.571 Y11.448 E0.23543
G1 X29.166 Y11.425 E0.25523
G1 X63.932 Y11.425 E1.41156
G1 X64.721 Y11.465 E1.43783
G1 X65.501 Y11.584 E1.46407
G1 X66.266 Y11.782 E1.49036
G1 X67.006 Y12.056 E1.5166
G1 X67.715 Y12.404 E1.54287
G1 X68.386 Y12.822 E1.56916
G1 X69.01 Y13.305 E1.59541
G1 X69.447 Y13.71 E1.61523
G1 X69.564 Y13.827 E1.62073
G1 X70.094 Y14.413 E1.64701
G1 X70.561 Y15.049 E1.67325
G1 X70.962 Y15.729 E1.69951
G1 X71.201 Y16.248 E1.71851
G1 X105.902 Y16.248 E2.87267
G1 X106.691 Y16.288 E2.89895
G1 X107.471 Y16.407 E2.92519
G1 X108.236 Y16.605 E2.95148
G1 X108.976 Y16.879 E2.97772
G1 X109.685 Y17.227 E3.00399
G1 X110.356 Y17.645 E3.03028
G1 X110.98 Y18.128 E3.05653
G1 X111.553 Y18.671 E3.08279
G1 X112.068 Y19.27 E3.10906
G1 X112.519 Y19.918 E3.13532
G1 X112.903 Y20.609 E3.16161
G1 X113.215 Y21.334 E3.18786
G1 X113.452 Y22.087 E3.21412
G1 X113.611 Y22.861 E3.2404
G1 X113.702 Y24.022 E3.27913
G1 X113.819 Y58.905 E4.43935
G1 X113.782 Y59.694 E4.46562
G1 X113.665 Y60.475 E4.49189
G1 X113.469 Y61.24 E4.51816
G1 X113.198 Y61.981 E4.5444
G1 X112.853 Y62.692 E4.57068
G1 X112.437 Y63.363 E4.59694
G1 X111.956 Y63.989 E4.6232
G1 X111.534 Y64.446 E4.64389
G1 X111.417 Y64.563 E4.64939
G1 X110.831 Y65.093 E4.67567
G1 X110.195 Y65.56 E4.70191
G1 X109.515 Y65.961 E4.72817
G1 X108.797 Y66.291 E4.75445
G1 X108.05 Y66.546 E4.78071
G1 X107.281 Y66.725 E4.80697
G1 X106.497 Y66.825 E4.83325
G1 X105.902 Y66.848 E4.85306
G1 X71.313 Y66.848 E6.00349
G1 X71.187 Y67.284 E6.01859
G1 X71.027 Y67.709 E6.03369
G1 X70.729 Y68.435 E6.05979
G1 X70.392 Y69.149 E6.08605
G1 X70.19 Y69.505 E6.09967
G1 X69.783 Y70.179 E6.12586
G1 X69.341 Y70.833 E6.15211
G1 X69.051 Y71.197 E6.16759
G1 X68.549 Y71.788 E6.19338
G1 X68.008 Y72.363 E6.21964
G1 X67.705 Y72.639 E6.23327
G1 X67.108 Y73.155 E6.25952
G1 X66.485 Y73.641 E6.2858
G1 X66.111 Y73.887 E6.30069
G1 X65.445 Y74.299 E6.32673
G1 X64.753 Y74.68 E6.35301
G1 X64.36 Y74.858 E6.36736
G1 X63.631 Y75.164 E6.39365
G1 X62.888 Y75.432 E6.41992
G1 X62.459 Y75.55 E6.43472
G1 X61.704 Y75.734 E6.46057
G1 X60.928 Y75.882 E6.48684
G1 X60.521 Y75.928 E6.50047
G1 X59.737 Y75.995 E6.52664
G1 X59.077 Y76.023 E6.54861
G1 X55.022 Y76.025 E6.68348
G1 X54.382 Y75.999 E6.70478
G1 X53.575 Y75.933 E6.73171
G1 X52.792 Y75.829 E6.75798
G1 X52.302 Y75.722 E6.77467
G1 X51.49 Y75.517 E6.80252
G1 X50.735 Y75.285 E6.82879
G1 X50.296 Y75.11 E6.84451
G1 X49.535 Y74.78 E6.8721
G1 X48.827 Y74.43 E6.89837
G1 X48.344 Y74.136 E6.91717
G1 X47.648 Y73.677 E6.9449
G1 X47.011 Y73.209 E6.97119
G1 X46.649 Y72.895 E6.98713
G1 X46.033 Y72.326 E7.01502
G1 X45.481 Y71.761 E7.04129
G1 X45.147 Y71.356 E7.05875
G1 X44.637 Y70.694 E7.08655
G1 X44.187 Y70.045 E7.11282
G1 X43.932 Y69.601 E7.12985
G1 X43.54 Y68.865 E7.15758
G1 X43.204 Y68.15 E7.18386
G1 X43.021 Y67.656 E7.20138
G1 X42.76 Y66.87 E7.22892
G1 X42.55 Y66.109 E7.25518
G1 X42.46 Y65.636 E7.2712
G1 X42.327 Y64.799 E7.29938
G1 X42.309 Y64.681 E7.30335
G1 X42.177 Y63.76 E7.3343
G1 X42.083 Y63.448 E7.34514
G1 X41.942 Y63.15 E7.3561
G1 X41.753 Y62.871 E7.36731
G1 X41.536 Y62.634 E7.378
G1 X41.285 Y62.433 E7.38869
G1 X40.999 Y62.266 E7.39971
G1 X40.698 Y62.147 E7.41047
G1 X40.351 Y62.067 E7.42232
G1 X39.775 Y62.025 E7.44153
G1 X29.166 Y62.025 E7.79438
G1 X28.377 Y61.985 E7.82066
G1 X27.597 Y61.866 E7.8469
G1 X26.832 Y61.668 E7.87319
G1 X26.092 Y61.394 E7.89943
G1 X25.383 Y61.046 E7.9257
G1 X24.712 Y60.628 E7.95199
G1 X24.088 Y60.145 E7.97824
G1 X23.651 Y59.74 E7.99806
G1 X23.534 Y59.623 E8.00356
G1 X23.004 Y59.037 E8.02984
G1 X22.537 Y58.401 E8.05608
G1 X22.136 Y57.721 E8.08234
G1 X21.806 Y57.003 E8.10862
G1 X21.551 Y56.256 E8.13487
G1 X21.372 Y55.487 E8.16113
G1 X21.272 Y54.703 E8.18742
G1 X21.249 Y54.108 E8.20723
G1 X21.249 Y19.342 E9.36355
G1 X21.289 Y18.553 E9.38982
G1 X21.408 Y17.773 E9.41607
G1 X21.606 Y17.008 E9.44235
G1 X21.88 Y16.268 E9.4686
G1 X22.228 Y15.559 E9.49486
G1 X22.646 Y14.888 E9.52116
G0 F6000 X23.043 Y15.019
G1 F1200 X23.524 Y14.419 E9.54673
G1 X23.816 Y14.109 E9.5609
G1 X23.933 Y13.992 E9.5664
G1 X24.505 Y13.478 E9.59198
G1 X25.127 Y13.025 E9.61757
G1 X25.792 Y12.639 E9.64315
G1 X26.494 Y12.324 E9.66874
G1 X27.225 Y12.084 E9.69433
G1 X27.976 Y11.921 E9.71989
G1 X28.741 Y11.837 E9.74549
G1 X29.166 Y11.825 E9.75963
G1 X63.932 Y11.825 E10.91595
G1 X64.7 Y11.865 E10.94153
G1 X65.46 Y11.984 E10.96711
G1 X66.203 Y12.182 E10.99269
G1 X66.922 Y12.456 E11.01828
G1 X67.608 Y12.803 E11.04385
G1 X68.255 Y13.219 E11.06943
G1 X68.855 Y13.7 E11.09501
G1 X69.165 Y13.992 E11.10917
G1 X69.282 Y14.109 E11.11468
G1 X69.796 Y14.681 E11.14025
G1 X70.249 Y15.303 E11.16585
G1 X70.635 Y15.968 E11.19142
G1 X70.943 Y16.653 E11.2164
G1 X71.136 Y16.648 E11.22282
G1 X105.902 Y16.648 E12.37914
G1 X106.67 Y16.688 E12.40472
G1 X107.43 Y16.807 E12.43031
G1 X108.173 Y17.005 E12.45588
G1 X108.892 Y17.279 E12.48147
G1 X109.578 Y17.626 E12.50704
G1 X110.225 Y18.042 E12.53263
G1 X110.825 Y18.523 E12.5582
G1 X111.372 Y19.064 E12.58379
G1 X111.86 Y19.659 E12.60939
G1 X112.283 Y20.301 E12.63496
G1 X112.638 Y20.984 E12.66056
G1 X112.919 Y21.699 E12.68611
G1 X113.125 Y22.441 E12.71173
G1 X113.253 Y23.199 E12.73729
G1 X113.302 Y24.023 E12.76475
G1 X113.419 Y58.906 E13.92497
G1 X113.382 Y59.674 E13.95054
G1 X113.265 Y60.435 E13.97615
G1 X113.069 Y61.179 E14.00174
G1 X112.798 Y61.898 E14.0273
G1 X112.453 Y62.586 E14.05289
G1 X112.039 Y63.234 E14.07847
G1 X111.56 Y63.836 E14.10406
G1 X111.252 Y64.164 E14.11902
G1 X111.135 Y64.281 E14.12453
G1 X110.563 Y64.795 E14.1501
G1 X109.941 Y65.248 E14.1757
G1 X109.276 Y65.634 E14.20127
G1 X108.574 Y65.949 E14.22686
G1 X107.843 Y66.189 E14.25245
G1 X107.092 Y66.352 E14.27801
G1 X106.327 Y66.436 E14.30361
G1 X105.902 Y66.448 E14.31775
G1 X71.136 Y66.448 E15.47407
G1 X71.014 Y66.442 E15.47813
G1 X70.802 Y67.172 E15.50342
G1 X70.657 Y67.557 E15.5171
G1 X70.359 Y68.283 E15.5432
G1 X69.848 Y69.298 E15.581
G1 X69.441 Y69.972 E15.60719
G1 X69.009 Y70.609 E15.63279
G1 X68.746 Y70.938 E15.64679
G1 X68.244 Y71.529 E15.67259
G1 X67.443 Y72.337 E15.71043
G1 X66.846 Y72.853 E15.73667
G1 X66.239 Y73.325 E15.76225
G1 X65.9 Y73.547 E15.77572
G1 X65.234 Y73.959 E15.80177
G1 X64.56 Y74.329 E15.82734
G1 X64.205 Y74.489 E15.8403
G1 X63.476 Y74.795 E15.86659
G1 X62.752 Y75.056 E15.89219
G1 X62.364 Y75.162 E15.90557
G1 X61.609 Y75.346 E15.93141
G1 X60.487 Y75.529 E15.96922
G1 X59.703 Y75.596 E15.9954
G1 X59.077 Y75.623 E16.01624
G1 X55.022 Y75.625 E16.15111
G1 X54.415 Y75.6 E16.17131
G1 X53.608 Y75.534 E16.19824
G1 X52.846 Y75.432 E16.22381
G1 X52.4 Y75.334 E16.239
G1 X51.588 Y75.129 E16.26685
G1 X50.853 Y74.902 E16.29244
G1 X50.455 Y74.743 E16.3067
G1 X49.694 Y74.413 E16.33428
G1 X49.005 Y74.071 E16.35987
G1 X48.564 Y73.802 E16.37705
G1 X47.868 Y73.343 E16.40478
G1 X47.249 Y72.886 E16.43037
G1 X46.921 Y72.601 E16.44482
G1 X46.305 Y72.032 E16.47271
G1 X45.768 Y71.481 E16.4983
G1 X45.464 Y71.112 E16.5142
G1 X44.954 Y70.45 E16.542
G1 X44.517 Y69.817 E16.56758
G1 X44.285 Y69.413 E16.58308
G1 X43.893 Y68.677 E16.61081
G1 X43.567 Y67.98 E16.63641
G1 X43.401 Y67.53 E16.65236
G1 X43.14 Y66.744 E16.6799
G1 X42.936 Y66.002 E16.7055
G1 X42.855 Y65.573 E16.72002
G1 X42.722 Y64.736 E16.74821
G1 X42.705 Y64.624 E16.75198
G1 X42.569 Y63.673 E16.78393
G1 X42.457 Y63.303 E16.79679
G1 X42.291 Y62.954 E16.80964
G1 X42.068 Y62.623 E16.82291
G1 X41.81 Y62.342 E16.8356
G1 X41.511 Y62.101 E16.84838
G1 X41.175 Y61.906 E16.8613
G1 X40.815 Y61.763 E16.87418
G1 X40.412 Y61.67 E16.88794
G1 X39.79 Y61.625 E16.90868
G1 X29.166 Y61.625 E17.26203
G1 X28.398 Y61.585 E17.28761
G1 X27.638 Y61.466 E17.3132
G1 X26.895 Y61.268 E17.33877
G1 X26.176 Y60.994 E17.36436
G1 X25.49 Y60.647 E17.38993
G1 X24.843 Y60.231 E17.41552
G1 X24.243 Y59.75 E17.44109
G1 X23.933 Y59.458 E17.45526
G1 X23.816 Y59.341 E17.46076
G1 X23.302 Y58.769 E17.48634
G1 X22.849 Y58.147 E17.51193
G1 X22.463 Y57.482 E17.53751
G1 X22.148 Y56.78 E17.5631
G1 X21.908 Y56.049 E17.58869
G1 X21.745 Y55.298 E17.61425
G1 X21.661 Y54.533 E17.63984
G1 X21.649 Y54.108 E17.65399
G1 X21.649 Y19.342 E18.81031
G1 X21.689 Y18.574 E18.83589
G1 X21.808 Y17.814 E18.86147
G1 X22.006 Y17.071 E18.88705
G1 X22.28 Y16.352 E18.91264
G1 X22.627 Y15.666 E18.93821
G1 X23.043 Y15.019 E18.96379
G0 F6000 X23.441 Y15.153
G1 F1200 X24.099 Y14.392 E18.99725
G1 X24.216 Y14.275 E19.00275
G1 X24.773 Y13.775 E19.02765
G1 X25.379 Y13.338 E19.0525
G1 X26.029 Y12.967 E19.07739
G1 X26.715 Y12.668 E19.10228
G1 X27.429 Y12.444 E19.12717
G1 X28.162 Y12.297 E19.15204
G1 X29.166 Y12.225 E19.18552
G1 X63.932 Y12.225 E20.34184
G1 X64.679 Y12.265 E20.36672
G1 X65.417 Y12.384 E20.39158
G1 X66.139 Y12.582 E20.41648
G1 X66.835 Y12.855 E20.44135
G1 X67.498 Y13.202 E20.46624
G1 X68.121 Y13.617 E20.49113
G1 X68.882 Y14.275 E20.52459
G1 X68.999 Y14.392 E20.5301
G1 X69.499 Y14.949 E20.55499
G1 X69.936 Y15.555 E20.57984
G1 X70.307 Y16.205 E20.60474
G1 X70.606 Y16.891 E20.62963
G1 X70.666 Y17.082 E20.63628
G1 X71.136 Y17.048 E20.65196
G1 X105.902 Y17.048 E21.80828
G1 X106.649 Y17.088 E21.83316
G1 X107.387 Y17.207 E21.85802
G1 X108.109 Y17.405 E21.88292
G1 X108.805 Y17.678 E21.90779
G1 X109.468 Y18.025 E21.93268
G1 X110.091 Y18.44 E21.95758
G1 X110.665 Y18.919 E21.98244
G1 X111.186 Y19.456 E22.00733
G1 X111.645 Y20.046 E22.03219
G1 X112.04 Y20.682 E22.05709
G1 X112.364 Y21.356 E22.08196
G1 X112.614 Y22.061 E22.10684
G1 X112.788 Y22.789 E22.13174
G1 X112.883 Y23.531 E22.15662
G1 X112.902 Y24.025 E22.17306
G1 X113.019 Y58.908 E23.33328
G1 X112.981 Y59.655 E23.35816
G1 X112.865 Y60.394 E23.38304
G1 X112.669 Y61.116 E23.40792
G1 X112.398 Y61.813 E23.43279
G1 X112.054 Y62.477 E23.45767
G1 X111.641 Y63.101 E23.48256
G1 X110.969 Y63.881 E23.5168
G1 X110.852 Y63.998 E23.5223
G1 X110.295 Y64.498 E23.5472
G1 X109.689 Y64.935 E23.57205
G1 X109.039 Y65.306 E23.59694
G1 X108.353 Y65.605 E23.62183
G1 X107.639 Y65.829 E23.64672
G1 X106.906 Y65.976 E23.67158
G1 X105.902 Y66.048 E23.70506
G1 X71.136 Y66.048 E24.86138
G1 X70.701 Y66.025 E24.87587
G1 X70.627 Y66.342 E24.8867
G1 X70.287 Y67.405 E24.92382
G1 X69.989 Y68.131 E24.94992
G1 X69.505 Y69.091 E24.98568
G1 X69.098 Y69.765 E25.01187
G1 X68.678 Y70.384 E25.03675
G1 X68.441 Y70.679 E25.04933
G1 X67.939 Y71.27 E25.07512
G1 X67.181 Y72.034 E25.11092
G1 X66.584 Y72.55 E25.13716
G1 X65.69 Y73.207 E25.17406
G1 X65.024 Y73.619 E25.20011
G1 X64.05 Y74.12 E25.23654
G1 X63.321 Y74.426 E25.26284
G1 X62.269 Y74.773 E25.29968
G1 X61.514 Y74.957 E25.32553
G1 X60.453 Y75.131 E25.36129
G1 X59.669 Y75.198 E25.38746
G1 X59.076 Y75.223 E25.4072
G1 X55.021 Y75.225 E25.54207
G1 X54.447 Y75.202 E25.56118
G1 X53.64 Y75.136 E25.58811
G1 X52.899 Y75.035 E25.61298
G1 X52.498 Y74.946 E25.62664
G1 X51.686 Y74.741 E25.6545
G1 X50.971 Y74.519 E25.6794
G1 X50.614 Y74.376 E25.69219
G1 X49.853 Y74.046 E25.71978
G1 X49.184 Y73.712 E25.74465
G1 X48.784 Y73.468 E25.76023
G1 X48.088 Y73.009 E25.78796
G1 X47.487 Y72.564 E25.81283
G1 X47.192 Y72.307 E25.82585
G1 X46.576 Y71.738 E25.85374
G1 X46.055 Y71.202 E25.8786
G1 X45.781 Y70.868 E25.89297
G1 X45.271 Y70.206 E25.92076
G1 X44.847 Y69.59 E25.94563
G1 X44.638 Y69.225 E25.95962
G1 X44.246 Y68.489 E25.98736
G1 X43.93 Y67.811 E26.01224
G1 X43.781 Y67.404 E26.02665
G1 X43.52 Y66.618 E26.0542
G1 X43.322 Y65.896 E26.0791
G1 X43.25 Y65.511 E26.09213
G1 X43.117 Y64.674 E26.12032
G1 X43.101 Y64.568 E26.12388
G1 X42.96 Y63.586 E26.15688
G1 X42.831 Y63.158 E26.17175
G1 X42.638 Y62.751 E26.18673
G1 X42.383 Y62.374 E26.20187
G1 X42.085 Y62.049 E26.21653
G1 X41.739 Y61.771 E26.23129
G1 X41.349 Y61.544 E26.2463
G1 X40.941 Y61.383 E26.26089
G1 X40.467 Y61.273 E26.27707
G1 X39.805 Y61.225 E26.29915
G1 X29.166 Y61.225 E26.65301
G1 X28.419 Y61.185 E26.67789
G1 X27.681 Y61.066 E26.70275
G1 X26.959 Y60.868 E26.72765
G1 X26.263 Y60.595 E26.75252
G1 X25.6 Y60.248 E26.77741
G1 X24.977 Y59.833 E26.8023
G1 X24.216 Y59.175 E26.83576
G1 X24.099 Y59.058 E26.84127
G1 X23.599 Y58.501 E26.86616
G1 X23.162 Y57.895 E26.89101
G1 X22.791 Y57.245 E26.9159
G1 X22.492 Y56.559 E26.94079
G1 X22.268 Y55.845 E26.96568
G1 X22.121 Y55.112 E26.99055
G1 X22.049 Y54.108 E27.02403
G1 X22.049 Y19.342 E28.18035
G1 X22.089 Y18.595 E28.20523
G1 X22.208 Y17.857 E28.23009
G1 X22.406 Y17.135 E28.25499
G1 X22.679 Y16.439 E28.27986
G1 X23.026 Y15.776 E28.30475
G1 X23.441 Y15.153 E28.32965
G0 F6000 X23.838 Y15.292
G1 F1200 X24.382 Y14.675 E28.357
G1 X24.499 Y14.558 E28.36251
G1 X25.04 Y14.074 E28.38665
G1 X25.631 Y13.651 E28.41082
G1 X26.265 Y13.297 E28.43498
G1 X26.934 Y13.014 E28.45914
G1 X27.63 Y12.806 E28.4833
G1 X28.345 Y12.676 E28.50747
G1 X29.166 Y12.625 E28.53483
G1 X63.932 Y12.625 E29.69115
G1 X64.657 Y12.665 E29.7153
G1 X65.374 Y12.784 E29.73947
G1 X66.073 Y12.982 E29.76364
G1 X66.746 Y13.255 E29.78779
G1 X67.385 Y13.6 E29.81194
G1 X67.982 Y14.014 E29.83611
G1 X68.599 Y14.558 E29.86347
G1 X68.716 Y14.675 E29.86897
G1 X69.2 Y15.216 E29.89311
G1 X69.623 Y15.807 E29.91729
G1 X69.977 Y16.441 E29.94144
G1 X70.26 Y17.11 E29.9656
G1 X70.375 Y17.495 E29.97896
G1 X71.136 Y17.448 E30.00432
G1 X105.902 Y17.448 E31.16064
G1 X106.627 Y17.488 E31.18479
G1 X107.344 Y17.607 E31.20897
G1 X108.043 Y17.805 E31.23313
G1 X108.716 Y18.078 E31.25729
G1 X109.355 Y18.423 E31.28144
G1 X109.952 Y18.837 E31.3056
G1 X110.5 Y19.313 E31.32975
G1 X110.993 Y19.847 E31.35392
G1 X111.423 Y20.432 E31.37807
G1 X111.787 Y21.061 E31.40224
G1 X112.08 Y21.726 E31.42641
G1 X112.298 Y22.419 E31.45057
G1 X112.438 Y23.131 E31.4747
G1 X112.502 Y24.026 E31.50455
G1 X112.619 Y58.909 E32.66477
G1 X112.581 Y59.634 E32.68891
G1 X112.464 Y60.351 E32.71308
G1 X112.269 Y61.051 E32.73725
G1 X111.999 Y61.725 E32.7614
G1 X111.655 Y62.365 E32.78556
G1 X111.244 Y62.964 E32.80972
G1 X110.686 Y63.598 E32.83781
G1 X110.569 Y63.715 E32.84332
G1 X110.028 Y64.199 E32.86746
G1 X109.437 Y64.622 E32.89163
G1 X108.803 Y64.976 E32.91579
G1 X108.134 Y65.259 E32.93995
G1 X107.438 Y65.467 E32.96411
G1 X106.723 Y65.597 E32.98828
G1 X105.902 Y65.648 E33.01564
G1 X71.136 Y65.648 E34.17196
G1 X70.411 Y65.608 E34.19611
G1 X70.388 Y65.604 E34.19689
G1 X70.237 Y66.251 E34.21898
G1 X69.917 Y67.253 E34.25397
G1 X69.619 Y67.979 E34.28007
G1 X69.163 Y68.885 E34.3138
G1 X68.756 Y69.559 E34.33999
G1 X68.136 Y70.42 E34.37528
G1 X67.634 Y71.011 E34.40107
G1 X66.92 Y71.731 E34.4348
G1 X66.323 Y72.247 E34.46104
G1 X65.479 Y72.867 E34.49587
G1 X64.813 Y73.279 E34.52192
G1 X63.895 Y73.752 E34.55627
G1 X63.166 Y74.058 E34.58257
G1 X62.175 Y74.384 E34.61726
G1 X61.42 Y74.568 E34.64311
G1 X60.419 Y74.732 E34.67685
G1 X59.635 Y74.799 E34.70302
G1 X59.076 Y74.823 E34.72163
G1 X55.021 Y74.825 E34.8565
G1 X54.48 Y74.803 E34.87451
G1 X53.673 Y74.737 E34.90144
G1 X52.953 Y74.638 E34.92561
G1 X52.595 Y74.558 E34.93781
G1 X51.783 Y74.353 E34.96567
G1 X50.773 Y74.009 E35.00115
G1 X50.012 Y73.679 E35.02874
G1 X49.363 Y73.354 E35.05288
