;FLAVOR:Marlin
;TIME:4367
;Filament used: 4.25496m
;Layer height: 0.24
;MINX:31.513
;MINY:5.858
;MINZ:0.2
;MAXX:72.113
;MAXY:54.459
;MAXZ:35
;POSTPROCESSED
;Generated with Cura_SteamEngine 4.3.0
M140 S60
M105
M190 S60
M104 S200
M105
M109 S200
M82 ;absolute extrusion mode
M201 X500.00 Y500.00 Z100.00 E5000.00 ;Setup machine max acceleration
M203 X500.00 Y500.00 Z10.00 E50.00 ;Setup machine max feedrate
M204 P500.00 R1000.00 T500.00 ;Setup Print/Retract/Travel acceleration
M205 X8.00 Y8.00 Z0.40 E5.00 ;Setup Jerk
M220 S100 ;Reset Feedrate
M221 S100 ;Reset Flowrate

G28 ;Home

G92 E0 ;Reset Extruder
G1 Z2.0 F3000 ;Move Z Axis up
G1 X10.1 Y20 Z0.28 F5000.0 ;Move to start position
G1 X10.1 Y200.0 Z0.28 F1500.0 E15 ;Draw the first line
G1 X10.4 Y200.0 Z0.28 F5000.0 ;Move to side a little
G1 X10.4 Y20 Z0.28 F1500.0 E30 ;Draw the second line
G92 E0 ;Reset Extruder
G1 Z2.0 F3000 ;Move Z Axis up

G92 E0
G92 E0
G1 F2700 E-5
;LAYER_COUNT:146
;LAYER:[layer_num]
;LAYER:0
M107
M204 S500
M205 X8 Y8
G0 F6000 X35.04 Y11.442 Z0.2
;TYPE:SKIRT
G1 F2700 E0
G1 F1200 X35.314 Y10.701 E0.02628
G1 X35.662 Y9.992 E0.05255
G1 X36.079 Y9.322 E0.07879
G1 X36.562 Y8.697 E0.10507
G1 X36.968 Y8.26 E0.1249
G1 X37.085 Y8.143 E0.13041
G1 X37.671 Y7.613 E0.15669
G1 X38.307 Y7.146 E0.18293
G1 X38.987 Y6.745 E0.20919
G1 X39.705 Y6.415 E0.23547
G1 X40.452 Y6.16 E0.26172
G1 X41.221 Y5.981 E0.28798
G1 X42.005 Y5.881 E0.31427
G1 X42.6 Y5.858 E0.33408
G1 X60.558 Y5.858 E0.93136
G1 X61.347 Y5.898 E0.95764
G1 X62.127 Y6.017 E0.98388
G1 X62.892 Y6.215 E1.01016
G1 X63.632 Y6.489 E1.03641
G1 X64.341 Y6.837 E1.06268
G1 X65.012 Y7.255 E1.08897
G1 X65.636 Y7.738 E1.11522
G1 X66.073 Y8.143 E1.13503
G1 X66.25 Y8.32 E1.14336
G1 X66.78 Y8.906 E1.16964
G1 X67.247 Y9.542 E1.19588
G1 X67.648 Y10.222 E1.22214
G1 X67.978 Y10.94 E1.24842
G1 X68.233 Y11.687 E1.27467
G1 X68.412 Y12.456 E1.30093
G1 X68.512 Y13.24 E1.32722
G1 X68.535 Y13.834 E1.34699
G1 X68.535 Y17.184 E1.45841
G1 X68.65 Y17.255 E1.46291
G1 X69.274 Y17.738 E1.48915
G1 X69.711 Y18.143 E1.50897
G1 X69.828 Y18.26 E1.51447
G1 X70.358 Y18.846 E1.54075
G1 X70.825 Y19.482 E1.567
G1 X71.226 Y20.162 E1.59325
G1 X71.556 Y20.88 E1.61954
G1 X71.811 Y21.627 E1.64579
G1 X71.99 Y22.396 E1.67205
G1 X72.09 Y23.18 E1.69834
G1 X72.113 Y23.775 E1.71814
G1 X72.113 Y38.227 E2.19882
G1 X72.107 Y38.534 E2.20903
G1 X72.051 Y39.957 E2.2564
G1 X72.021 Y40.403 E2.27126
G1 X71.989 Y40.733 E2.28229
G1 X71.908 Y41.326 E2.3022
G1 X71.76 Y42.171 E2.33073
G1 X71.641 Y42.731 E2.34977
G1 X71.515 Y43.231 E2.36692
G1 X71.381 Y43.7 E2.38315
G1 X71.147 Y44.432 E2.40871
G1 X70.944 Y44.992 E2.42852
G1 X70.663 Y45.684 E2.45336
G1 X70.428 Y46.206 E2.4724
G1 X70.077 Y46.916 E2.49874
G1 X69.789 Y47.447 E2.51883
G1 X69.256 Y48.343 E2.55351
G1 X68.674 Y49.188 E2.58763
G1 X68.029 Y50.005 E2.62226
G1 X67.588 Y50.517 E2.64473
G1 X66.888 Y51.261 E2.67871
G1 X66.211 Y51.899 E2.70965
G1 X65.349 Y52.62 E2.74702
G1 X64.719 Y53.095 E2.77327
G1 X64.043 Y53.504 E2.79955
G1 X63.33 Y53.843 E2.8258
G1 X62.586 Y54.108 E2.85207
G1 X61.819 Y54.296 E2.87834
G1 X61.037 Y54.406 E2.9046
G1 X60.37 Y54.437 E2.92681
G1 X53.785 Y54.458 E3.14583
G1 X52.996 Y54.421 E3.1721
G1 X52.215 Y54.303 E3.19837
G1 X51.813 Y54.201 E3.21217
G1 X51.313 Y54.322 E3.22928
G1 X50.531 Y54.43 E3.25553
G1 X49.86 Y54.459 E3.27787
G1 X43.358 Y54.459 E3.49413
G1 X42.569 Y54.419 E3.52041
G1 X41.789 Y54.3 E3.54665
G1 X40.864 Y54.049 E3.57853
G1 X40.784 Y54.022 E3.58134
G1 X40.049 Y53.732 E3.60762
G1 X39.348 Y53.37 E3.63386
G1 X38.373 Y52.697 E3.67326
G1 X37.887 Y52.304 E3.69405
G1 X37.478 Y51.949 E3.71206
G1 X36.958 Y51.465 E3.73569
G1 X36.586 Y51.094 E3.75316
G1 X36.032 Y50.504 E3.78008
G1 X35.642 Y50.055 E3.79986
G1 X35.275 Y49.599 E3.81933
G1 X34.969 Y49.194 E3.83621
G1 X34.638 Y48.723 E3.85536
G1 X34.378 Y48.328 E3.87109
G1 X33.878 Y47.516 E3.90281
G1 X33.509 Y46.845 E3.92828
G1 X33.173 Y46.156 E3.95377
G1 X32.923 Y45.586 E3.97447
G1 X32.697 Y45.01 E3.99505
G1 X32.61 Y44.779 E4.00326
G1 X32.367 Y44.097 E4.02734
G1 X32.135 Y43.317 E4.05441
G1 X31.991 Y42.723 E4.07474
G1 X31.915 Y42.375 E4.08659
G1 X31.793 Y41.748 E4.10783
G1 X31.707 Y41.207 E4.12605
G1 X31.599 Y40.326 E4.15557
G1 X31.544 Y39.607 E4.17956
G1 X31.516 Y38.659 E4.2111
G1 X31.513 Y38.429 E4.21875
G1 X31.513 Y23.775 E4.70614
G1 X31.553 Y22.986 E4.73242
G1 X31.672 Y22.206 E4.75866
G1 X31.87 Y21.441 E4.78495
G1 X32.144 Y20.701 E4.81119
G1 X32.492 Y19.992 E4.83746
G1 X32.91 Y19.321 E4.86375
G1 X33.393 Y18.697 E4.89
G1 X33.798 Y18.26 E4.90982
G1 X33.915 Y18.143 E4.91532
G1 X34.501 Y17.613 E4.9416
G1 X34.683 Y17.479 E4.94912
G1 X34.683 Y13.776 E5.07228
G1 X34.723 Y12.987 E5.09855
G1 X34.842 Y12.207 E5.1248
G1 X35.04 Y11.442 E5.15108
G0 F6000 X35.44 Y11.504
G1 F1200 X35.714 Y10.786 E5.17664
G1 X36.061 Y10.099 E5.20224
G1 X36.477 Y9.452 E5.22782
G1 X36.958 Y8.852 E5.2534
G1 X37.25 Y8.542 E5.26756
G1 X37.367 Y8.425 E5.27307
G1 X37.939 Y7.911 E5.29865
G1 X38.561 Y7.458 E5.32424
G1 X39.226 Y7.072 E5.34981
G1 X39.928 Y6.757 E5.3754
G1 X40.659 Y6.517 E5.40099
G1 X41.41 Y6.354 E5.42655
G1 X42.175 Y6.27 E5.45215
G1 X42.6 Y6.258 E5.46629
G1 X60.558 Y6.258 E6.06358
G1 X61.326 Y6.298 E6.08916
G1 X62.086 Y6.417 E6.11474
G1 X62.829 Y6.615 E6.14032
G1 X63.548 Y6.889 E6.16591
G1 X64.234 Y7.236 E6.19148
G1 X64.881 Y7.652 E6.21706
G1 X65.481 Y8.133 E6.24264
G1 X65.791 Y8.425 E6.2568
G1 X65.968 Y8.602 E6.26513
G1 X66.482 Y9.174 E6.29071
G1 X66.935 Y9.796 E6.3163
G1 X67.321 Y10.461 E6.34187
G1 X67.636 Y11.163 E6.36746
G1 X67.876 Y11.894 E6.39305
G1 X68.039 Y12.645 E6.41861
G1 X68.123 Y13.41 E6.44421
G1 X68.135 Y13.834 E6.45832
G1 X68.135 Y17.405 E6.57709
G1 X68.519 Y17.652 E6.59228
G1 X69.119 Y18.133 E6.61785
G1 X69.429 Y18.425 E6.63202
G1 X69.546 Y18.542 E6.63752
G1 X70.06 Y19.114 E6.6631
G1 X70.513 Y19.736 E6.68869
G1 X70.899 Y20.401 E6.71427
G1 X71.214 Y21.103 E6.73986
G1 X71.454 Y21.834 E6.76545
G1 X71.617 Y22.585 E6.79101
G1 X71.701 Y23.35 E6.8166
G1 X71.713 Y23.775 E6.83074
G1 X71.713 Y38.227 E7.31142
G1 X71.707 Y38.518 E7.3211
G1 X71.651 Y39.941 E7.36847
G1 X71.622 Y40.364 E7.38257
G1 X71.59 Y40.694 E7.3936
G1 X71.514 Y41.257 E7.41249
G1 X71.366 Y42.102 E7.44102
G1 X71.253 Y42.633 E7.45908
G1 X71.127 Y43.133 E7.47623
G1 X71 Y43.578 E7.49162
G1 X70.766 Y44.31 E7.51718
G1 X70.573 Y44.841 E7.53597
G1 X70.292 Y45.533 E7.56082
G1 X70.07 Y46.028 E7.57886
G1 X69.719 Y46.738 E7.6052
G1 X69.445 Y47.242 E7.62428
G1 X68.912 Y48.138 E7.65896
G1 X68.36 Y48.94 E7.69134
G1 X67.715 Y49.757 E7.72596
G1 X67.297 Y50.243 E7.74728
G1 X66.597 Y50.987 E7.78126
G1 X65.955 Y51.592 E7.8106
G1 X65.093 Y52.313 E7.84798
G1 X64.478 Y52.775 E7.87356
G1 X63.818 Y53.171 E7.89916
G1 X63.121 Y53.496 E7.92474
G1 X62.394 Y53.748 E7.95033
G1 X61.645 Y53.922 E7.9759
G1 X60.882 Y54.017 E8.00148
G1 X60.369 Y54.037 E8.01855
G1 X53.784 Y54.058 E8.23757
G1 X53.015 Y54.02 E8.26318
G1 X52.255 Y53.903 E8.28876
G1 X51.811 Y53.787 E8.30402
G1 X51.463 Y53.883 E8.31603
G1 X50.705 Y54.011 E8.34159
G1 X49.86 Y54.059 E8.36974
G1 X43.358 Y54.059 E8.586
G1 X42.59 Y54.019 E8.61158
G1 X41.83 Y53.9 E8.63717
G1 X40.992 Y53.67 E8.66607
G1 X40.912 Y53.643 E8.66888
G1 X40.197 Y53.36 E8.69445
G1 X39.515 Y53.004 E8.72004
G1 X38.625 Y52.386 E8.75608
G1 X38.139 Y51.993 E8.77687
G1 X37.75 Y51.656 E8.79399
G1 X37.23 Y51.172 E8.81761
G1 X36.877 Y50.82 E8.83419
G1 X36.323 Y50.23 E8.86111
G1 X35.953 Y49.805 E8.87985
G1 X35.586 Y49.349 E8.89932
G1 X35.297 Y48.964 E8.91533
G1 X34.966 Y48.493 E8.93448
G1 X34.719 Y48.118 E8.94942
G1 X34.219 Y47.306 E8.98113
G1 X33.869 Y46.67 E9.00528
G1 X33.533 Y45.981 E9.03077
G1 X33.295 Y45.44 E9.05043
G1 X33.069 Y44.864 E9.07101
G1 X32.987 Y44.645 E9.07879
G1 X32.744 Y43.963 E9.10287
G1 X32.523 Y43.222 E9.12859
G1 X32.379 Y42.628 E9.14892
G1 X32.307 Y42.298 E9.16015
G1 X32.185 Y41.671 E9.1814
G1 X32.104 Y41.158 E9.19867
G1 X31.996 Y40.277 E9.22819
G1 X31.944 Y39.595 E9.25094
G1 X31.916 Y38.647 E9.28248
G1 X31.913 Y38.429 E9.28974
G1 X31.913 Y23.775 E9.77713
G1 X31.953 Y23.007 E9.80271
G1 X32.072 Y22.247 E9.82829
G1 X32.27 Y21.504 E9.85387
G1 X32.544 Y20.785 E9.87946
G1 X32.891 Y20.099 E9.90503
G1 X33.307 Y19.452 E9.93061
G1 X33.788 Y18.852 E9.95619
G1 X34.08 Y18.542 E9.97036
G1 X34.197 Y18.425 E9.97586
G1 X34.769 Y17.911 E10.00144
G1 X35.083 Y17.682 E10.01436
G1 X35.083 Y13.776 E10.14428
G1 X35.123 Y13.008 E10.16985
G1 X35.242 Y12.248 E10.19544
G1 X35.44 Y11.504 E10.22105
G0 F6000 X35.84 Y11.569
G1 F1200 X36.113 Y10.872 E10.24594
G1 X36.459 Y10.209 E10.27082
G1 X36.874 Y9.587 E10.29569
G1 X37.533 Y8.825 E10.3292
G1 X37.65 Y8.708 E10.3347
G1 X38.207 Y8.208 E10.35959
G1 X38.813 Y7.771 E10.38444
G1 X39.463 Y7.4 E10.40934
G1 X40.149 Y7.101 E10.43423
G1 X40.863 Y6.877 E10.45911
G1 X41.596 Y6.73 E10.48398
G1 X42.6 Y6.658 E10.51746
G1 X60.558 Y6.658 E11.11474
G1 X61.305 Y6.698 E11.13962
G1 X62.043 Y6.817 E11.16449
G1 X62.765 Y7.015 E11.18939
G1 X63.461 Y7.288 E11.21425
G1 X64.124 Y7.635 E11.23914
G1 X64.747 Y8.05 E11.26404
G1 X65.508 Y8.708 E11.2975
G1 X65.685 Y8.885 E11.30583
G1 X66.185 Y9.442 E11.33072
G1 X66.622 Y10.048 E11.35557
G1 X66.993 Y10.698 E11.38046
G1 X67.292 Y11.384 E11.40535
G1 X67.516 Y12.098 E11.43024
G1 X67.663 Y12.831 E11.45511
G1 X67.735 Y13.834 E11.48855
G1 X67.735 Y17.621 E11.61451
G1 X67.762 Y17.635 E11.61552
G1 X68.385 Y18.05 E11.64042
G1 X69.146 Y18.708 E11.67388
G1 X69.263 Y18.825 E11.67938
G1 X69.763 Y19.382 E11.70428
G1 X70.2 Y19.988 E11.72913
G1 X70.571 Y20.638 E11.75402
G1 X70.87 Y21.324 E11.77891
G1 X71.094 Y22.038 E11.8038
G1 X71.241 Y22.771 E11.82866
G1 X71.313 Y23.775 E11.86214
G1 X71.313 Y38.227 E12.34282
G1 X71.308 Y38.502 E12.35197
G1 X71.252 Y39.925 E12.39933
G1 X71.224 Y40.326 E12.4127
G1 X71.192 Y40.656 E12.42373
G1 X71.12 Y41.188 E12.44159
G1 X70.972 Y42.033 E12.47012
G1 X70.865 Y42.536 E12.48722
G1 X70.739 Y43.036 E12.50437
G1 X70.619 Y43.456 E12.5189
G1 X70.385 Y44.188 E12.54446
G1 X70.203 Y44.691 E12.56225
G1 X69.922 Y45.383 E12.58709
G1 X69.711 Y45.851 E12.60417
G1 X69.36 Y46.561 E12.63051
G1 X69.101 Y47.038 E12.64856
G1 X68.568 Y47.934 E12.68324
G1 X68.046 Y48.693 E12.71388
G1 X67.401 Y49.51 E12.7485
G1 X67.005 Y49.969 E12.76866
G1 X66.305 Y50.713 E12.80264
G1 X65.698 Y51.285 E12.83038
G1 X64.836 Y52.006 E12.86776
G1 X64.237 Y52.455 E12.89265
G1 X63.594 Y52.837 E12.91753
G1 X62.914 Y53.148 E12.9424
G1 X62.205 Y53.385 E12.96726
G1 X61.474 Y53.545 E12.99215
G1 X60.367 Y53.637 E13.0291
G1 X53.782 Y53.658 E13.24812
G1 X53.035 Y53.62 E13.27299
G1 X52.296 Y53.503 E13.29788
G1 X51.812 Y53.372 E13.31456
G1 X51.586 Y53.443 E13.32244
G1 X50.852 Y53.588 E13.34732
G1 X49.86 Y53.659 E13.3804
G1 X43.358 Y53.659 E13.59666
G1 X42.611 Y53.619 E13.62154
G1 X41.873 Y53.5 E13.6464
G1 X41.12 Y53.291 E13.67239
G1 X41.04 Y53.264 E13.6752
G1 X40.345 Y52.988 E13.70007
G1 X39.683 Y52.638 E13.72498
G1 X38.877 Y52.075 E13.75768
G1 X38.391 Y51.682 E13.77847
G1 X38.023 Y51.363 E13.79467
G1 X37.503 Y50.879 E13.81829
G1 X37.169 Y50.547 E13.83396
G1 X36.615 Y49.957 E13.86087
G1 X36.265 Y49.554 E13.87863
G1 X35.898 Y49.098 E13.8981
G1 X35.624 Y48.734 E13.91325
G1 X35.293 Y48.263 E13.9324
G1 X35.059 Y47.908 E13.94654
G1 X34.559 Y47.096 E13.97826
G1 X34.228 Y46.494 E14.0011
G1 X33.892 Y45.805 E14.0266
G1 X33.668 Y45.294 E14.04516
G1 X33.442 Y44.718 E14.06574
G1 X33.364 Y44.51 E14.07313
G1 X33.121 Y43.828 E14.09721
G1 X32.912 Y43.128 E14.1215
G1 X32.768 Y42.534 E14.14183
G1 X32.7 Y42.222 E14.15245
G1 X32.578 Y41.595 E14.1737
G1 X32.501 Y41.11 E14.19003
G1 X32.393 Y40.229 E14.21955
G1 X32.344 Y39.584 E14.24107
G1 X32.316 Y38.636 E14.27261
G1 X32.313 Y38.429 E14.2795
G1 X32.313 Y23.775 E14.76689
G1 X32.353 Y23.028 E14.79177
G1 X32.472 Y22.29 E14.81664
G1 X32.67 Y21.568 E14.84154
G1 X32.943 Y20.872 E14.8664
G1 X33.29 Y20.209 E14.89129
G1 X33.705 Y19.586 E14.91619
G1 X34.363 Y18.825 E14.94965
G1 X34.48 Y18.708 E14.95515
G1 X35.037 Y18.208 E14.98005
G1 X35.483 Y17.886 E14.99834
G1 X35.483 Y13.776 E15.13504
G1 X35.523 Y13.029 E15.15992
G1 X35.642 Y12.29 E15.18482
G1 X35.84 Y11.569 E15.20969
G0 F6000 X36.24 Y11.635
G1 F1200 X36.513 Y10.962 E15.23384
G1 X36.858 Y10.323 E15.258
G1 X37.271 Y9.726 E15.28214
G1 X37.816 Y9.108 E15.30955
G1 X37.933 Y8.991 E15.31505
G1 X38.474 Y8.507 E15.33919
G1 X39.065 Y8.084 E15.36337
G1 X39.699 Y7.73 E15.38752
G1 X40.368 Y7.447 E15.41168
G1 X41.064 Y7.239 E15.43584
G1 X41.779 Y7.109 E15.46001
G1 X42.6 Y7.058 E15.48737
G1 X60.558 Y7.058 E16.08466
G1 X61.283 Y7.098 E16.10881
G1 X62 Y7.217 E16.13298
G1 X62.699 Y7.415 E16.15714
G1 X63.372 Y7.688 E16.1813
G1 X64.011 Y8.033 E16.20545
G1 X64.608 Y8.447 E16.22961
G1 X65.225 Y8.991 E16.25697
G1 X65.402 Y9.168 E16.2653
G1 X65.886 Y9.709 E16.28944
G1 X66.309 Y10.3 E16.31362
G1 X66.663 Y10.934 E16.33777
G1 X66.946 Y11.603 E16.36193
G1 X67.154 Y12.299 E16.38609
G1 X67.284 Y13.014 E16.41026
G1 X67.335 Y13.834 E16.43758
G1 X67.335 Y17.864 E16.57162
G1 X67.649 Y18.033 E16.58348
G1 X68.246 Y18.447 E16.60765
G1 X68.863 Y18.991 E16.63501
G1 X68.98 Y19.108 E16.64051
G1 X69.464 Y19.649 E16.66465
G1 X69.887 Y20.24 E16.68883
G1 X70.241 Y20.874 E16.71298
G1 X70.524 Y21.543 E16.73714
G1 X70.732 Y22.239 E16.7613
G1 X70.862 Y22.954 E16.78547
G1 X70.913 Y23.775 E16.81283
G1 X70.913 Y38.227 E17.2935
G1 X70.908 Y38.487 E17.30215
G1 X70.852 Y39.91 E17.34952
G1 X70.826 Y40.287 E17.36209
G1 X70.794 Y40.617 E17.37311
G1 X70.726 Y41.119 E17.38996
G1 X70.578 Y41.964 E17.4185
G1 X70.477 Y42.438 E17.43462
G1 X70.351 Y42.938 E17.45177
G1 X70.238 Y43.335 E17.46549
G1 X70.004 Y44.067 E17.49105
G1 X69.832 Y44.54 E17.50779
G1 X69.551 Y45.232 E17.53264
G1 X69.352 Y45.674 E17.54876
G1 X69.001 Y46.384 E17.5751
G1 X68.757 Y46.833 E17.5921
G1 X68.224 Y47.729 E17.62677
G1 X67.732 Y48.445 E17.65567
G1 X67.087 Y49.262 E17.69029
G1 X66.714 Y49.695 E17.7093
G1 X66.014 Y50.439 E17.74327
G1 X65.441 Y50.979 E17.76946
G1 X64.579 Y51.7 E17.80684
G1 X63.997 Y52.134 E17.83098
G1 X63.371 Y52.502 E17.85514
G1 X62.708 Y52.799 E17.8793
G1 X62.017 Y53.022 E17.90345
G1 X61.305 Y53.167 E17.92762
G1 X60.366 Y53.237 E17.95893
G1 X53.781 Y53.258 E18.17795
G1 X53.056 Y53.22 E18.2021
G1 X52.339 Y53.103 E18.22626
G1 X51.814 Y52.957 E18.24439
G1 X51.68 Y53.003 E18.2491
G1 X50.972 Y53.165 E18.27326
G1 X50.251 Y53.247 E18.29739
G1 X49.86 Y53.259 E18.3104
G1 X43.358 Y53.259 E18.52666
G1 X42.633 Y53.219 E18.55081
G1 X41.916 Y53.1 E18.57498
G1 X41.247 Y52.912 E18.5981
G1 X41.167 Y52.885 E18.6009
G1 X40.493 Y52.616 E18.62504
G1 X39.852 Y52.273 E18.64922
G1 X39.128 Y51.764 E18.67866
G1 X38.642 Y51.371 E18.69945
G1 X38.295 Y51.07 E18.71472
G1 X37.775 Y50.586 E18.73835
G1 X37.461 Y50.273 E18.7531
G1 X36.907 Y49.683 E18.78002
G1 X36.576 Y49.303 E18.79678
G1 X36.209 Y48.847 E18.81625
G1 X35.951 Y48.504 E18.83052
G1 X35.62 Y48.033 E18.84967
G1 X35.4 Y47.699 E18.86297
G1 X34.9 Y46.887 E18.89469
G1 X34.588 Y46.319 E18.91624
G1 X34.252 Y45.63 E18.94174
G1 X34.04 Y45.148 E18.95925
G1 X33.814 Y44.572 E18.97983
G1 X33.741 Y44.376 E18.98679
G1 X33.498 Y43.694 E19.01087
G1 X33.301 Y43.034 E19.03378
G1 X33.157 Y42.44 E19.0541
G1 X33.092 Y42.146 E19.06412
G1 X32.97 Y41.519 E19.08536
G1 X32.898 Y41.061 E19.10078
G1 X32.79 Y40.18 E19.13031
G1 X32.744 Y39.572 E19.15059
G1 X32.716 Y38.624 E19.18213
G1 X32.713 Y38.429 E19.18862
G1 X32.713 Y23.775 E19.67601
G1 X32.753 Y23.05 E19.70016
G1 X32.872 Y22.333 E19.72434
G1 X33.07 Y21.634 E19.7485
G1 X33.343 Y20.961 E19.77265
G1 X33.688 Y20.322 E19.79681
G1 X34.102 Y19.725 E19.82097
G1 X34.646 Y19.108 E19.84833
G1 X34.763 Y18.991 E19.85383
G1 X35.304 Y18.507 E19.87798
G1 X35.883 Y18.092 E19.90167
