;FLAVOR:Marlin
;TIME:2528
;Filament used: 1.71608m
;Layer height: 0.28
;MINX:14.629
;MINY:20.248
;MINZ:0.2
;MAXX:85.932
;MAXY:45.827
;MAXZ:54.8
;POSTPROCESSED
;Generated with Cura_SteamEngine 4.3.0
M140 S60
M105
M190 S60
M104 S200
M105
M109 S200
M82 ;absolute extrusion mode
M201 X500.00 Y500.00 Z100.00 E5000.00 ;Setup machine max acceleration
M203 X500.00 Y500.00 Z10.00 E50.00 ;Setup machine max feedrate
M204 P500.00 R1000.00 T500.00 ;Setup Print/Retract/Travel acceleration
M205 X8.00 Y8.00 Z0.40 E5.00 ;Setup Jerk
M220 S100 ;Reset Feedrate
M221 S100 ;Reset Flowrate

G28 ;Home

G92 E0 ;Reset Extruder
G1 Z2.0 F3000 ;Move Z Axis up
G1 X10.1 Y20 Z0.28 F5000.0 ;Move to start position
G1 X10.1 Y200.0 Z0.28 F1500.0 E15 ;Draw the first line
G1 X10.4 Y200.0 Z0.28 F5000.0 ;Move to side a little
G1 X10.4 Y20 Z0.28 F1500.0 E30 ;Draw the second line
G92 E0 ;Reset Extruder
G1 Z2.0 F3000 ;Move Z Axis up

G92 E0
G92 E0
G1 F2700 E-5
;LAYER_COUNT:196
;LAYER:[layer_num]
;LAYER:0
M107
M204 S500
M205 X8 Y8
G0 F6000 X17.617 Y22.039 Z0.2
;TYPE:SKIRT
G1 F2700 E0
G1 F1200 X18.253 Y21.572 E0.02624
G1 X18.933 Y21.171 E0.0525
G1 X19.651 Y20.841 E0.07878
G1 X20.398 Y20.586 E0.10504
G1 X21.167 Y20.407 E0.1313
G1 X21.951 Y20.307 E0.15758
G1 X22.546 Y20.284 E0.17739
G1 X72.207 Y20.284 E1.82912
G1 X72.837 Y20.25 E1.8501
G1 X73.626 Y20.248 E1.87635
G1 X74.095 Y20.284 E1.89199
G1 X74.946 Y20.376 E1.92046
G1 X75.726 Y20.501 E1.94673
G1 X76.269 Y20.636 E1.96534
G1 X77.084 Y20.871 E1.99356
G1 X77.831 Y21.128 E2.01983
G1 X78.342 Y21.355 E2.03843
G1 X79.117 Y21.733 E2.06711
G1 X79.809 Y22.115 E2.0934
G1 X80.252 Y22.412 E2.11114
G1 X80.943 Y22.909 E2.13945
G1 X81.56 Y23.402 E2.16571
G1 X81.963 Y23.785 E2.18421
G1 X82.562 Y24.397 E2.21269
G1 X83.085 Y24.989 E2.23896
G1 X83.402 Y25.415 E2.25662
G1 X83.885 Y26.113 E2.28485
G1 X84.301 Y26.784 E2.31111
G1 X84.546 Y27.267 E2.32913
G1 X84.909 Y28.049 E2.3578
G1 X85.205 Y28.781 E2.38406
G1 X85.37 Y29.32 E2.40281
G1 X85.589 Y30.14 E2.43104
G1 X85.754 Y30.913 E2.45733
G1 X85.82 Y31.435 E2.47483
G1 X85.899 Y32.289 E2.50336
G1 X85.932 Y33.078 E2.52962
G1 X85.908 Y33.62 E2.54767
G1 X85.841 Y34.47 E2.57602
G1 X85.739 Y35.253 E2.60229
G1 X85.617 Y35.809 E2.62122
G1 X85.402 Y36.641 E2.6498
G1 X85.166 Y37.394 E2.67605
G1 X84.969 Y37.876 E2.69337
G1 X84.623 Y38.649 E2.72153
G1 X84.265 Y39.352 E2.74777
G1 X83.967 Y39.828 E2.76645
G1 X83.484 Y40.543 E2.79515
G1 X83.01 Y41.174 E2.8214
G1 X82.645 Y41.582 E2.83961
G1 X82.053 Y42.198 E2.86802
G1 X81.478 Y42.739 E2.89428
G1 X81.041 Y43.083 E2.91278
G1 X80.355 Y43.586 E2.94107
G1 X79.696 Y44.02 E2.96732
G1 X79.224 Y44.276 E2.98518
G1 X78.456 Y44.659 E3.01372
G1 X77.732 Y44.975 E3.03999
G1 X77.226 Y45.147 E3.05777
G1 X76.41 Y45.393 E3.08612
G1 X75.644 Y45.582 E3.11236
G1 X75.096 Y45.668 E3.13081
G1 X74.245 Y45.771 E3.15932
G1 X73.457 Y45.827 E3.18559
G1 X72.93 Y45.819 E3.20312
G1 X72.249 Y45.786 E3.2258
G1 X22.545 Y45.784 E4.87896
G1 X21.756 Y45.744 E4.90524
G1 X20.975 Y45.624 E4.93152
G1 X20.211 Y45.427 E4.95776
G1 X19.47 Y45.152 E4.98405
G1 X18.761 Y44.805 E5.0103
G1 X18.091 Y44.387 E5.03657
G1 X17.466 Y43.904 E5.06284
G1 X17.006 Y43.476 E5.08374
G1 X16.89 Y43.359 E5.08922
G1 X16.363 Y42.771 E5.11548
G1 X15.898 Y42.132 E5.14176
G1 X15.501 Y41.45 E5.16801
G1 X15.174 Y40.731 E5.19428
G1 X14.921 Y39.983 E5.22055
G1 X14.746 Y39.213 E5.24681
G1 X14.649 Y38.429 E5.27308
G1 X14.629 Y37.867 E5.29179
G1 X14.629 Y28.201 E5.61328
G1 X14.669 Y27.412 E5.63956
G1 X14.788 Y26.632 E5.6658
G1 X14.986 Y25.867 E5.69208
G1 X15.26 Y25.127 E5.71833
G1 X15.608 Y24.418 E5.7446
G1 X16.026 Y23.747 E5.77089
G1 X16.509 Y23.123 E5.79714
G1 X16.914 Y22.686 E5.81695
G1 X17.031 Y22.569 E5.82246
G1 X17.617 Y22.039 E5.84874
G0 F6000 X17.885 Y22.337
G1 F1200 X18.507 Y21.884 E5.87433
G1 X19.172 Y21.498 E5.8999
G1 X19.874 Y21.183 E5.92549
G1 X20.605 Y20.943 E5.95108
G1 X21.356 Y20.78 E5.97664
G1 X22.121 Y20.696 E6.00224
G1 X22.546 Y20.684 E6.01638
G1 X72.228 Y20.684 E7.66881
G1 X72.858 Y20.65 E7.6898
G1 X73.627 Y20.648 E7.71537
G1 X74.052 Y20.682 E7.72955
G1 X74.903 Y20.774 E7.75802
G1 X75.663 Y20.896 E7.78362
G1 X76.158 Y21.021 E7.80061
G1 X76.973 Y21.256 E7.82882
G1 X77.7 Y21.507 E7.8544
G1 X78.167 Y21.715 E7.8714
G1 X78.942 Y22.093 E7.90008
G1 X79.615 Y22.466 E7.92567
G1 X80.019 Y22.737 E7.94185
G1 X80.71 Y23.234 E7.97016
G1 X81.31 Y23.714 E7.99572
G1 X81.677 Y24.065 E8.01261
G1 X82.276 Y24.677 E8.04109
G1 X82.785 Y25.254 E8.06668
G1 X83.073 Y25.642 E8.08275
G1 X83.556 Y26.34 E8.11099
G1 X83.96 Y26.995 E8.13658
G1 X84.183 Y27.435 E8.15299
G1 X84.546 Y28.217 E8.18166
G1 X84.833 Y28.931 E8.20726
G1 X84.983 Y29.424 E8.2244
G1 X85.202 Y30.244 E8.25263
G1 X85.362 Y30.996 E8.2782
G1 X85.422 Y31.471 E8.29412
G1 X85.501 Y32.325 E8.32265
G1 X85.531 Y33.094 E8.34824
G1 X85.509 Y33.588 E8.36469
G1 X85.442 Y34.438 E8.39305
G1 X85.342 Y35.201 E8.41864
G1 X85.23 Y35.708 E8.43591
G1 X85.015 Y36.54 E8.4645
G1 X84.784 Y37.274 E8.49009
G1 X84.604 Y37.712 E8.50584
G1 X84.258 Y38.485 E8.53401
G1 X83.908 Y39.17 E8.55959
G1 X83.636 Y39.604 E8.57663
G1 X83.153 Y40.319 E8.60533
G1 X82.69 Y40.933 E8.6309
G1 X82.356 Y41.305 E8.64753
G1 X81.764 Y41.921 E8.67595
G1 X81.203 Y42.447 E8.70152
G1 X80.805 Y42.761 E8.71839
G1 X80.119 Y43.264 E8.74668
G1 X79.476 Y43.686 E8.77226
G1 X79.045 Y43.918 E8.78854
G1 X78.277 Y44.301 E8.81708
G1 X77.572 Y44.608 E8.84266
G1 X77.111 Y44.764 E8.85885
G1 X76.295 Y45.01 E8.88719
G1 X75.548 Y45.193 E8.91277
G1 X75.048 Y45.271 E8.9296
G1 X74.197 Y45.374 E8.95811
G1 X73.43 Y45.427 E8.98369
G1 X72.95 Y45.419 E8.99965
G1 X72.269 Y45.386 E9.02233
G1 X22.545 Y45.384 E10.67616
G1 X21.777 Y45.344 E10.70174
G1 X21.017 Y45.224 E10.72733
G1 X20.273 Y45.027 E10.75292
G1 X19.555 Y44.753 E10.77848
G1 X18.868 Y44.406 E10.80408
G1 X18.222 Y43.99 E10.82964
G1 X17.621 Y43.508 E10.85526
G1 X17.29 Y43.194 E10.87044
G1 X17.174 Y43.077 E10.87592
G1 X16.662 Y42.503 E10.9015
G1 X16.211 Y41.88 E10.92708
G1 X15.829 Y41.213 E10.95265
G1 X15.517 Y40.51 E10.97823
G1 X15.28 Y39.778 E11.00382
G1 X15.12 Y39.025 E11.02942
G1 X15.039 Y38.26 E11.05501
G1 X15.029 Y37.867 E11.06808
G1 X15.029 Y28.201 E11.38958
G1 X15.069 Y27.433 E11.41515
G1 X15.188 Y26.673 E11.44074
G1 X15.386 Y25.93 E11.46632
G1 X15.66 Y25.211 E11.49191
G1 X16.007 Y24.525 E11.51748
G1 X16.423 Y23.878 E11.54306
G1 X16.904 Y23.278 E11.56864
G1 X17.196 Y22.968 E11.5828
G1 X17.313 Y22.851 E11.5883
G1 X17.885 Y22.337 E11.61388
G0 F6000 X18.153 Y22.634
G1 F1200 X18.759 Y22.197 E11.63873
G1 X19.409 Y21.826 E11.66362
G1 X20.095 Y21.527 E11.68851
G1 X20.809 Y21.303 E11.7134
G1 X21.542 Y21.156 E11.73827
G1 X22.546 Y21.084 E11.77175
G1 X72.231 Y21.084 E13.42428
G1 X72.88 Y21.049 E13.44589
G1 X73.628 Y21.049 E13.47077
G1 X74.009 Y21.08 E13.48349
G1 X74.86 Y21.172 E13.51196
G1 X75.599 Y21.292 E13.53686
G1 X76.047 Y21.405 E13.55222
G1 X76.862 Y21.64 E13.58044
G1 X77.569 Y21.885 E13.60532
G1 X77.992 Y22.074 E13.62073
G1 X78.767 Y22.452 E13.64941
G1 X79.421 Y22.816 E13.67431
G1 X79.785 Y23.061 E13.6889
G1 X80.476 Y23.558 E13.71721
G1 X81.059 Y24.027 E13.7421
G1 X81.392 Y24.345 E13.75741
G1 X81.991 Y24.957 E13.78589
G1 X82.485 Y25.518 E13.81075
G1 X82.744 Y25.87 E13.82529
G1 X83.227 Y26.568 E13.85352
G1 X83.619 Y27.205 E13.8784
G1 X83.82 Y27.604 E13.89326
G1 X84.183 Y28.386 E13.92193
G1 X84.462 Y29.08 E13.94681
G1 X84.597 Y29.527 E13.96234
G1 X84.816 Y30.347 E13.99057
G1 X84.97 Y31.079 E14.01545
G1 X85.023 Y31.508 E14.02983
G1 X85.102 Y32.362 E14.05835
G1 X85.131 Y33.11 E14.08325
G1 X85.11 Y33.557 E14.09813
G1 X85.043 Y34.407 E14.12649
G1 X84.945 Y35.149 E14.15139
G1 X84.842 Y35.608 E14.16703
G1 X84.627 Y36.44 E14.19561
G1 X84.402 Y37.154 E14.22051
G1 X84.239 Y37.549 E14.23472
G1 X83.893 Y38.322 E14.26289
G1 X83.551 Y38.987 E14.28776
G1 X83.305 Y39.38 E14.30319
G1 X82.822 Y40.095 E14.33188
G1 X82.37 Y40.692 E14.35679
G1 X82.068 Y41.027 E14.37179
G1 X81.476 Y41.643 E14.40021
G1 X80.93 Y42.154 E14.42508
G1 X80.568 Y42.438 E14.44038
G1 X79.882 Y42.941 E14.46868
G1 X79.256 Y43.351 E14.49356
G1 X78.867 Y43.56 E14.50825
G1 X78.099 Y43.943 E14.5368
G1 X77.413 Y44.241 E14.56167
G1 X76.995 Y44.381 E14.57633
G1 X76.179 Y44.627 E14.60468
G1 X75.453 Y44.804 E14.62953
G1 X75 Y44.874 E14.64478
G1 X74.149 Y44.977 E14.67329
G1 X73.403 Y45.027 E14.69816
G1 X72.969 Y45.02 E14.7126
G1 X72.268 Y44.986 E14.73594
G1 X22.545 Y44.984 E16.38973
G1 X21.798 Y44.944 E16.41461
G1 X21.059 Y44.825 E16.43951
G1 X20.338 Y44.627 E16.46438
G1 X19.641 Y44.353 E16.48929
G1 X18.978 Y44.007 E16.51416
G1 X18.356 Y43.592 E16.53903
G1 X17.574 Y42.912 E16.5735
G1 X17.458 Y42.795 E16.57898
G1 X16.961 Y42.237 E16.60383
G1 X16.525 Y41.628 E16.62874
G1 X16.158 Y40.977 E16.6536
G1 X15.862 Y40.29 E16.67848
G1 X15.641 Y39.575 E16.70337
G1 X15.497 Y38.841 E16.72825
G1 X15.429 Y37.867 E16.76072
G1 X15.429 Y28.201 E17.08221
G1 X15.469 Y27.454 E17.1071
G1 X15.588 Y26.716 E17.13196
G1 X15.786 Y25.994 E17.15686
G1 X16.059 Y25.298 E17.18173
G1 X16.406 Y24.635 E17.20661
G1 X16.821 Y24.012 E17.23151
G1 X17.479 Y23.251 E17.26497
G1 X17.596 Y23.134 E17.27048
G1 X18.153 Y22.634 E17.29537
G0 F6000 X18.42 Y22.933
G1 F1200 X19.011 Y22.51 E17.31954
G1 X19.645 Y22.156 E17.3437
G1 X20.314 Y21.873 E17.36786
G1 X21.01 Y21.665 E17.39202
G1 X21.725 Y21.535 E17.41619
G1 X22.546 Y21.484 E17.44355
G1 X72.252 Y21.484 E19.09677
G1 X72.901 Y21.449 E19.11839
G1 X73.966 Y21.477 E19.15383
G1 X74.817 Y21.569 E19.18229
G1 X75.534 Y21.687 E19.20646
G1 X75.937 Y21.789 E19.22029
G1 X76.752 Y22.024 E19.2485
G1 X77.437 Y22.264 E19.27264
G1 X77.816 Y22.434 E19.28646
G1 X78.591 Y22.812 E19.31514
G1 X79.226 Y23.166 E19.33932
G1 X79.552 Y23.386 E19.3524
G1 X80.243 Y23.883 E19.38071
G1 X80.808 Y24.339 E19.40486
G1 X81.106 Y24.624 E19.41857
G1 X81.705 Y25.236 E19.44705
G1 X82.183 Y25.783 E19.47122
G1 X82.415 Y26.097 E19.4842
G1 X82.898 Y26.795 E19.51243
G1 X83.278 Y27.415 E19.53662
G1 X83.457 Y27.772 E19.5499
G1 X83.82 Y28.554 E19.57858
G1 X84.09 Y29.229 E19.60276
G1 X84.211 Y29.63 E19.61669
G1 X84.43 Y30.45 E19.64492
G1 X84.578 Y31.161 E19.66907
G1 X84.625 Y31.545 E19.68194
G1 X84.704 Y32.399 E19.71046
G1 X84.731 Y33.125 E19.73463
G1 X84.712 Y33.526 E19.74798
G1 X84.645 Y34.376 E19.77634
G1 X84.548 Y35.096 E19.8005
G1 X84.455 Y35.508 E19.81455
G1 X84.24 Y36.34 E19.84313
G1 X84.02 Y37.032 E19.86728
G1 X83.874 Y37.385 E19.87999
G1 X83.528 Y38.158 E19.90816
G1 X83.195 Y38.804 E19.93233
G1 X82.973 Y39.156 E19.94617
G1 X82.49 Y39.871 E19.97487
G1 X82.051 Y40.45 E19.99904
G1 X81.78 Y40.75 E20.01248
G1 X81.188 Y41.366 E20.0409
G1 X80.656 Y41.862 E20.06509
G1 X80.332 Y42.116 E20.07878
G1 X79.646 Y42.619 E20.10708
G1 X79.037 Y43.015 E20.13124
G1 X78.688 Y43.202 E20.14441
G1 X77.92 Y43.585 E20.17295
G1 X77.254 Y43.873 E20.19708
G1 X76.88 Y43.998 E20.2102
G1 X76.064 Y44.244 E20.23855
G1 X75.358 Y44.415 E20.26271
G1 X74.952 Y44.477 E20.27637
G1 X74.101 Y44.58 E20.30488
G1 X73.376 Y44.628 E20.32904
G1 X72.988 Y44.62 E20.34195
G1 X72.287 Y44.586 E20.3653
G1 X22.545 Y44.584 E22.01972
G1 X21.819 Y44.544 E22.0439
G1 X21.103 Y44.425 E22.06805
G1 X20.404 Y44.227 E22.09221
G1 X19.731 Y43.954 E22.11636
G1 X19.092 Y43.609 E22.14052
G1 X18.495 Y43.195 E22.16468
G1 X17.858 Y42.631 E22.19298
G1 X17.742 Y42.514 E22.19846
G1 X17.26 Y41.971 E22.22261
G1 X16.84 Y41.378 E22.24678
G1 X16.488 Y40.742 E22.27095
G1 X16.208 Y40.072 E22.29511
G1 X16.004 Y39.375 E22.31926
G1 X15.877 Y38.66 E22.34341
G1 X15.829 Y37.867 E22.36984
G1 X15.829 Y28.201 E22.69133
G1 X15.869 Y27.476 E22.71548
G1 X15.988 Y26.759 E22.73965
G1 X16.186 Y26.06 E22.76382
G1 X16.459 Y25.387 E22.78797
G1 X16.804 Y24.748 E22.81213
G1 X17.218 Y24.151 E22.83629
G1 X17.762 Y23.534 E22.86365
G1 X17.879 Y23.417 E22.86915
G1 X18.42 Y22.933 E22.8933
G0 F6000 X18.687 Y23.231
G1 F1200 X19.262 Y22.825 E22.91671
G1 X19.88 Y22.487 E22.94014
G1 X20.531 Y22.22 E22.96354
G1 X21.209 Y22.03 E22.98696
G1 X21.904 Y21.917 E23.01038
G1 X22.546 Y21.884 E23.03176
G1 X72.256 Y21.884 E24.68512
G1 X72.923 Y21.848 E24.70734
G1 X73.923 Y21.875 E24.74061
G1 X74.774 Y21.967 E24.76908
G1 X75.469 Y22.082 E24.79251
G1 X75.826 Y22.174 E24.80477
G1 X76.641 Y22.409 E24.83298
G1 X77.305 Y22.642 E24.85639
G1 X77.641 Y22.793 E24.86864
G1 X78.416 Y23.171 E24.89732
G1 X79.318 Y23.711 E24.93228
G1 X80.009 Y24.208 E24.96059
G1 X80.556 Y24.651 E24.984
G1 X80.82 Y24.904 E24.99617
G1 X81.419 Y25.516 E25.02465
G1 X82.086 Y26.325 E25.05952
G1 X82.569 Y27.023 E25.08775
G1 X82.936 Y27.624 E25.11118
G1 X83.095 Y27.941 E25.12297
G1 X83.458 Y28.723 E25.15165
G1 X83.717 Y29.377 E25.17504
G1 X83.824 Y29.733 E25.18741
G1 X84.043 Y30.553 E25.21563
G1 X84.227 Y31.582 E25.2504
G1 X84.306 Y32.436 E25.27893
G1 X84.331 Y33.139 E25.30232
G1 X84.313 Y33.494 E25.31415
G1 X84.246 Y34.344 E25.34251
G1 X84.151 Y35.042 E25.36594
G1 X84.068 Y35.408 E25.37842
G1 X83.853 Y36.24 E25.407
G1 X83.509 Y37.222 E25.44161
G1 X83.163 Y37.995 E25.46977
G1 X82.839 Y38.62 E25.49319
G1 X82.642 Y38.933 E25.50549
G1 X82.159 Y39.648 E25.53419
G1 X81.732 Y40.208 E25.55761
G1 X81.491 Y40.473 E25.56953
G1 X80.899 Y41.089 E25.59794
G1 X80.383 Y41.568 E25.62136
G1 X80.095 Y41.793 E25.63351
G1 X79.409 Y42.296 E25.66181
G1 X78.51 Y42.844 E25.69682
G1 X77.742 Y43.227 E25.72537
G1 X76.765 Y43.615 E25.76033
G1 X75.949 Y43.861 E25.78868
G1 X75.264 Y44.026 E25.81211
G1 X74.904 Y44.08 E25.82422
G1 X74.053 Y44.183 E25.85273
G1 X73.008 Y44.221 E25.88751
G1 X72.286 Y44.186 E25.91155
G1 X22.545 Y44.184 E27.56595
G1 X21.842 Y44.144 E27.58937
G1 X21.148 Y44.025 E27.61279
G1 X20.472 Y43.827 E27.63621
G1 X19.823 Y43.555 E27.65962
G1 X19.209 Y43.21 E27.68304
G1 X18.638 Y42.798 E27.70646
G1 X18.142 Y42.349 E27.72872
G1 X18.026 Y42.232 E27.7342
G1 X17.56 Y41.705 E27.75759
G1 X17.156 Y41.128 E27.78102
G1 X16.82 Y40.509 E27.80445
G1 X16.557 Y39.857 E27.82783
G1 X16.369 Y39.178 E27.85126
G1 X16.26 Y38.483 E27.87466
G1 X16.229 Y37.867 E27.89518
G1 X16.229 Y28.201 E28.21667
G1 X16.269 Y27.498 E28.24009
G1 X16.388 Y26.804 E28.26351
G1 X16.586 Y26.129 E28.2869
G1 X16.858 Y25.48 E28.31031
G1 X17.203 Y24.866 E28.33373
G1 X17.614 Y24.295 E28.35713
G1 X18.045 Y23.817 E28.37854
G1 X18.162 Y23.7 E28.38404
G1 X18.687 Y23.231 E28.40746
G0 F6000 X18.954 Y23.53
G1 F1200 X19.512 Y23.141 E28.43008
G1 X20.112 Y22.819 E28.45273
G1 X20.746 Y22.57 E28.47538
G1 X21.405 Y22.397 E28.49805
G1 X22.079 Y22.303 E28.52068
G1 X22.546 Y22.284 E28.53623
G1 X72.259 Y22.284 E30.18969
G1 X72.945 Y22.247 E30.21254
G1 X73.88 Y22.273 E30.24365
G1 X74.731 Y22.365 E30.27212
G1 X75.715 Y22.558 E30.30547
G1 X76.53 Y22.793 E30.33368
G1 X77.466 Y23.153 E30.36703
G1 X78.241 Y23.531 E30.39571
G1 X79.085 Y24.035 E30.42841
G1 X79.776 Y24.532 E30.45672
G1 X80.534 Y25.184 E30.48997
G1 X81.133 Y25.796 E30.51846
G1 X81.757 Y26.553 E30.55108
G1 X82.24 Y27.251 E30.57932
G1 X82.732 Y28.109 E30.61221
G1 X83.095 Y28.891 E30.64089
G1 X83.438 Y29.836 E30.67432
G1 X83.657 Y30.656 E30.70255
G1 X83.828 Y31.619 E30.73508
G1 X83.907 Y32.473 E30.76361
G1 X83.914 Y33.463 E30.79654
G1 X83.847 Y34.313 E30.8249
G1 X83.681 Y35.308 E30.85845
G1 X83.466 Y36.14 E30.88703
G1 X83.144 Y37.059 E30.91942
G1 X82.798 Y37.832 E30.94759
G1 X82.31 Y38.709 E30.98097
G1 X81.827 Y39.424 E31.00967
G1 X81.203 Y40.196 E31.04268
G1 X80.611 Y40.812 E31.0711
G1 X79.859 Y41.47 E31.10433
G1 X79.173 Y41.973 E31.13262
G1 X78.331 Y42.486 E31.16542
G1 X77.563 Y42.869 E31.19396
G1 X76.649 Y43.232 E31.22667
G1 X75.833 Y43.478 E31.25502
G1 X74.856 Y43.683 E31.28822
G1 X74.005 Y43.786 E31.31673
G1 X73.027 Y43.821 E31.34928
G1 X72.305 Y43.786 E31.37332
G1 X22.545 Y43.784 E33.02835
