;FLAVOR:Marlin
;TIME:477
;Filament used: 0.223381m
;Layer height: 0.28
;MINX:26.894
;MINY:25.388
;MINZ:0.2
;MAXX:47.274
;MAXY:45.777
;MAXZ:29.88
;POSTPROCESSED
;Generated with Cura_SteamEngine 4.3.0
M140 S60
M105
M190 S60
M104 S200
M105
M109 S200
M82 ;absolute extrusion mode
M201 X500.00 Y500.00 Z100.00 E5000.00 ;Setup machine max acceleration
M203 X500.00 Y500.00 Z10.00 E50.00 ;Setup machine max feedrate
M204 P500.00 R1000.00 T500.00 ;Setup Print/Retract/Travel acceleration
M205 X8.00 Y8.00 Z0.40 E5.00 ;Setup Jerk
M220 S100 ;Reset Feedrate
M221 S100 ;Reset Flowrate

G28 ;Home

G92 E0 ;Reset Extruder
G1 Z2.0 F3000 ;Move Z Axis up
G1 X10.1 Y20 Z0.28 F5000.0 ;Move to start position
G1 X10.1 Y200.0 Z0.28 F1500.0 E15 ;Draw the first line
G1 X10.4 Y200.0 Z0.28 F5000.0 ;Move to side a little
G1 X10.4 Y20 Z0.28 F1500.0 E30 ;Draw the second line
G92 E0 ;Reset Extruder
G1 Z2.0 F3000 ;Move Z Axis up

G92 E0
G92 E0
G1 F2700 E-5
;LAYER_COUNT:107
;LAYER:[layer_num]
;LAYER:0
M107
M204 S500
M205 X8 Y8
G0 F6000 X29.486 Y28.778 Z0.2
;TYPE:SKIRT
G1 F2700 E0
G1 F1200 X29.851 Y28.4 E0.01748
G1 X30.134 Y28.126 E0.03058
G1 X30.729 Y27.606 E0.05686
G1 X31.178 Y27.278 E0.07535
G1 X31.524 Y27.043 E0.08927
G1 X32.198 Y26.632 E0.11552
G1 X32.659 Y26.403 E0.13264
G1 X33.026 Y26.235 E0.14607
G1 X33.76 Y25.943 E0.17234
G1 X34.268 Y25.789 E0.19
G1 X34.659 Y25.685 E0.20345
G1 X35.431 Y25.521 E0.2297
G1 X35.978 Y25.453 E0.24804
G1 X36.386 Y25.417 E0.26166
G1 X37.176 Y25.388 E0.28795
G1 X37.666 Y25.41 E0.30427
G1 X38.072 Y25.441 E0.31781
G1 X38.855 Y25.541 E0.34406
G1 X39.443 Y25.67 E0.36409
G1 X39.831 Y25.771 E0.37742
G1 X40.584 Y26.008 E0.40368
G1 X41.009 Y26.18 E0.41893
G1 X41.386 Y26.346 E0.43263
G1 X42.092 Y26.701 E0.45891
G1 X42.587 Y27.007 E0.47827
G1 X42.93 Y27.237 E0.492
G1 X43.563 Y27.709 E0.51826
G1 X43.982 Y28.082 E0.53692
G1 X44.267 Y28.355 E0.55005
G1 X44.808 Y28.93 E0.57631
G1 X45.111 Y29.308 E0.59242
G1 X45.36 Y29.64 E0.60622
G1 X45.801 Y30.295 E0.63249
G1 X46.077 Y30.793 E0.65142
G1 X46.26 Y31.154 E0.66488
G1 X46.581 Y31.876 E0.69117
G1 X46.746 Y32.347 E0.70776
G1 X46.868 Y32.736 E0.72132
G1 X47.065 Y33.5 E0.74757
G1 X47.161 Y34.069 E0.76676
G1 X47.213 Y34.471 E0.78024
G1 X47.274 Y35.259 E0.80653
G1 X47.273 Y35.72 E0.82186
G1 X47.26 Y36.129 E0.83547
G1 X47.195 Y36.916 E0.86174
G1 X47.092 Y37.511 E0.88182
G1 X47.008 Y37.904 E0.89519
G1 X46.804 Y38.667 E0.92145
G1 X46.644 Y39.116 E0.93731
G1 X46.493 Y39.502 E0.95109
G1 X46.168 Y40.222 E0.97737
G1 X45.881 Y40.733 E0.99686
G1 X45.671 Y41.076 E1.01024
G1 X45.225 Y41.728 E1.03651
G1 X44.886 Y42.143 E1.05433
G1 X44.617 Y42.45 E1.06791
G1 X44.067 Y43.017 E1.09418
G1 X43.681 Y43.354 E1.11123
G1 X43.366 Y43.611 E1.12475
G1 X42.73 Y44.078 E1.15099
G1 X42.247 Y44.372 E1.1698
G1 X41.89 Y44.572 E1.18341
G1 X41.183 Y44.922 E1.20965
G1 X40.706 Y45.111 E1.22671
G1 X40.326 Y45.247 E1.24014
G1 X39.57 Y45.475 E1.2664
G1 X39.051 Y45.585 E1.28405
G1 X38.648 Y45.656 E1.29766
G1 X37.744 Y45.761 E1.32792
G1 X37.536 Y45.773 E1.33485
G1 X36.707 Y45.777 E1.36243
G1 X36.502 Y45.767 E1.36925
G1 X35.584 Y45.667 E1.39997
G1 X35.193 Y45.601 E1.41316
G1 X34.422 Y45.431 E1.43942
G1 X33.928 Y45.277 E1.45663
G1 X33.54 Y45.142 E1.47029
G1 X32.808 Y44.845 E1.49656
G1 X32.361 Y44.619 E1.51322
G1 X32.008 Y44.426 E1.5266
G1 X31.335 Y44.012 E1.55288
G1 X30.857 Y43.656 E1.57271
G1 X30.533 Y43.395 E1.58655
G1 X29.944 Y42.869 E1.61281
G1 X29.607 Y42.515 E1.62907
G1 X29.341 Y42.217 E1.64235
G1 X28.846 Y41.602 E1.66861
G1 X28.53 Y41.133 E1.68742
G1 X28.318 Y40.791 E1.7008
G1 X27.937 Y40.099 E1.72708
G1 X27.719 Y39.61 E1.74488
G1 X27.561 Y39.22 E1.75888
G1 X27.302 Y38.474 E1.78514
G1 X27.174 Y37.975 E1.80228
G1 X27.088 Y37.586 E1.81553
G1 X26.957 Y36.807 E1.8418
G1 X26.912 Y36.248 E1.86045
G1 X26.894 Y35.843 E1.87394
G1 X26.899 Y35.054 E1.90018
G1 X26.937 Y34.611 E1.91497
G1 X26.984 Y34.2 E1.92873
G1 X27.113 Y33.421 E1.95499
G1 X27.273 Y32.807 E1.97609
G1 X27.39 Y32.424 E1.98941
G1 X27.659 Y31.682 E2.01567
G1 X27.87 Y31.222 E2.0325
G1 X28.052 Y30.857 E2.04606
G1 X28.439 Y30.169 E2.07232
G1 X28.743 Y29.725 E2.09022
G1 X28.988 Y29.391 E2.10399
G1 X29.486 Y28.778 E2.13026
G0 F6000 X29.797 Y29.031
G1 F1200 X30.13 Y28.688 E2.14616
G1 X30.413 Y28.414 E2.15926
G1 X30.992 Y27.908 E2.18484
G1 X31.402 Y27.608 E2.20174
G1 X31.748 Y27.373 E2.21565
G1 X32.406 Y26.975 E2.24122
G1 X32.826 Y26.766 E2.25683
G1 X33.193 Y26.598 E2.27025
G1 X33.908 Y26.315 E2.29583
G1 X34.371 Y26.176 E2.31191
G1 X34.762 Y26.072 E2.32536
G1 X35.514 Y25.913 E2.35093
G1 X36.014 Y25.852 E2.36768
G1 X36.422 Y25.816 E2.3813
G1 X37.19 Y25.788 E2.40686
G1 X37.635 Y25.808 E2.42168
G1 X38.041 Y25.839 E2.43522
G1 X38.804 Y25.938 E2.46081
G1 X39.342 Y26.057 E2.47914
G1 X39.73 Y26.158 E2.49247
G1 X40.463 Y26.39 E2.51805
G1 X40.848 Y26.546 E2.53186
G1 X41.225 Y26.712 E2.54556
G1 X41.912 Y27.059 E2.57116
G1 X42.364 Y27.339 E2.58885
G1 X42.707 Y27.569 E2.60258
G1 X43.323 Y28.03 E2.62817
G1 X43.705 Y28.371 E2.6452
G1 X43.99 Y28.644 E2.65833
G1 X44.517 Y29.204 E2.68391
G1 X44.791 Y29.548 E2.69853
G1 X45.04 Y29.88 E2.71234
G1 X45.469 Y30.518 E2.73791
G1 X45.72 Y30.974 E2.75522
G1 X45.903 Y31.335 E2.76868
G1 X46.215 Y32.038 E2.79426
G1 X46.364 Y32.467 E2.80937
G1 X46.486 Y32.856 E2.82293
G1 X46.678 Y33.6 E2.84848
G1 X46.764 Y34.121 E2.86605
G1 X46.816 Y34.523 E2.87953
G1 X46.875 Y35.29 E2.90511
G1 X46.873 Y35.707 E2.91898
G1 X46.86 Y36.116 E2.93259
G1 X46.796 Y36.883 E2.95819
G1 X46.701 Y37.428 E2.97659
G1 X46.617 Y37.821 E2.98996
G1 X46.417 Y38.564 E3.01555
G1 X46.271 Y38.97 E3.0299
G1 X46.12 Y39.356 E3.04369
G1 X45.803 Y40.057 E3.06928
G1 X45.54 Y40.524 E3.0871
G1 X45.33 Y40.867 E3.10048
G1 X44.895 Y41.501 E3.12605
G1 X44.585 Y41.88 E3.14234
G1 X44.316 Y42.187 E3.15591
G1 X43.779 Y42.738 E3.1815
G1 X43.428 Y43.044 E3.19699
G1 X43.113 Y43.301 E3.21051
G1 X42.493 Y43.755 E3.23607
G1 X42.052 Y44.023 E3.25324
G1 X41.695 Y44.223 E3.26685
G1 X41.005 Y44.563 E3.29243
G1 X40.572 Y44.734 E3.30792
G1 X40.192 Y44.87 E3.32134
G1 X39.455 Y45.091 E3.34693
G1 X38.982 Y45.191 E3.36301
G1 X38.579 Y45.262 E3.37662
G1 X37.721 Y45.362 E3.40535
G1 X37.513 Y45.374 E3.41228
G1 X36.726 Y45.377 E3.43846
G1 X36.521 Y45.367 E3.44528
G1 X35.65 Y45.273 E3.47442
G1 X35.259 Y45.207 E3.48761
G1 X34.509 Y45.04 E3.51316
G1 X34.059 Y44.899 E3.52885
G1 X33.671 Y44.764 E3.54251
G1 X32.959 Y44.474 E3.56808
G1 X32.553 Y44.268 E3.58323
G1 X32.2 Y44.075 E3.59661
G1 X31.545 Y43.671 E3.6222
G1 X31.108 Y43.345 E3.64034
G1 X30.784 Y43.084 E3.65417
G1 X30.211 Y42.571 E3.67975
G1 X29.905 Y42.249 E3.69453
G1 X29.639 Y41.951 E3.70781
G1 X29.158 Y41.351 E3.73339
G1 X28.87 Y40.922 E3.75058
G1 X28.658 Y40.58 E3.76396
G1 X28.288 Y39.906 E3.78953
G1 X28.089 Y39.46 E3.80578
G1 X27.931 Y39.07 E3.81977
G1 X27.68 Y38.343 E3.84535
G1 X27.564 Y37.888 E3.86097
G1 X27.478 Y37.499 E3.87422
G1 X27.352 Y36.741 E3.89978
G1 X27.311 Y36.231 E3.9168
G1 X27.293 Y35.826 E3.93028
G1 X27.299 Y35.056 E3.95589
G1 X27.334 Y34.656 E3.96925
G1 X27.381 Y34.245 E3.983
G1 X27.508 Y33.487 E4.00857
G1 X27.656 Y32.924 E4.02793
G1 X27.773 Y32.541 E4.04125
G1 X28.035 Y31.818 E4.06683
G1 X28.228 Y31.401 E4.08211
G1 X28.41 Y31.036 E4.09567
G1 X28.788 Y30.366 E4.12126
G1 X29.065 Y29.961 E4.13758
G1 X29.31 Y29.627 E4.15136
G1 X29.797 Y29.031 E4.17696
G0 F6000 X30.107 Y29.285
G1 F1200 X30.408 Y28.975 E4.19133
G1 X30.691 Y28.701 E4.20443
G1 X31.255 Y28.21 E4.2293
G1 X31.627 Y27.939 E4.24461
G1 X31.973 Y27.704 E4.25852
G1 X32.613 Y27.318 E4.28338
G1 X32.992 Y27.13 E4.29745
G1 X33.359 Y26.962 E4.31087
G1 X34.055 Y26.688 E4.33575
G1 X34.474 Y26.562 E4.3503
G1 X34.865 Y26.458 E4.36376
G1 X35.597 Y26.305 E4.38863
G1 X36.049 Y26.25 E4.40378
G1 X36.457 Y26.214 E4.4174
G1 X37.204 Y26.188 E4.44226
G1 X37.605 Y26.207 E4.45561
G1 X38.011 Y26.238 E4.46916
G1 X38.753 Y26.335 E4.49405
G1 X39.241 Y26.444 E4.51068
G1 X39.629 Y26.545 E4.52401
G1 X40.687 Y26.913 E4.56127
G1 X41.064 Y27.079 E4.57497
G1 X41.731 Y27.416 E4.59983
G1 X42.142 Y27.671 E4.61591
G1 X42.485 Y27.901 E4.62965
G1 X43.083 Y28.35 E4.65452
G1 X43.428 Y28.66 E4.66995
G1 X43.713 Y28.933 E4.68307
G1 X44.225 Y29.479 E4.70797
G1 X44.471 Y29.788 E4.7211
G1 X44.72 Y30.12 E4.73491
G1 X45.136 Y30.742 E4.7598
G1 X45.364 Y31.155 E4.77549
G1 X45.547 Y31.516 E4.78895
G1 X45.849 Y32.2 E4.81382
G1 X45.982 Y32.586 E4.8274
G1 X46.104 Y32.975 E4.84096
G1 X46.29 Y33.7 E4.86585
G1 X46.367 Y34.172 E4.88176
G1 X46.419 Y34.574 E4.89524
G1 X46.475 Y35.32 E4.92012
G1 X46.473 Y35.694 E4.93256
G1 X46.46 Y36.103 E4.94617
G1 X46.397 Y36.849 E4.97107
G1 X46.309 Y37.344 E4.98779
G1 X46.225 Y37.737 E5.00116
G1 X46.03 Y38.459 E5.02603
G1 X45.899 Y38.824 E5.03893
G1 X45.748 Y39.21 E5.05272
G1 X45.439 Y39.891 E5.07759
G1 X45.199 Y40.315 E5.09379
G1 X44.989 Y40.658 E5.10717
G1 X44.565 Y41.274 E5.13204
G1 X44.284 Y41.616 E5.14677
G1 X44.015 Y41.923 E5.16034
G1 X43.492 Y42.459 E5.18525
G1 X43.175 Y42.734 E5.19921
G1 X42.86 Y42.991 E5.21273
G1 X42.256 Y43.432 E5.2376
G1 X41.856 Y43.674 E5.25315
G1 X41.499 Y43.874 E5.26676
G1 X40.828 Y44.204 E5.29163
G1 X40.437 Y44.358 E5.30561
G1 X40.057 Y44.494 E5.31903
G1 X39.34 Y44.708 E5.34392
G1 X38.913 Y44.797 E5.35843
G1 X38.51 Y44.868 E5.37204
G1 X37.698 Y44.962 E5.39923
G1 X37.49 Y44.974 E5.40616
G1 X36.746 Y44.978 E5.4309
G1 X36.541 Y44.968 E5.43773
G1 X35.717 Y44.878 E5.4653
G1 X35.326 Y44.812 E5.47849
G1 X34.596 Y44.649 E5.50336
G1 X34.191 Y44.521 E5.51749
G1 X33.803 Y44.386 E5.53116
G1 X33.11 Y44.103 E5.55605
G1 X32.745 Y43.917 E5.56968
G1 X32.392 Y43.724 E5.58306
G1 X31.756 Y43.331 E5.60792
G1 X31.359 Y43.033 E5.62444
G1 X31.035 Y42.772 E5.63827
G1 X30.478 Y42.273 E5.66315
G1 X30.204 Y41.982 E5.67644
G1 X29.938 Y41.684 E5.68973
G1 X29.47 Y41.101 E5.71459
G1 X29.21 Y40.711 E5.73018
G1 X28.998 Y40.369 E5.74356
G1 X28.639 Y39.713 E5.76844
G1 X28.46 Y39.309 E5.78313
G1 X28.302 Y38.919 E5.79713
G1 X28.059 Y38.212 E5.82199
G1 X27.955 Y37.802 E5.83606
G1 X27.869 Y37.413 E5.84931
G1 X27.747 Y36.675 E5.87419
G1 X27.711 Y36.213 E5.8896
G1 X27.693 Y35.808 E5.90309
G1 X27.731 Y34.702 E5.9399
G1 X27.778 Y34.291 E5.95365
G1 X27.903 Y33.553 E5.97855
G1 X28.038 Y33.041 E5.99616
G1 X28.155 Y32.658 E6.00948
G1 X28.412 Y31.955 E6.03438
G1 X28.586 Y31.579 E6.04816
G1 X28.768 Y31.214 E6.06172
G1 X29.137 Y30.564 E6.08658
G1 X29.388 Y30.198 E6.10134
G1 X29.633 Y29.864 E6.11512
G1 X30.107 Y29.285 E6.14001
G0 F6000 X30.416 Y29.539
G1 F1200 X30.686 Y29.262 E6.15287
G1 X30.969 Y28.988 E6.16597
G1 X31.518 Y28.513 E6.19012
G1 X31.852 Y28.27 E6.20386
G1 X32.198 Y28.035 E6.21777
G1 X32.82 Y27.661 E6.24191
G1 X33.159 Y27.494 E6.25448
G1 X33.526 Y27.326 E6.2679
G1 X34.202 Y27.06 E6.29206
G1 X34.576 Y26.949 E6.30504
G1 X34.967 Y26.845 E6.3185
G1 X35.679 Y26.697 E6.34268
G1 X36.084 Y26.649 E6.35625
G1 X36.492 Y26.613 E6.36987
G1 X37.574 Y26.606 E6.40586
G1 X37.98 Y26.637 E6.4194
G1 X38.701 Y26.732 E6.44359
G1 X39.141 Y26.831 E6.45859
G1 X39.529 Y26.932 E6.47193
G1 X40.526 Y27.279 E6.50704
G1 X40.903 Y27.445 E6.52074
G1 X41.55 Y27.773 E6.54487
G1 X41.919 Y28.003 E6.55933
G1 X42.262 Y28.233 E6.57306
G1 X42.842 Y28.67 E6.59722
G1 X43.151 Y28.949 E6.61106
G1 X43.436 Y29.222 E6.62419
G1 X44.151 Y30.028 E6.66003
G1 X44.4 Y30.36 E6.67383
G1 X44.803 Y30.964 E6.69798
G1 X45.007 Y31.336 E6.71209
G1 X45.19 Y31.697 E6.72555
G1 X45.482 Y32.362 E6.74971
G1 X45.601 Y32.706 E6.76181
G1 X45.723 Y33.095 E6.77537
G1 X45.901 Y33.799 E6.79953
G1 X45.97 Y34.223 E6.81381
G1 X46.022 Y34.625 E6.8273
G1 X46.074 Y35.682 E6.86249
G1 X46.061 Y36.091 E6.8761
G1 X45.998 Y36.814 E6.90024
G1 X45.918 Y37.261 E6.91535
G1 X45.834 Y37.654 E6.92871
G1 X45.526 Y38.678 E6.96428
G1 X45.375 Y39.064 E6.97806
G1 X45.074 Y39.725 E7.00222
G1 X44.858 Y40.106 E7.01679
G1 X44.648 Y40.449 E7.03016
G1 X44.235 Y41.047 E7.05434
G1 X43.983 Y41.353 E7.06752
G1 X43.714 Y41.66 E7.0811
G1 X43.206 Y42.179 E7.10525
G1 X42.922 Y42.424 E7.11773
G1 X42.607 Y42.681 E7.13125
G1 X42.02 Y43.108 E7.15539
G1 X41.661 Y43.325 E7.16934
G1 X41.304 Y43.525 E7.18295
G1 X40.651 Y43.845 E7.20714
G1 X40.302 Y43.981 E7.2196
G1 X39.922 Y44.117 E7.23302
G1 X39.226 Y44.324 E7.25717
G1 X38.843 Y44.403 E7.27018
G1 X38.44 Y44.474 E7.28379
G1 X37.675 Y44.563 E7.30941
G1 X37.467 Y44.575 E7.31634
G1 X36.765 Y44.578 E7.33968
G1 X36.56 Y44.568 E7.34651
G1 X35.783 Y44.484 E7.3725
G1 X35.392 Y44.418 E7.38569
G1 X34.684 Y44.258 E7.40984
G1 X34.322 Y44.143 E7.42247
G1 X33.934 Y44.008 E7.43613
G1 X33.262 Y43.732 E7.46029
G1 X32.937 Y43.566 E7.47243
G1 X32.584 Y43.373 E7.48581
G1 X31.967 Y42.99 E7.50997
G1 X31.61 Y42.722 E7.52481
G1 X31.286 Y42.461 E7.53865
G1 X30.502 Y41.716 E7.57462
G1 X30.236 Y41.418 E7.58791
G1 X29.783 Y40.85 E7.61207
G1 X29.55 Y40.5 E7.62606
G1 X29.338 Y40.158 E7.63944
G1 X28.99 Y39.521 E7.66358
G1 X28.831 Y39.159 E7.67673
G1 X28.673 Y38.769 E7.69073
G1 X28.438 Y38.082 E7.71488
G1 X28.346 Y37.716 E7.72743
G1 X28.26 Y37.327 E7.74068
G1 X28.142 Y36.61 E7.76485
G1 X28.111 Y36.195 E7.77869
G1 X28.093 Y35.79 E7.79218
G1 X28.129 Y34.747 E7.82689
G1 X28.176 Y34.336 E7.84065
G1 X28.298 Y33.62 E7.8648
G1 X28.421 Y33.158 E7.8807
G1 X28.538 Y32.775 E7.89402
G1 X28.788 Y32.093 E7.91818
G1 X28.944 Y31.758 E7.93047
G1 X29.126 Y31.393 E7.94404
G1 X29.485 Y30.762 E7.96819
G1 X29.71 Y30.434 E7.98142
G1 X29.955 Y30.1 E7.99519
G1 X30.416 Y29.539 E8.01934
G0 F6000 X30.964 Y29.55
G1 F1200 X31.247 Y29.276 E8.03244
G1 X31.78 Y28.815 E8.05588
G1 X32.077 Y28.601 E8.06806
G1 X32.423 Y28.366 E8.08197
G1 X33.325 Y27.858 E8.1164
G1 X33.692 Y27.69 E8.12983
G1 X34.679 Y27.335 E8.16471
G1 X35.07 Y27.231 E8.17817
G1 X35.76 Y27.089 E8.2016
G1 X36.119 Y27.047 E8.21362
G1 X36.527 Y27.011 E8.22724
G1 X37.544 Y27.005 E8.26107
G1 X37.95 Y27.036 E8.27461
G1 X38.648 Y27.129 E8.29803
G1 X39.04 Y27.218 E8.3114
G1 X39.428 Y27.319 E8.32474
G1 X40.364 Y27.645 E8.3577
G1 X40.741 Y27.811 E8.37141
G1 X41.369 Y28.131 E8.39485
G1 X41.696 Y28.336 E8.40768
G1 X42.039 Y28.566 E8.42142
G1 X42.6 Y28.99 E8.44481
G1 X42.875 Y29.238 E8.45713
G1 X43.16 Y29.511 E8.47025
G1 X43.831 Y30.268 E8.5039
G1 X44.08 Y30.6 E8.5177
G1 X44.47 Y31.186 E8.54111
G1 X44.65 Y31.517 E8.55364
G1 X44.833 Y31.878 E8.56711
G1 X45.219 Y32.826 E8.60115
G1 X45.341 Y33.215 E8.61471
G1 X45.513 Y33.897 E8.6381
G1 X45.574 Y34.275 E8.65084
G1 X45.626 Y34.677 E8.66432
G1 X45.674 Y35.669 E8.69735
G1 X45.661 Y36.078 E8.71096
G1 X45.599 Y36.779 E8.73437
G1 X45.527 Y37.177 E8.74782
G1 X45.443 Y37.57 E8.76119
G1 X45.154 Y38.533 E8.79463
G1 X45.003 Y38.919 E8.80841
G1 X44.71 Y39.559 E8.83183
G1 X44.517 Y39.897 E8.84477
G1 X44.307 Y40.24 E8.85815
G1 X43.682 Y41.089 E8.89321
G1 X43.413 Y41.396 E8.90679
G1 X42.669 Y42.114 E8.94118
G1 X42.354 Y42.371 E8.9547
G1 X41.785 Y42.784 E8.97808
G1 X41.465 Y42.976 E8.9905
G1 X41.108 Y43.176 E9.00411
G1 X40.167 Y43.604 E9.03849
G1 X39.787 Y43.74 E9.05191
G1 X38.774 Y44.009 E9.08677
G1 X38.371 Y44.08 E9.10038
G1 X37.652 Y44.164 E9.12446
G1 X37.444 Y44.176 E9.13139
G1 X36.785 Y44.179 E9.15331
G1 X36.58 Y44.169 E9.16014
G1 X35.85 Y44.09 E9.18456
G1 X35.459 Y44.024 E9.19775
G1 X34.454 Y43.766 E9.23226
G1 X34.066 Y43.631 E9.24592
G1 X33.129 Y43.215 E9.28002
G1 X32.776 Y43.022 E9.2934
G1 X32.178 Y42.65 E9.31682
G1 X31.861 Y42.41 E9.33005
G1 X31.537 Y42.149 E9.34389
G1 X30.801 Y41.45 E9.37765
G1 X30.535 Y41.152 E9.39093
G1 X30.096 Y40.601 E9.41436
G1 X29.89 Y40.29 E9.42677
G1 X29.678 Y39.948 E9.44015
G1 X29.202 Y39.009 E9.47517
G1 X29.044 Y38.619 E9.48916
G1 X28.736 Y37.629 E9.52365
G1 X28.65 Y37.24 E9.5369
G1 X28.537 Y36.545 E9.56032
G1 X28.51 Y36.177 E9.57259
G1 X28.492 Y35.772 E9.58607
