;FLAVOR:Marlin
;TIME:4675
;Filament used: 5.6577m
;Layer height: 0.28
;MINX:14.651
;MINY:10.847
;MINZ:0.2
;MAXX:83.832
;MAXY:99.163
;MAXZ:19.8
;POSTPROCESSED
;Generated with Cura_SteamEngine 4.3.0
M140 S60
M105
M190 S60
M104 S200
M105
M109 S200
M82 ;absolute extrusion mode
M201 X500.00 Y500.00 Z100.00 E5000.00 ;Setup machine max acceleration
M203 X500.00 Y500.00 Z10.00 E50.00 ;Setup machine max feedrate
M204 P500.00 R1000.00 T500.00 ;Setup Print/Retract/Travel acceleration
M205 X8.00 Y8.00 Z0.40 E5.00 ;Setup Jerk
M220 S100 ;Reset Feedrate
M221 S100 ;Reset Flowrate

G28 ;Home

G92 E0 ;Reset Extruder
G1 Z2.0 F3000 ;Move Z Axis up
G1 X10.1 Y20 Z0.28 F5000.0 ;Move to start position
G1 X10.1 Y200.0 Z0.28 F1500.0 E15 ;Draw the first line
G1 X10.4 Y200.0 Z0.28 F5000.0 ;Move to side a little
G1 X10.4 Y20 Z0.28 F1500.0 E30 ;Draw the second line
G92 E0 ;Reset Extruder
G1 Z2.0 F3000 ;Move Z Axis up

G92 E0
G92 E0
G1 F2700 E-5
;LAYER_COUNT:71
;LAYER:[layer_num]
;LAYER:0
M107
M204 S500
M205 X8 Y8
G0 F6000 X16.531 Y13.686 Z0.2
;TYPE:SKIRT
G1 F2700 E0
G1 F1200 X16.936 Y13.249 E0.01982
G1 X17.053 Y13.132 E0.02532
G1 X17.639 Y12.602 E0.0516
G1 X18.275 Y12.135 E0.07784
G1 X18.955 Y11.734 E0.1041
G1 X19.673 Y11.404 E0.13038
G1 X20.42 Y11.149 E0.15664
G1 X21.189 Y10.97 E0.1829
G1 X21.973 Y10.87 E0.20918
G1 X22.568 Y10.847 E0.22899
G1 X72.334 Y10.847 E1.88421
G1 X73.123 Y10.887 E1.91049
G1 X73.903 Y11.006 E1.93673
G1 X74.668 Y11.204 E1.96301
G1 X75.408 Y11.478 E1.98926
G1 X76.117 Y11.826 E2.01553
G1 X76.788 Y12.244 E2.04182
G1 X77.412 Y12.727 E2.06807
G1 X77.849 Y13.132 E2.08788
G1 X77.966 Y13.249 E2.09339
G1 X78.496 Y13.835 E2.11967
G1 X78.963 Y14.471 E2.14591
G1 X79.364 Y15.151 E2.17217
G1 X79.694 Y15.869 E2.19845
G1 X79.949 Y16.616 E2.2247
G1 X80.128 Y17.385 E2.25096
G1 X80.228 Y18.169 E2.27725
G1 X80.251 Y18.764 E2.29705
G1 X80.251 Y68.854 E3.96305
G1 X80.332 Y68.974 E3.96787
G1 X81.378 Y70.63 E4.03302
G1 X81.765 Y71.318 E4.05927
G1 X81.997 Y71.829 E4.07794
G1 X82.739 Y73.634 E4.14285
G1 X83.002 Y74.379 E4.16912
G1 X83.138 Y74.902 E4.1871
G1 X83.563 Y76.807 E4.25202
G1 X83.696 Y77.585 E4.27827
G1 X83.742 Y78.147 E4.29702
G1 X83.832 Y80.104 E4.36218
G1 X83.828 Y80.893 E4.38842
G1 X83.78 Y81.431 E4.40639
G1 X83.538 Y83.363 E4.47115
G1 X83.4 Y84.141 E4.49743
G1 X83.256 Y84.679 E4.51595
G1 X82.683 Y86.549 E4.581
G1 X82.413 Y87.292 E4.6073
G1 X82.178 Y87.799 E4.62588
G1 X81.293 Y89.54 E4.69084
G1 X80.9 Y90.224 E4.71708
G1 X80.584 Y90.679 E4.7355
G1 X79.414 Y92.242 E4.80044
G1 X78.91 Y92.85 E4.82671
G1 X78.522 Y93.242 E4.84505
G1 X77.096 Y94.587 E4.91025
G1 X76.495 Y95.099 E4.93651
G1 X76.049 Y95.418 E4.95475
G1 X74.42 Y96.496 E5.01972
G1 X73.74 Y96.898 E5.04599
G1 X73.234 Y97.14 E5.06465
G1 X71.444 Y97.921 E5.1296
G1 X70.705 Y98.2 E5.15587
G1 X70.178 Y98.349 E5.17409
G1 X68.289 Y98.811 E5.23877
G1 X67.513 Y98.959 E5.26504
G1 X66.965 Y99.016 E5.28337
G1 X65.008 Y99.149 E5.34861
G1 X64.218 Y99.163 E5.37489
G1 X63.674 Y99.125 E5.39303
G1 X61.728 Y98.923 E5.4581
G1 X60.947 Y98.802 E5.48439
G1 X60.397 Y98.667 E5.50322
G1 X58.525 Y98.134 E5.56796
G1 X57.777 Y97.879 E5.59424
G1 X57.277 Y97.66 E5.6124
G1 X55.512 Y96.81 E5.67756
G1 X54.818 Y96.431 E5.70386
G1 X54.353 Y96.123 E5.72241
G1 X52.766 Y94.986 E5.78734
G1 X52.148 Y94.494 E5.81361
G1 X51.75 Y94.116 E5.83187
G1 X50.381 Y92.725 E5.89678
G1 X49.856 Y92.135 E5.92305
G1 X49.527 Y91.694 E5.94135
G1 X48.415 Y90.088 E6.00632
G1 X47.999 Y89.417 E6.03258
G1 X47.749 Y88.923 E6.05099
G1 X46.925 Y87.142 E6.11626
G1 X46.63 Y86.41 E6.14251
G1 X46.467 Y85.876 E6.16108
G1 X45.966 Y83.996 E6.22579
G1 X45.802 Y83.223 E6.25208
G1 X45.734 Y82.679 E6.27031
G1 X45.561 Y80.736 E6.33519
G1 X45.53 Y80.046 E6.35816
G1 X45.529 Y76.447 E6.47787
G1 X22.568 Y76.447 E7.24155
G1 X21.779 Y76.407 E7.26783
G1 X20.999 Y76.288 E7.29407
G1 X20.234 Y76.09 E7.32035
G1 X19.494 Y75.816 E7.3466
G1 X18.785 Y75.468 E7.37287
G1 X18.114 Y75.05 E7.39916
G1 X17.49 Y74.567 E7.42541
G1 X17.053 Y74.162 E7.44522
G1 X16.936 Y74.045 E7.45073
G1 X16.406 Y73.459 E7.47701
G1 X15.939 Y72.823 E7.50325
G1 X15.538 Y72.143 E7.52951
G1 X15.208 Y71.425 E7.55579
G1 X14.953 Y70.678 E7.58204
G1 X14.774 Y69.909 E7.6083
G1 X14.674 Y69.125 E7.63459
G1 X14.651 Y68.53 E7.65439
G1 X14.651 Y18.764 E9.30962
G1 X14.691 Y17.975 E9.33589
G1 X14.81 Y17.195 E9.36214
G1 X15.008 Y16.43 E9.38842
G1 X15.282 Y15.69 E9.41466
G1 X15.63 Y14.981 E9.44093
G1 X16.048 Y14.31 E9.46723
G1 X16.531 Y13.686 E9.49347
G0 F6000 X16.926 Y13.841
G1 F1200 X17.218 Y13.531 E9.50764
G1 X17.335 Y13.414 E9.51314
G1 X17.907 Y12.9 E9.53872
G1 X18.529 Y12.447 E9.56431
G1 X19.194 Y12.061 E9.58988
G1 X19.896 Y11.746 E9.61548
G1 X20.627 Y11.506 E9.64107
G1 X21.378 Y11.343 E9.66663
G1 X22.143 Y11.259 E9.69222
G1 X22.568 Y11.247 E9.70636
G1 X72.334 Y11.247 E11.36159
G1 X73.102 Y11.287 E11.38717
G1 X73.862 Y11.406 E11.41275
G1 X74.605 Y11.604 E11.43833
G1 X75.324 Y11.878 E11.46392
G1 X76.01 Y12.225 E11.48949
G1 X76.657 Y12.641 E11.51507
G1 X77.257 Y13.122 E11.54065
G1 X77.567 Y13.414 E11.55481
G1 X77.684 Y13.531 E11.56032
G1 X78.198 Y14.103 E11.58589
G1 X78.651 Y14.725 E11.61149
G1 X79.037 Y15.39 E11.63706
G1 X79.352 Y16.092 E11.66265
G1 X79.592 Y16.823 E11.68824
G1 X79.755 Y17.574 E11.7138
G1 X79.839 Y18.339 E11.7394
G1 X79.851 Y18.764 E11.75354
G1 X79.851 Y68.975 E13.42357
G1 X79.993 Y69.187 E13.43205
G1 X81.039 Y70.843 E13.4972
G1 X81.416 Y71.514 E13.5228
G1 X81.627 Y71.981 E13.53984
G1 X82.369 Y73.786 E13.60475
G1 X82.624 Y74.512 E13.63034
G1 X82.747 Y74.989 E13.64673
G1 X83.172 Y76.894 E13.71165
G1 X83.301 Y77.652 E13.73722
G1 X83.342 Y78.165 E13.75434
G1 X83.432 Y80.122 E13.8195
G1 X83.428 Y80.891 E13.84507
G1 X83.383 Y81.382 E13.86147
G1 X83.141 Y83.314 E13.92623
G1 X83.005 Y84.071 E13.95181
G1 X82.873 Y84.562 E13.96872
G1 X82.3 Y86.432 E14.03377
G1 X82.037 Y87.155 E14.05936
G1 X81.822 Y87.617 E14.07631
G1 X80.937 Y89.358 E14.14127
G1 X80.553 Y90.025 E14.16687
G1 X80.264 Y90.44 E14.18369
G1 X79.094 Y92.003 E14.24863
G1 X78.602 Y92.594 E14.2742
G1 X78.247 Y92.951 E14.29095
G1 X76.821 Y94.296 E14.35614
G1 X76.235 Y94.794 E14.38172
G1 X75.828 Y95.084 E14.39834
G1 X74.199 Y96.162 E14.46331
G1 X73.536 Y96.553 E14.48892
G1 X73.074 Y96.774 E14.50595
G1 X71.284 Y97.555 E14.5709
G1 X70.564 Y97.825 E14.59648
G1 X70.083 Y97.96 E14.6131
G1 X68.194 Y98.422 E14.67778
G1 X67.438 Y98.566 E14.70337
G1 X66.938 Y98.617 E14.72009
G1 X64.981 Y98.75 E14.78533
G1 X64.212 Y98.762 E14.81091
G1 X63.715 Y98.727 E14.82748
G1 X61.769 Y98.525 E14.89255
G1 X61.009 Y98.406 E14.91814
G1 X60.507 Y98.282 E14.93534
G1 X58.635 Y97.749 E15.00008
G1 X57.907 Y97.5 E15.02567
G1 X57.45 Y97.299 E15.04227
G1 X55.685 Y96.449 E15.10743
G1 X55.01 Y96.08 E15.13301
G1 X54.586 Y95.797 E15.14997
G1 X52.999 Y94.66 E15.2149
G1 X52.398 Y94.181 E15.24046
G1 X52.035 Y93.836 E15.25712
G1 X50.666 Y92.445 E15.32203
G1 X50.156 Y91.869 E15.34762
G1 X49.856 Y91.467 E15.3643
G1 X48.744 Y89.861 E15.42927
G1 X48.34 Y89.206 E15.45487
G1 X48.112 Y88.755 E15.47168
G1 X47.288 Y86.974 E15.53695
G1 X47.002 Y86.26 E15.56253
G1 X46.854 Y85.773 E15.57946
G1 X46.353 Y83.893 E15.64417
G1 X46.193 Y83.14 E15.66977
G1 X46.132 Y82.643 E15.68643
G1 X45.959 Y80.7 E15.75131
G1 X45.93 Y80.046 E15.77308
G1 X45.929 Y76.047 E15.90609
G1 X22.568 Y76.047 E16.68308
G1 X21.8 Y76.007 E16.70866
G1 X21.04 Y75.888 E16.73424
G1 X20.297 Y75.69 E16.75982
G1 X19.578 Y75.416 E16.78541
G1 X18.892 Y75.069 E16.81098
G1 X18.245 Y74.653 E16.83656
G1 X17.645 Y74.172 E16.86214
G1 X17.335 Y73.88 E16.8763
G1 X17.218 Y73.763 E16.88181
G1 X16.704 Y73.191 E16.90739
G1 X16.251 Y72.569 E16.93298
G1 X15.865 Y71.904 E16.95855
G1 X15.55 Y71.202 E16.98414
G1 X15.31 Y70.471 E17.00973
G1 X15.147 Y69.72 E17.03529
G1 X15.063 Y68.955 E17.06089
G1 X15.051 Y68.53 E17.07503
G1 X15.051 Y18.764 E18.73026
G1 X15.091 Y17.996 E18.75583
G1 X15.21 Y17.236 E18.78142
G1 X15.408 Y16.493 E18.80699
G1 X15.682 Y15.774 E18.83259
G1 X16.029 Y15.088 E18.85816
G1 X16.445 Y14.441 E18.88374
G1 X16.926 Y13.841 E18.90932
G0 F6000 X16.843 Y14.575
G1 F1200 X17.501 Y13.814 E18.94278
G1 X17.618 Y13.697 E18.94828
G1 X18.175 Y13.197 E18.97317
G1 X18.781 Y12.76 E18.99802
G1 X19.431 Y12.389 E19.02292
G1 X20.117 Y12.09 E19.04781
G1 X20.831 Y11.866 E19.0727
G1 X21.564 Y11.719 E19.09756
G1 X22.568 Y11.647 E19.13104
G1 X72.334 Y11.647 E20.78626
G1 X73.081 Y11.687 E20.81114
G1 X73.819 Y11.806 E20.83601
G1 X74.541 Y12.004 E20.86091
G1 X75.237 Y12.277 E20.88577
G1 X75.9 Y12.624 E20.91066
G1 X76.523 Y13.039 E20.93556
G1 X77.284 Y13.697 E20.96902
G1 X77.401 Y13.814 E20.97452
G1 X77.901 Y14.371 E20.99942
G1 X78.338 Y14.977 E21.02427
G1 X78.709 Y15.627 E21.04916
G1 X79.008 Y16.313 E21.07405
G1 X79.232 Y17.027 E21.09894
G1 X79.379 Y17.76 E21.12381
G1 X79.451 Y18.764 E21.15728
G1 X79.451 Y69.129 E22.83243
G1 X79.655 Y69.401 E22.84374
G1 X80.701 Y71.057 E22.90889
G1 X81.066 Y71.71 E22.93377
G1 X81.257 Y72.134 E22.94923
G1 X81.999 Y73.939 E23.01414
G1 X82.246 Y74.645 E23.03902
G1 X82.357 Y75.076 E23.05382
G1 X82.782 Y76.981 E23.11874
G1 X82.906 Y77.719 E23.14363
G1 X82.943 Y78.183 E23.15911
G1 X83.033 Y80.14 E23.22427
G1 X83.027 Y80.888 E23.24915
G1 X82.986 Y81.332 E23.26398
G1 X82.744 Y83.264 E23.32874
G1 X82.611 Y84 E23.35362
G1 X82.491 Y84.445 E23.36895
G1 X81.918 Y86.315 E23.434
G1 X81.661 Y87.017 E23.45886
G1 X81.465 Y87.436 E23.47425
G1 X80.58 Y89.177 E23.53921
G1 X80.206 Y89.825 E23.56409
G1 X79.944 Y90.2 E23.57931
G1 X78.774 Y91.763 E23.64424
G1 X78.294 Y92.337 E23.66913
G1 X77.973 Y92.66 E23.68428
G1 X76.547 Y94.005 E23.74947
G1 X75.976 Y94.489 E23.77437
G1 X75.607 Y94.751 E23.78942
G1 X73.978 Y95.829 E23.85439
G1 X73.333 Y96.207 E23.87926
G1 X72.914 Y96.407 E23.8947
G1 X71.124 Y97.188 E23.95966
G1 X70.424 Y97.45 E23.98452
G1 X69.988 Y97.572 E23.99957
G1 X68.099 Y98.034 E24.06425
G1 X67.364 Y98.172 E24.08913
G1 X66.911 Y98.218 E24.10427
G1 X64.954 Y98.351 E24.16951
G1 X64.206 Y98.362 E24.19439
G1 X63.756 Y98.33 E24.2094
G1 X61.81 Y98.128 E24.27447
G1 X61.071 Y98.011 E24.29936
G1 X60.616 Y97.897 E24.31496
G1 X58.744 Y97.364 E24.37969
G1 X58.037 Y97.121 E24.40456
G1 X57.624 Y96.939 E24.41957
G1 X55.859 Y96.089 E24.48473
G1 X55.203 Y95.729 E24.50962
G1 X54.819 Y95.472 E24.52498
G1 X53.232 Y94.335 E24.58992
G1 X52.648 Y93.868 E24.61479
G1 X52.32 Y93.555 E24.62987
G1 X50.951 Y92.164 E24.69478
G1 X50.455 Y91.604 E24.71966
G1 X50.185 Y91.239 E24.73476
G1 X49.073 Y89.633 E24.79973
G1 X48.681 Y88.996 E24.82461
G1 X48.475 Y88.587 E24.83984
G1 X47.651 Y86.806 E24.90511
G1 X47.374 Y86.112 E24.92996
G1 X47.24 Y85.67 E24.94532
G1 X46.739 Y83.79 E25.01003
G1 X46.585 Y83.057 E25.03495
G1 X46.531 Y82.608 E25.04999
G1 X46.358 Y80.665 E25.11487
G1 X46.33 Y80.046 E25.13548
G1 X46.329 Y75.647 E25.28179
G1 X22.568 Y75.647 E26.07208
G1 X21.821 Y75.607 E26.09696
G1 X21.083 Y75.488 E26.12183
G1 X20.361 Y75.29 E26.14673
G1 X19.665 Y75.017 E26.17159
G1 X19.002 Y74.67 E26.19648
G1 X18.379 Y74.255 E26.22138
G1 X17.618 Y73.597 E26.25484
G1 X17.501 Y73.48 E26.26034
G1 X17.001 Y72.923 E26.28524
G1 X16.564 Y72.317 E26.31009
G1 X16.193 Y71.667 E26.33498
G1 X15.894 Y70.981 E26.35987
G1 X15.67 Y70.267 E26.38476
G1 X15.523 Y69.534 E26.40962
G1 X15.451 Y68.53 E26.4431
G1 X15.451 Y18.764 E28.09833
G1 X15.491 Y18.017 E28.12321
G1 X15.61 Y17.279 E28.14807
G1 X15.808 Y16.557 E28.17297
G1 X16.081 Y15.861 E28.19784
G1 X16.428 Y15.198 E28.22273
G1 X16.843 Y14.575 E28.24762
G0 F6000 X17.24 Y14.714
G1 F1200 X17.784 Y14.097 E28.27498
G1 X17.901 Y13.98 E28.28049
G1 X18.442 Y13.496 E28.30463
G1 X19.033 Y13.073 E28.3288
G1 X19.667 Y12.719 E28.35295
G1 X20.336 Y12.436 E28.37711
G1 X21.032 Y12.228 E28.40128
G1 X21.747 Y12.098 E28.42545
G1 X22.568 Y12.047 E28.45281
G1 X72.334 Y12.047 E30.10803
G1 X73.059 Y12.087 E30.13218
G1 X73.776 Y12.206 E30.15635
G1 X74.475 Y12.404 E30.18052
G1 X75.148 Y12.677 E30.20467
G1 X75.787 Y13.022 E30.22883
G1 X76.384 Y13.436 E30.25299
G1 X77.001 Y13.98 E30.28035
G1 X77.118 Y14.097 E30.28585
G1 X77.602 Y14.638 E30.31
G1 X78.025 Y15.229 E30.33417
G1 X78.379 Y15.863 E30.35832
G1 X78.662 Y16.532 E30.38248
G1 X78.87 Y17.228 E30.40664
G1 X79 Y17.943 E30.43081
G1 X79.051 Y18.764 E30.45817
G1 X79.051 Y69.259 E32.13764
G1 X79.317 Y69.614 E32.15239
G1 X80.363 Y71.27 E32.21754
G1 X80.717 Y71.905 E32.24172
G1 X80.887 Y72.286 E32.2556
G1 X81.629 Y74.091 E32.32051
G1 X81.868 Y74.777 E32.34467
G1 X81.967 Y75.163 E32.35792
G1 X82.392 Y77.068 E32.42284
G1 X82.511 Y77.784 E32.44698
G1 X82.543 Y78.202 E32.46092
G1 X82.633 Y80.159 E32.52608
G1 X82.626 Y80.885 E32.55023
G1 X82.589 Y81.282 E32.56349
G1 X82.347 Y83.214 E32.62825
G1 X82.217 Y83.929 E32.65242
G1 X82.108 Y84.328 E32.66618
G1 X81.535 Y86.198 E32.73123
G1 X81.285 Y86.879 E32.75536
G1 X81.108 Y87.255 E32.76918
G1 X80.223 Y88.996 E32.83414
G1 X79.859 Y89.624 E32.85828
G1 X79.624 Y89.96 E32.87192
G1 X78.454 Y91.523 E32.93686
G1 X77.987 Y92.08 E32.96103
G1 X77.699 Y92.369 E32.9746
G1 X76.273 Y93.714 E33.0398
G1 X75.718 Y94.183 E33.06397
G1 X75.386 Y94.417 E33.07748
G1 X73.757 Y95.495 E33.14245
G1 X73.13 Y95.862 E33.16661
G1 X72.754 Y96.04 E33.18045
G1 X70.964 Y96.821 E33.2454
G1 X70.284 Y97.075 E33.26955
G1 X69.893 Y97.183 E33.28304
G1 X68.004 Y97.645 E33.34772
G1 X67.29 Y97.779 E33.37188
G1 X66.884 Y97.819 E33.38545
G1 X64.927 Y97.952 E33.45069
G1 X64.2 Y97.961 E33.47487
G1 X63.798 Y97.932 E33.48828
G1 X61.852 Y97.73 E33.55335
G1 X61.134 Y97.615 E33.57754
G1 X60.726 Y97.513 E33.59152
G1 X58.854 Y96.98 E33.65626
G1 X58.167 Y96.743 E33.68043
G1 X57.797 Y96.578 E33.69391
G1 X56.032 Y95.728 E33.75906
G1 X55.396 Y95.378 E33.78321
G1 X55.052 Y95.147 E33.79699
G1 X53.465 Y94.01 E33.86192
G1 X52.899 Y93.555 E33.88608
G1 X52.605 Y93.275 E33.89958
G1 X51.236 Y91.884 E33.96449
G1 X50.756 Y91.339 E33.98865
G1 X50.514 Y91.011 E34.00221
G1 X49.402 Y89.405 E34.06718
G1 X49.022 Y88.786 E34.09133
G1 X48.838 Y88.419 E34.10499
G1 X48.014 Y86.638 E34.17026
G1 X47.746 Y85.963 E34.19441
G1 X47.627 Y85.567 E34.20817
G1 X47.126 Y83.687 E34.27288
G1 X46.977 Y82.975 E34.29707
G1 X46.929 Y82.572 E34.31057
G1 X46.756 Y80.629 E34.37545
G1 X46.73 Y80.046 E34.39486
G1 X46.729 Y75.247 E34.55448
G1 X22.568 Y75.247 E35.35807
G1 X21.843 Y75.207 E35.38222
G1 X21.126 Y75.088 E35.4064
G1 X20.427 Y74.89 E35.43056
G1 X19.754 Y74.617 E35.45472
G1 X19.115 Y74.272 E35.47887
G1 X18.518 Y73.858 E35.50303
G1 X17.901 Y73.314 E35.53039
G1 X17.784 Y73.197 E35.5359
G1 X17.3 Y72.656 E35.56004
G1 X16.877 Y72.065 E35.58421
G1 X16.523 Y71.431 E35.60836
G1 X16.24 Y70.762 E35.63252
G1 X16.032 Y70.066 E35.65668
G1 X15.902 Y69.351 E35.68085
G1 X15.851 Y68.53 E35.70821
G1 X15.851 Y18.764 E37.36344
G1 X15.891 Y18.039 E37.38759
G1 X16.01 Y17.322 E37.41176
G1 X16.208 Y16.623 E37.43593
G1 X16.481 Y15.95 E37.46008
G1 X16.826 Y15.311 E37.48423
G1 X17.24 Y14.714 E37.5084
G0 F6000 X17.636 Y14.858
G1 F1200 X18.067 Y14.38 E37.5298
G1 X18.184 Y14.263 E37.53531
G1 X18.709 Y13.794 E37.55872
G1 X19.284 Y13.388 E37.58213
G1 X19.902 Y13.05 E37.60556
G1 X20.553 Y12.783 E37.62896
G1 X21.231 Y12.593 E37.65238
G1 X21.926 Y12.48 E37.6758
G1 X22.568 Y12.447 E37.69718
G1 X72.334 Y12.447 E39.35241
G1 X73.037 Y12.487 E39.37583
G1 X73.731 Y12.606 E39.39925
G1 X74.406 Y12.804 E39.42264
G1 X75.055 Y13.076 E39.44605
G1 X75.669 Y13.421 E39.46947
G1 X76.24 Y13.832 E39.49287
G1 X76.718 Y14.263 E39.51428
G1 X76.835 Y14.38 E39.51978
G1 X77.304 Y14.905 E39.5432
G1 X77.71 Y15.48 E39.56661
G1 X78.048 Y16.098 E39.59004
G1 X78.315 Y16.749 E39.61344
G1 X78.505 Y17.427 E39.63686
G1 X78.618 Y18.122 E39.66028
G1 X78.651 Y18.764 E39.68166
G1 X78.651 Y69.39 E41.36549
