;FLAVOR:Marlin
;TIME:2527
;Filament used: 1.71608m
;Layer height: 0.28
;MINX:15.909
;MINY:11.087
;MINZ:0.2
;MAXX:87.212
;MAXY:36.665
;MAXZ:54.8
;POSTPROCESSED
;Generated with Cura_SteamEngine 4.3.0
M140 S60
M105
M190 S60
M104 S200
M105
M109 S200
M82 ;absolute extrusion mode
M201 X500.00 Y500.00 Z100.00 E5000.00 ;Setup machine max acceleration
M203 X500.00 Y500.00 Z10.00 E50.00 ;Setup machine max feedrate
M204 P500.00 R1000.00 T500.00 ;Setup Print/Retract/Travel acceleration
M205 X8.00 Y8.00 Z0.40 E5.00 ;Setup Jerk
M220 S100 ;Reset Feedrate
M221 S100 ;Reset Flowrate

G28 ;Home

G92 E0 ;Reset Extruder
G1 Z2.0 F3000 ;Move Z Axis up
G1 X10.1 Y20 Z0.28 F5000.0 ;Move to start position
G1 X10.1 Y200.0 Z0.28 F1500.0 E15 ;Draw the first line
G1 X10.4 Y200.0 Z0.28 F5000.0 ;Move to side a little
G1 X10.4 Y20 Z0.28 F1500.0 E30 ;Draw the second line
G92 E0 ;Reset Extruder
G1 Z2.0 F3000 ;Move Z Axis up

G92 E0
G92 E0
G1 F2700 E-5
;LAYER_COUNT:196
;LAYER:[layer_num]
;LAYER:0
M107
M204 S500
M205 X8 Y8
G0 F6000 X17.789 Y13.961 Z0.2
;TYPE:SKIRT
G1 F2700 E0
G1 F1200 X18.194 Y13.524 E0.01982
G1 X18.311 Y13.407 E0.02532
G1 X18.897 Y12.877 E0.0516
G1 X19.533 Y12.41 E0.07784
G1 X20.213 Y12.009 E0.1041
G1 X20.931 Y11.679 E0.13038
G1 X21.678 Y11.424 E0.15664
G1 X22.447 Y11.245 E0.1829
G1 X23.231 Y11.145 E0.20918
G1 X23.826 Y11.122 E0.22899
G1 X73.501 Y11.122 E1.88119
G1 X74.126 Y11.089 E1.902
G1 X74.916 Y11.087 E1.92828
G1 X75.367 Y11.122 E1.94332
G1 X76.217 Y11.213 E1.97176
G1 X76.997 Y11.337 E1.99802
G1 X77.554 Y11.476 E2.01712
G1 X78.37 Y11.712 E2.04537
G1 X79.117 Y11.97 E2.07166
G1 X79.622 Y12.194 E2.09003
G1 X80.397 Y12.572 E2.11871
G1 X81.089 Y12.954 E2.145
G1 X81.532 Y13.251 E2.16274
G1 X82.223 Y13.748 E2.19105
G1 X82.84 Y14.241 E2.21732
G1 X83.239 Y14.62 E2.23562
G1 X83.838 Y15.231 E2.26408
G1 X84.361 Y15.822 E2.29033
G1 X84.682 Y16.253 E2.3082
G1 X85.165 Y16.951 E2.33643
G1 X85.581 Y17.622 E2.36269
G1 X85.826 Y18.105 E2.38071
G1 X86.189 Y18.887 E2.40938
G1 X86.485 Y19.619 E2.43564
G1 X86.65 Y20.158 E2.45439
G1 X86.869 Y20.978 E2.48262
G1 X87.034 Y21.751 E2.50891
G1 X87.1 Y22.273 E2.52641
G1 X87.179 Y23.127 E2.55493
G1 X87.212 Y23.916 E2.5812
G1 X87.188 Y24.458 E2.59924
G1 X87.121 Y25.308 E2.6276
G1 X87.019 Y26.091 E2.65387
G1 X86.897 Y26.647 E2.6728
G1 X86.682 Y27.479 E2.70138
G1 X86.446 Y28.232 E2.72763
G1 X86.249 Y28.714 E2.74494
G1 X85.903 Y29.487 E2.77311
G1 X85.545 Y30.19 E2.79935
G1 X85.25 Y30.662 E2.81786
G1 X84.767 Y31.378 E2.84659
G1 X84.293 Y32.009 E2.87284
G1 X83.921 Y32.425 E2.8914
G1 X83.329 Y33.04 E2.91979
G1 X82.753 Y33.581 E2.94608
G1 X82.321 Y33.921 E2.96436
G1 X81.635 Y34.424 E2.99265
G1 X80.976 Y34.858 E3.0189
G1 X80.504 Y35.114 E3.03676
G1 X79.736 Y35.497 E3.0653
G1 X79.012 Y35.813 E3.09158
G1 X78.506 Y35.985 E3.10935
G1 X77.69 Y36.231 E3.1377
G1 X76.924 Y36.42 E3.16394
G1 X76.376 Y36.506 E3.18239
G1 X75.525 Y36.609 E3.2109
G1 X74.737 Y36.665 E3.23717
G1 X74.21 Y36.657 E3.2547
G1 X73.529 Y36.624 E3.27738
G1 X23.825 Y36.622 E4.93054
G1 X23.036 Y36.582 E4.95682
G1 X22.255 Y36.462 E4.9831
G1 X21.491 Y36.265 E5.00934
G1 X20.75 Y35.99 E5.03563
G1 X20.041 Y35.643 E5.06188
G1 X19.371 Y35.225 E5.08815
G1 X18.746 Y34.742 E5.11442
G1 X18.286 Y34.314 E5.13532
G1 X18.17 Y34.197 E5.1408
G1 X17.643 Y33.609 E5.16706
G1 X17.178 Y32.97 E5.19335
G1 X16.781 Y32.288 E5.21959
G1 X16.454 Y31.569 E5.24586
G1 X16.201 Y30.821 E5.27213
G1 X16.026 Y30.051 E5.29839
G1 X15.929 Y29.267 E5.32467
G1 X15.909 Y28.705 E5.34337
G1 X15.909 Y19.039 E5.66486
G1 X15.949 Y18.25 E5.69114
G1 X16.068 Y17.47 E5.71738
G1 X16.266 Y16.705 E5.74366
G1 X16.54 Y15.965 E5.76991
G1 X16.888 Y15.256 E5.79618
G1 X17.306 Y14.585 E5.82247
G1 X17.789 Y13.961 E5.84872
G0 F6000 X18.184 Y14.116
G1 F1200 X18.476 Y13.806 E5.86288
G1 X18.593 Y13.689 E5.86838
G1 X19.165 Y13.175 E5.89396
G1 X19.787 Y12.722 E5.91955
G1 X20.452 Y12.336 E5.94513
G1 X21.154 Y12.021 E5.97072
G1 X21.885 Y11.781 E5.99631
G1 X22.636 Y11.618 E6.02187
G1 X23.401 Y11.534 E6.04747
G1 X23.826 Y11.522 E6.06161
G1 X73.503 Y11.522 E7.71387
G1 X74.147 Y11.488 E7.73532
G1 X74.916 Y11.488 E7.7609
G1 X75.325 Y11.52 E7.77454
G1 X76.175 Y11.611 E7.80298
G1 X76.934 Y11.733 E7.82854
G1 X77.443 Y11.86 E7.84599
G1 X78.259 Y12.096 E7.87425
G1 X78.986 Y12.348 E7.89984
G1 X79.447 Y12.554 E7.91663
G1 X80.222 Y12.932 E7.94531
G1 X80.895 Y13.305 E7.9709
G1 X81.299 Y13.576 E7.98708
G1 X81.99 Y14.073 E8.01539
G1 X82.59 Y14.553 E8.04095
G1 X82.953 Y14.9 E8.05765
G1 X83.552 Y15.511 E8.08611
G1 X84.061 Y16.087 E8.11168
G1 X84.353 Y16.48 E8.12796
G1 X84.836 Y17.178 E8.15619
G1 X85.24 Y17.833 E8.18179
G1 X85.463 Y18.273 E8.1982
G1 X85.826 Y19.055 E8.22687
G1 X86.113 Y19.769 E8.25246
G1 X86.263 Y20.262 E8.2696
G1 X86.482 Y21.082 E8.29783
G1 X86.642 Y21.834 E8.3234
G1 X86.702 Y22.309 E8.33933
G1 X86.781 Y23.163 E8.36785
G1 X86.811 Y23.932 E8.39345
G1 X86.789 Y24.426 E8.4099
G1 X86.722 Y25.276 E8.43826
G1 X86.622 Y26.039 E8.46385
G1 X86.51 Y26.546 E8.48112
G1 X86.295 Y27.378 E8.5097
G1 X86.064 Y28.112 E8.5353
G1 X85.884 Y28.55 E8.55105
G1 X85.538 Y29.323 E8.57921
G1 X85.188 Y30.008 E8.6048
G1 X84.919 Y30.438 E8.62167
G1 X84.436 Y31.154 E8.65039
G1 X83.973 Y31.769 E8.676
G1 X83.632 Y32.148 E8.69296
G1 X83.04 Y32.763 E8.72135
G1 X82.479 Y33.289 E8.74692
G1 X82.085 Y33.599 E8.7636
G1 X81.399 Y34.102 E8.79189
G1 X80.756 Y34.524 E8.81747
G1 X80.325 Y34.756 E8.83375
G1 X79.557 Y35.139 E8.8623
G1 X78.852 Y35.446 E8.88787
G1 X78.391 Y35.602 E8.90406
G1 X77.575 Y35.848 E8.93241
G1 X76.828 Y36.031 E8.95799
G1 X76.328 Y36.109 E8.97482
G1 X75.477 Y36.212 E9.00333
G1 X74.71 Y36.265 E9.0289
G1 X74.23 Y36.257 E9.04487
G1 X73.549 Y36.224 E9.06754
G1 X23.825 Y36.222 E10.72137
G1 X23.057 Y36.182 E10.74695
G1 X22.297 Y36.062 E10.77254
G1 X21.553 Y35.865 E10.79814
G1 X20.835 Y35.591 E10.8237
G1 X20.148 Y35.244 E10.8493
G1 X19.502 Y34.828 E10.87485
G1 X18.901 Y34.346 E10.90048
G1 X18.57 Y34.032 E10.91565
G1 X18.454 Y33.915 E10.92113
G1 X17.942 Y33.341 E10.94671
G1 X17.491 Y32.718 E10.97229
G1 X17.109 Y32.051 E10.99786
G1 X16.797 Y31.348 E11.02344
G1 X16.56 Y30.616 E11.04903
G1 X16.4 Y29.863 E11.07464
G1 X16.319 Y29.098 E11.10022
G1 X16.309 Y28.705 E11.1133
G1 X16.309 Y19.039 E11.43479
G1 X16.349 Y18.271 E11.46037
G1 X16.468 Y17.511 E11.48595
G1 X16.666 Y16.768 E11.51153
G1 X16.94 Y16.049 E11.53712
G1 X17.287 Y15.363 E11.56269
G1 X17.703 Y14.716 E11.58827
G1 X18.184 Y14.116 E11.61385
G0 F6000 X18.101 Y14.85
G1 F1200 X18.759 Y14.089 E11.64731
G1 X18.876 Y13.972 E11.65281
G1 X19.433 Y13.472 E11.67771
G1 X20.039 Y13.035 E11.70256
G1 X20.689 Y12.664 E11.72745
G1 X21.375 Y12.365 E11.75234
G1 X22.089 Y12.141 E11.77723
G1 X22.822 Y11.994 E11.8021
G1 X23.826 Y11.922 E11.83557
G1 X73.524 Y11.922 E13.48854
G1 X74.168 Y11.888 E13.50999
G1 X75.282 Y11.918 E13.54705
G1 X76.132 Y12.009 E13.57548
G1 X76.871 Y12.128 E13.60038
G1 X77.332 Y12.245 E13.6162
G1 X78.148 Y12.481 E13.64445
G1 X78.854 Y12.727 E13.66932
G1 X79.272 Y12.913 E13.68453
G1 X80.047 Y13.291 E13.71321
G1 X80.701 Y13.655 E13.73811
G1 X81.065 Y13.9 E13.7527
G1 X81.756 Y14.397 E13.78101
G1 X82.339 Y14.866 E13.8059
G1 X82.668 Y15.18 E13.82102
G1 X83.267 Y15.791 E13.84948
G1 X83.761 Y16.352 E13.87434
G1 X84.024 Y16.708 E13.88907
G1 X84.507 Y17.406 E13.9173
G1 X84.899 Y18.043 E13.94218
G1 X85.1 Y18.442 E13.95703
G1 X85.463 Y19.224 E13.98571
G1 X85.742 Y19.918 E14.01059
G1 X85.877 Y20.365 E14.02612
G1 X86.096 Y21.185 E14.05435
G1 X86.25 Y21.917 E14.07923
G1 X86.303 Y22.346 E14.0936
G1 X86.382 Y23.2 E14.12213
G1 X86.411 Y23.948 E14.14703
G1 X86.39 Y24.395 E14.16191
G1 X86.323 Y25.245 E14.19027
G1 X86.225 Y25.987 E14.21516
G1 X86.122 Y26.446 E14.23081
G1 X85.907 Y27.278 E14.25939
G1 X85.682 Y27.992 E14.28429
G1 X85.519 Y28.387 E14.2985
G1 X85.173 Y29.16 E14.32667
G1 X84.831 Y29.825 E14.35154
G1 X84.587 Y30.215 E14.36684
G1 X84.104 Y30.931 E14.39557
G1 X83.653 Y31.528 E14.42045
G1 X83.344 Y31.871 E14.43581
G1 X82.752 Y32.486 E14.4642
G1 X82.205 Y32.996 E14.48907
G1 X81.848 Y33.276 E14.50416
G1 X81.162 Y33.779 E14.53246
G1 X80.536 Y34.189 E14.55735
G1 X80.147 Y34.398 E14.57203
G1 X79.379 Y34.781 E14.60058
G1 X78.693 Y35.079 E14.62545
G1 X78.275 Y35.219 E14.64012
G1 X77.459 Y35.465 E14.66846
G1 X76.733 Y35.642 E14.69332
G1 X76.28 Y35.712 E14.70856
G1 X75.429 Y35.815 E14.73707
G1 X74.683 Y35.865 E14.76194
G1 X74.249 Y35.858 E14.77638
G1 X73.548 Y35.824 E14.79972
G1 X23.825 Y35.822 E16.45351
G1 X23.078 Y35.782 E16.4784
G1 X22.339 Y35.663 E16.50329
G1 X21.618 Y35.465 E16.52816
G1 X20.921 Y35.191 E16.55307
G1 X20.258 Y34.845 E16.57794
G1 X19.636 Y34.43 E16.60281
G1 X18.854 Y33.75 E16.63728
G1 X18.738 Y33.633 E16.64276
G1 X18.241 Y33.075 E16.66761
G1 X17.805 Y32.466 E16.69252
G1 X17.438 Y31.815 E16.71738
G1 X17.142 Y31.128 E16.74226
G1 X16.921 Y30.413 E16.76715
G1 X16.777 Y29.679 E16.79203
G1 X16.709 Y28.705 E16.8245
G1 X16.709 Y19.039 E17.146
G1 X16.749 Y18.292 E17.17088
G1 X16.868 Y17.554 E17.19574
G1 X17.066 Y16.832 E17.22064
G1 X17.339 Y16.136 E17.24551
G1 X17.686 Y15.473 E17.2704
G1 X18.101 Y14.85 E17.29529
G0 F6000 X18.498 Y14.989
G1 F1200 X19.042 Y14.372 E17.32265
G1 X19.159 Y14.255 E17.32816
G1 X19.7 Y13.771 E17.3523
G1 X20.291 Y13.348 E17.37647
G1 X20.925 Y12.994 E17.40062
G1 X21.594 Y12.711 E17.42478
G1 X22.29 Y12.503 E17.44894
G1 X23.005 Y12.373 E17.47312
G1 X23.826 Y12.322 E17.50048
G1 X73.526 Y12.322 E19.1535
G1 X74.189 Y12.287 E19.17559
G1 X75.24 Y12.316 E19.21056
G1 X76.09 Y12.407 E19.23899
G1 X76.806 Y12.523 E19.26311
G1 X77.221 Y12.629 E19.27736
G1 X78.037 Y12.865 E19.30561
G1 X78.722 Y13.105 E19.32975
G1 X79.096 Y13.273 E19.34339
G1 X79.871 Y13.651 E19.37207
G1 X80.506 Y14.005 E19.39625
G1 X80.832 Y14.225 E19.40933
G1 X81.523 Y14.722 E19.43764
G1 X82.088 Y15.178 E19.46179
G1 X82.382 Y15.46 E19.47534
G1 X82.981 Y16.071 E19.5038
G1 X83.46 Y16.616 E19.52793
G1 X83.695 Y16.935 E19.54111
G1 X84.178 Y17.633 E19.56934
G1 X84.558 Y18.253 E19.59353
G1 X84.737 Y18.61 E19.60681
G1 X85.1 Y19.392 E19.63548
G1 X85.37 Y20.067 E19.65966
G1 X85.491 Y20.468 E19.6736
G1 X85.71 Y21.288 E19.70182
G1 X85.858 Y21.999 E19.72598
G1 X85.905 Y22.383 E19.73885
G1 X85.984 Y23.237 E19.76737
G1 X86.011 Y23.963 E19.79154
G1 X85.992 Y24.364 E19.80489
G1 X85.925 Y25.214 E19.83325
G1 X85.828 Y25.934 E19.85741
G1 X85.735 Y26.346 E19.87146
G1 X85.52 Y27.178 E19.90004
G1 X85.3 Y27.87 E19.92419
G1 X85.154 Y28.223 E19.9369
G1 X84.808 Y28.996 E19.96506
G1 X84.475 Y29.642 E19.98924
G1 X84.255 Y29.991 E20.00296
G1 X83.772 Y30.707 E20.03168
G1 X83.334 Y31.286 E20.05583
G1 X83.056 Y31.593 E20.06961
G1 X82.464 Y32.208 E20.098
G1 X81.932 Y32.703 E20.12217
G1 X81.612 Y32.954 E20.1357
G1 X80.926 Y33.457 E20.16399
G1 X80.317 Y33.853 E20.18815
G1 X79.968 Y34.04 E20.20132
G1 X79.2 Y34.423 E20.22986
G1 X78.534 Y34.711 E20.254
G1 X78.16 Y34.836 E20.26711
G1 X77.344 Y35.082 E20.29546
G1 X76.638 Y35.253 E20.31962
G1 X76.232 Y35.315 E20.33328
G1 X75.381 Y35.418 E20.36179
G1 X74.656 Y35.466 E20.38596
G1 X74.268 Y35.458 E20.39886
G1 X73.567 Y35.424 E20.42221
G1 X23.825 Y35.422 E22.07663
G1 X23.099 Y35.382 E22.10082
G1 X22.383 Y35.263 E22.12496
G1 X21.684 Y35.065 E22.14912
G1 X21.011 Y34.792 E22.17328
G1 X20.372 Y34.447 E22.19743
G1 X19.775 Y34.033 E22.22159
G1 X19.138 Y33.469 E22.24989
G1 X19.022 Y33.352 E22.25537
G1 X18.54 Y32.809 E22.27952
G1 X18.12 Y32.216 E22.30369
G1 X17.768 Y31.58 E22.32787
G1 X17.488 Y30.91 E22.35202
G1 X17.284 Y30.213 E22.37617
G1 X17.157 Y29.498 E22.40033
G1 X17.109 Y28.705 E22.42675
G1 X17.109 Y19.039 E22.74824
G1 X17.149 Y18.314 E22.77239
G1 X17.268 Y17.597 E22.79657
G1 X17.466 Y16.898 E22.82073
G1 X17.739 Y16.225 E22.84488
G1 X18.084 Y15.586 E22.86904
G1 X18.498 Y14.989 E22.8932
G0 F6000 X18.894 Y15.133
G1 F1200 X19.325 Y14.655 E22.91461
G1 X19.442 Y14.538 E22.92011
G1 X19.967 Y14.069 E22.94353
G1 X20.542 Y13.663 E22.96694
G1 X21.16 Y13.325 E22.99037
G1 X21.811 Y13.058 E23.01377
G1 X22.489 Y12.868 E23.03719
G1 X23.184 Y12.755 E23.06061
G1 X23.826 Y12.722 E23.08199
G1 X73.547 Y12.722 E24.73571
G1 X74.21 Y12.687 E24.7578
G1 X75.197 Y12.713 E24.79064
G1 X76.047 Y12.804 E24.81907
G1 X76.742 Y12.919 E24.8425
G1 X77.11 Y13.013 E24.85513
G1 X77.926 Y13.249 E24.88338
G1 X78.59 Y13.483 E24.9068
G1 X78.921 Y13.632 E24.91887
G1 X79.696 Y14.01 E24.94755
G1 X80.598 Y14.55 E24.98252
G1 X81.289 Y15.047 E25.01083
G1 X81.836 Y15.49 E25.03424
G1 X82.096 Y15.74 E25.04624
G1 X82.695 Y16.351 E25.0747
G1 X83.366 Y17.163 E25.10973
G1 X83.849 Y17.861 E25.13796
G1 X84.216 Y18.462 E25.16138
G1 X84.375 Y18.779 E25.17318
G1 X84.738 Y19.561 E25.20185
G1 X84.997 Y20.215 E25.22525
G1 X85.104 Y20.571 E25.23761
G1 X85.323 Y21.391 E25.26584
G1 X85.507 Y22.42 E25.30061
G1 X85.586 Y23.274 E25.32914
G1 X85.611 Y23.977 E25.35253
G1 X85.593 Y24.332 E25.36436
G1 X85.526 Y25.182 E25.39271
G1 X85.431 Y25.88 E25.41614
G1 X85.348 Y26.246 E25.42863
G1 X85.133 Y27.078 E25.45721
G1 X84.789 Y28.06 E25.49182
G1 X84.443 Y28.833 E25.51998
G1 X84.119 Y29.458 E25.5434
G1 X83.924 Y29.767 E25.55555
G1 X83.441 Y30.483 E25.58428
G1 X83.015 Y31.044 E25.60771
G1 X82.768 Y31.316 E25.61993
G1 X82.176 Y31.931 E25.64832
G1 X81.66 Y32.409 E25.67171
G1 X81.375 Y32.631 E25.68373
G1 X80.689 Y33.134 E25.71202
G1 X79.79 Y33.682 E25.74704
G1 X79.022 Y34.065 E25.77558
G1 X78.045 Y34.453 E25.81055
G1 X77.229 Y34.699 E25.83889
G1 X76.544 Y34.864 E25.86233
G1 X76.184 Y34.918 E25.87444
G1 X75.333 Y35.021 E25.90295
G1 X74.288 Y35.059 E25.93773
G1 X73.566 Y35.024 E25.96177
G1 X23.825 Y35.022 E27.61616
G1 X23.122 Y34.982 E27.63958
G1 X22.428 Y34.863 E27.663
G1 X21.752 Y34.665 E27.68643
G1 X21.103 Y34.393 E27.70983
G1 X20.489 Y34.048 E27.73326
G1 X19.918 Y33.636 E27.75668
G1 X19.422 Y33.187 E27.77893
G1 X19.306 Y33.07 E27.78441
G1 X18.84 Y32.543 E27.80781
G1 X18.436 Y31.966 E27.83124
G1 X18.1 Y31.347 E27.85466
G1 X17.837 Y30.695 E27.87804
G1 X17.649 Y30.016 E27.90148
G1 X17.54 Y29.321 E27.92488
G1 X17.509 Y28.705 E27.94539
G1 X17.509 Y19.039 E28.26688
G1 X17.549 Y18.336 E28.2903
G1 X17.668 Y17.642 E28.31372
G1 X17.866 Y16.967 E28.33712
G1 X18.138 Y16.318 E28.36052
G1 X18.483 Y15.704 E28.38395
G1 X18.894 Y15.133 E28.40735
G0 F6000 X19.291 Y15.281
G1 F1200 X19.608 Y14.938 E28.42288
G1 X19.725 Y14.821 E28.42838
G1 X20.234 Y14.368 E28.45105
G1 X20.792 Y13.979 E28.47367
G1 X21.392 Y13.657 E28.49632
G1 X22.026 Y13.408 E28.51898
G1 X22.685 Y13.235 E28.54164
G1 X23.359 Y13.141 E28.56427
G1 X23.826 Y13.122 E28.57982
G1 X73.549 Y13.122 E30.23361
G1 X74.231 Y13.086 E30.25632
G1 X75.154 Y13.111 E30.28703
G1 X76.004 Y13.202 E30.31547
G1 X76.998 Y13.397 E30.34916
G1 X77.814 Y13.633 E30.37741
G1 X78.746 Y13.992 E30.41063
G1 X79.521 Y14.37 E30.43931
G1 X80.365 Y14.874 E30.472
G1 X81.056 Y15.371 E30.50031
G1 X81.811 Y16.02 E30.53343
G1 X82.41 Y16.631 E30.56189
G1 X83.037 Y17.391 E30.59466
G1 X83.52 Y18.089 E30.62289
G1 X84.012 Y18.947 E30.65578
G1 X84.375 Y19.729 E30.68446
G1 X84.718 Y20.674 E30.7179
G1 X84.937 Y21.494 E30.74613
G1 X85.108 Y22.457 E30.77866
G1 X85.187 Y23.311 E30.80718
G1 X85.194 Y24.301 E30.84011
G1 X85.127 Y25.151 E30.86847
G1 X84.961 Y26.146 E30.90202
G1 X84.746 Y26.978 E30.9306
G1 X84.424 Y27.897 E30.96299
G1 X84.078 Y28.67 E30.99116
G1 X83.592 Y29.544 E31.02442
G1 X83.109 Y30.26 E31.05315
G1 X82.48 Y31.038 E31.08642
G1 X81.888 Y31.653 E31.11481
G1 X81.139 Y32.308 E31.14791
G1 X80.453 Y32.811 E31.1762
G1 X79.611 Y33.324 E31.20899
G1 X78.843 Y33.707 E31.23754
G1 X77.929 Y34.07 E31.27025
G1 X77.113 Y34.316 E31.29859
G1 X76.136 Y34.521 E31.3318
G1 X75.285 Y34.624 E31.36031
G1 X74.307 Y34.659 E31.39286
G1 X73.585 Y34.624 E31.4169
