;FLAVOR:Marlin
;TIME:6950
;Filament used: 4.43521m
;Layer height: 0.24
;MINX:25.499
;MINY:3.117
;MINZ:0.2
;MAXX:128.188
;MAXY:73.53
;MAXZ:29.96
;POSTPROCESSED
;Generated with Cura_SteamEngine 4.4.0
M140 S60
M105
M190 S60
M104 S200
M105
M109 S200
M82 ;absolute extrusion mode
M201 X500.00 Y500.00 Z100.00 E5000.00 ;Setup machine max acceleration
M203 X500.00 Y500.00 Z10.00 E50.00 ;Setup machine max feedrate
M204 P500.00 R1000.00 T500.00 ;Setup Print/Retract/Travel acceleration
M205 X8.00 Y8.00 Z0.40 E5.00 ;Setup Jerk
M220 S100 ;Reset Feedrate
M221 S100 ;Reset Flowrate

G28 ;Home

G92 E0 ;Reset Extruder
G1 Z2.0 F3000 ;Move Z Axis up
G1 X10.1 Y20 Z0.28 F5000.0 ;Move to start position
G1 X10.1 Y200.0 Z0.28 F1500.0 E15 ;Draw the first line
G1 X10.4 Y200.0 Z0.28 F5000.0 ;Move to side a little
G1 X10.4 Y20 Z0.28 F1500.0 E30 ;Draw the second line
G92 E0 ;Reset Extruder
G1 Z2.0 F3000 ;Move Z Axis up

G92 E0
G92 E0
G1 F2700 E-5
;LAYER_COUNT:125
;LAYER:[layer_num]
;LAYER:0
M107
M204 S500
M205 X8 Y8
G0 F6000 X26.13 Y10.507 Z0.2
;TYPE:SKIRT
G1 F2700 E0
G1 F1200 X26.478 Y9.798 E0.02627
G1 X26.896 Y9.127 E0.05256
G1 X27.379 Y8.503 E0.07881
G1 X27.784 Y8.066 E0.09862
G1 X27.901 Y7.949 E0.10413
G1 X28.487 Y7.419 E0.13041
G1 X29.123 Y6.952 E0.15665
G1 X29.803 Y6.551 E0.18291
G1 X30.521 Y6.221 E0.20919
G1 X31.268 Y5.966 E0.23544
G1 X32.037 Y5.787 E0.2617
G1 X32.821 Y5.687 E0.28799
G1 X33.416 Y5.664 E0.3078
G1 X38.182 Y5.664 E0.46631
G1 X38.971 Y5.704 E0.49259
G1 X39.751 Y5.823 E0.51883
G1 X40.516 Y6.021 E0.54512
G1 X41.256 Y6.295 E0.57136
G1 X41.965 Y6.643 E0.59763
G1 X42.636 Y7.061 E0.62392
G1 X43.26 Y7.544 E0.65017
G1 X43.697 Y7.949 E0.66999
G1 X43.814 Y8.066 E0.67549
G1 X44.344 Y8.652 E0.70177
G1 X44.811 Y9.288 E0.72801
G1 X45.033 Y9.665 E0.74256
G1 X45.09 Y9.6 E0.74544
G1 X45.812 Y8.873 E0.77952
G1 X46.543 Y8.228 E0.81194
G1 X47.348 Y7.607 E0.84576
G1 X48.162 Y7.059 E0.87839
G1 X49.049 Y6.543 E0.91253
G1 X49.927 Y6.107 E0.94513
G1 X50.851 Y5.72 E0.97845
G1 X51.778 Y5.4 E1.01107
G1 X52.776 Y5.128 E1.04547
G1 X53.735 Y4.934 E1.07801
G1 X54.741 Y4.798 E1.11178
G1 X55.733 Y4.729 E1.14485
G1 X56.273 Y4.71 E1.16282
G1 X71.28 Y4.708 E1.66196
G1 X71.789 Y4.725 E1.6789
G1 X72.755 Y4.788 E1.71109
G1 X73.738 Y4.915 E1.74406
G1 X74.698 Y5.102 E1.77659
G1 X75.688 Y5.363 E1.81064
G1 X76.609 Y5.672 E1.84295
G1 X77.553 Y6.059 E1.87689
G1 X78.439 Y6.492 E1.90969
G1 X79.319 Y6.995 E1.9434
G1 X80.144 Y7.541 E1.9763
G1 X80.965 Y8.166 E2.01062
G1 X81.612 Y8.73 E2.03917
G1 X81.645 Y8.708 E2.04049
G1 X82.055 Y8.472 E2.05622
G1 X82.318 Y8.331 E2.06615
G1 X83.032 Y7.993 E2.09242
G1 X83.777 Y7.73 E2.1187
G1 X83.983 Y7.68 E2.12575
G1 X84.434 Y7.089 E2.15048
G1 X84.973 Y6.513 E2.17672
G1 X85.568 Y5.994 E2.20298
G1 X86.213 Y5.538 E2.22925
G1 X86.901 Y5.149 E2.25554
G1 X87.624 Y4.832 E2.28179
G1 X88.375 Y4.59 E2.30804
G1 X89.148 Y4.425 E2.33433
G1 X89.606 Y4.364 E2.34969
G1 X89.903 Y4.334 E2.35962
G1 X90.692 Y4.295 E2.3859
G1 X91.48 Y4.335 E2.41214
G1 X91.688 Y4.367 E2.41914
G1 X92.351 Y3.981 E2.44465
G1 X93.07 Y3.655 E2.47091
G1 X93.819 Y3.403 E2.4972
G1 X94.589 Y3.229 E2.52345
G1 X95.373 Y3.133 E2.54972
G1 X96.162 Y3.117 E2.57597
G1 X96.95 Y3.18 E2.60226
G1 X97.726 Y3.323 E2.62851
G1 X98.163 Y3.441 E2.64356
G1 X98.447 Y3.526 E2.65342
G1 X99.192 Y3.79 E2.67971
G1 X99.905 Y4.128 E2.70596
G1 X100.166 Y4.286 E2.7161
G1 X100.934 Y4.18 E2.74189
G1 X101.723 Y4.152 E2.76815
G1 X102.511 Y4.203 E2.79441
G1 X103.29 Y4.334 E2.82068
G1 X104.052 Y4.543 E2.84696
G1 X104.788 Y4.828 E2.87322
G1 X105.492 Y5.186 E2.89948
G1 X106.156 Y5.614 E2.92576
G1 X106.548 Y5.914 E2.94218
G1 X106.779 Y6.103 E2.9521
G1 X107.364 Y6.633 E2.97836
G1 X107.893 Y7.22 E3.00464
G1 X108.025 Y7.4 E3.01207
G1 X108.722 Y7.585 E3.03605
G1 X109.461 Y7.863 E3.06231
G1 X110.168 Y8.214 E3.08856
G1 X110.837 Y8.635 E3.11486
G1 X111.459 Y9.122 E3.14113
G1 X112.028 Y9.668 E3.16736
G1 X112.54 Y10.27 E3.19364
G1 X112.988 Y10.92 E3.2199
G1 X113.223 Y11.329 E3.23559
G1 X113.364 Y11.592 E3.24551
G1 X113.702 Y12.306 E3.27179
G1 X113.965 Y13.051 E3.29807
G1 X114.015 Y13.256 E3.30508
G1 X114.606 Y13.706 E3.32979
G1 X115.182 Y14.246 E3.35605
G1 X115.701 Y14.841 E3.38231
G1 X116.157 Y15.486 E3.40858
G1 X116.546 Y16.173 E3.43484
G1 X116.863 Y16.897 E3.46113
G1 X117.105 Y17.648 E3.48737
G1 X117.27 Y18.42 E3.51363
G1 X117.331 Y18.879 E3.52903
G1 X117.361 Y19.176 E3.53896
G1 X117.4 Y19.965 E3.56523
G1 X117.36 Y20.753 E3.59148
G1 X117.328 Y20.96 E3.59844
G1 X117.716 Y21.626 E3.62408
G1 X118.042 Y22.345 E3.65034
G1 X118.294 Y23.094 E3.67662
G1 X118.468 Y23.864 E3.70288
G1 X118.564 Y24.648 E3.72915
G1 X118.58 Y25.437 E3.75539
G1 X118.517 Y26.225 E3.78169
G1 X118.374 Y27.001 E3.80793
G1 X118.254 Y27.446 E3.82326
G1 X118.169 Y27.729 E3.83309
G1 X117.904 Y28.473 E3.85936
G1 X117.565 Y29.186 E3.88562
G1 X117.449 Y29.377 E3.89305
G1 X117.553 Y30.141 E3.91869
G1 X117.579 Y30.931 E3.94498
G1 X117.525 Y31.719 E3.97125
G1 X117.392 Y32.497 E3.99751
G1 X117.18 Y33.258 E4.02378
G1 X116.893 Y33.993 E4.05002
G1 X116.533 Y34.696 E4.07629
G1 X116.104 Y35.359 E4.10256
G1 X115.817 Y35.732 E4.11821
G1 X115.628 Y35.963 E4.12814
G1 X115.098 Y36.548 E4.15439
G1 X114.511 Y37.077 E4.18068
G1 X114.313 Y37.222 E4.18884
G1 X114.114 Y37.973 E4.21468
G1 X113.836 Y38.712 E4.24094
G1 X113.485 Y39.42 E4.26722
G1 X113.064 Y40.088 E4.29348
G1 X112.578 Y40.71 E4.31974
G1 X112.031 Y41.28 E4.34601
G1 X111.632 Y41.62 E4.36345
G1 X114.463 Y41.62 E4.45761
G1 X115.093 Y41.586 E4.47859
G1 X115.882 Y41.584 E4.50484
G1 X116.351 Y41.62 E4.52048
G1 X117.202 Y41.712 E4.54895
G1 X117.982 Y41.837 E4.57522
G1 X118.525 Y41.972 E4.59383
G1 X119.34 Y42.207 E4.62205
G1 X120.087 Y42.464 E4.64832
G1 X120.598 Y42.691 E4.66692
G1 X121.373 Y43.069 E4.6956
G1 X122.065 Y43.451 E4.72189
G1 X122.508 Y43.748 E4.73963
G1 X123.199 Y44.245 E4.76794
G1 X123.816 Y44.738 E4.7942
G1 X124.219 Y45.121 E4.8127
G1 X124.818 Y45.733 E4.84118
G1 X125.341 Y46.325 E4.86745
G1 X125.658 Y46.751 E4.88511
G1 X126.141 Y47.449 E4.91334
G1 X126.557 Y48.12 E4.9396
G1 X126.802 Y48.603 E4.95762
G1 X127.165 Y49.385 E4.98629
G1 X127.461 Y50.117 E5.01255
G1 X127.626 Y50.656 E5.0313
G1 X127.845 Y51.476 E5.05953
G1 X128.01 Y52.249 E5.08582
G1 X128.076 Y52.771 E5.10332
G1 X128.155 Y53.625 E5.13185
G1 X128.188 Y54.414 E5.15811
G1 X128.164 Y54.956 E5.17616
G1 X128.097 Y55.806 E5.20451
G1 X127.995 Y56.589 E5.23078
G1 X127.873 Y57.145 E5.24971
G1 X127.658 Y57.977 E5.27829
G1 X127.422 Y58.73 E5.30454
G1 X127.225 Y59.212 E5.32186
G1 X126.879 Y59.985 E5.35002
G1 X126.521 Y60.688 E5.37626
G1 X126.223 Y61.164 E5.39494
G1 X125.74 Y61.879 E5.42364
G1 X125.266 Y62.51 E5.44989
G1 X124.901 Y62.918 E5.4681
G1 X124.309 Y63.534 E5.49651
G1 X123.734 Y64.075 E5.52277
G1 X123.297 Y64.419 E5.54127
G1 X122.611 Y64.922 E5.56956
G1 X121.952 Y65.356 E5.59581
G1 X121.48 Y65.612 E5.61367
G1 X120.712 Y65.995 E5.64221
G1 X119.988 Y66.311 E5.66848
G1 X119.474 Y66.486 E5.68654
G1 X118.658 Y66.731 E5.71488
G1 X117.891 Y66.919 E5.74115
G1 X117.361 Y67.002 E5.75899
G1 X116.51 Y67.106 E5.7875
G1 X115.722 Y67.162 E5.81378
G1 X115.186 Y67.155 E5.83161
G1 X114.505 Y67.122 E5.85428
G1 X84.8 Y67.12 E6.84228
G1 X84.012 Y67.08 E6.86852
G1 X83.231 Y66.96 E6.8948
G1 X82.467 Y66.763 E6.92104
G1 X81.726 Y66.488 E6.94733
G1 X81.017 Y66.141 E6.97358
G1 X80.347 Y65.723 E6.99985
G1 X79.722 Y65.24 E7.02612
G1 X79.639 Y65.162 E7.02991
G1 X78.902 Y65.65 E7.05931
G1 X78.223 Y66.052 E7.08555
G1 X77.506 Y66.383 E7.11182
G1 X76.759 Y66.64 E7.13809
G1 X75.99 Y66.821 E7.16437
G1 X75.207 Y66.922 E7.19063
G1 X74.615 Y66.946 E7.21034
G1 X72.744 Y66.95 E7.27257
G1 X72.641 Y67.061 E7.2776
G1 X72.524 Y67.178 E7.28311
G1 X71.938 Y67.708 E7.30938
G1 X71.302 Y68.175 E7.33563
G1 X70.622 Y68.576 E7.36188
G1 X69.904 Y68.906 E7.38817
G1 X69.157 Y69.161 E7.41442
G1 X68.771 Y69.251 E7.4276
G1 X68.7 Y69.396 E7.43297
G1 X68.282 Y70.067 E7.45927
G1 X67.799 Y70.691 E7.48551
G1 X67.394 Y71.128 E7.50533
G1 X67.277 Y71.245 E7.51083
G1 X66.691 Y71.775 E7.53711
G1 X66.055 Y72.242 E7.56336
G1 X65.375 Y72.643 E7.58961
G1 X64.657 Y72.973 E7.61589
G1 X63.91 Y73.228 E7.64215
G1 X63.141 Y73.407 E7.66841
G1 X62.357 Y73.507 E7.6947
G1 X61.762 Y73.53 E7.7145
G1 X51.996 Y73.53 E8.03932
G1 X51.207 Y73.49 E8.06559
G1 X50.427 Y73.371 E8.09184
G1 X49.662 Y73.173 E8.11812
G1 X48.922 Y72.899 E8.14437
G1 X48.213 Y72.551 E8.17063
G1 X47.542 Y72.133 E8.19693
G1 X46.918 Y71.65 E8.22317
G1 X46.481 Y71.245 E8.24299
G1 X46.364 Y71.128 E8.24849
G1 X45.834 Y70.542 E8.27477
G1 X45.367 Y69.906 E8.30102
G1 X45.096 Y69.446 E8.31877
G1 X38.589 Y69.446 E8.5352
G1 X37.8 Y69.406 E8.56147
G1 X37.02 Y69.287 E8.58772
G1 X36.255 Y69.089 E8.614
G1 X35.515 Y68.815 E8.64024
G1 X34.806 Y68.467 E8.66651
G1 X34.135 Y68.049 E8.69281
G1 X33.511 Y67.566 E8.71905
G1 X33.074 Y67.161 E8.73887
G1 X32.957 Y67.044 E8.74437
G1 X32.427 Y66.458 E8.77065
G1 X31.96 Y65.822 E8.7969
G1 X31.559 Y65.142 E8.82315
G1 X31.229 Y64.424 E8.84943
G1 X30.974 Y63.677 E8.87569
G1 X30.795 Y62.908 E8.90195
G1 X30.695 Y62.124 E8.92824
G1 X30.672 Y61.529 E8.94804
G1 X30.672 Y50.763 E9.30612
G1 X30.702 Y50.178 E9.3256
G1 X30.298 Y49.659 E9.34748
G1 X30.048 Y49.279 E9.36261
G1 X29.427 Y48.273 E9.40193
G1 X29.046 Y47.581 E9.4282
G1 X28.874 Y47.2 E9.4421
G1 X28.419 Y46.118 E9.48114
G1 X28.15 Y45.375 E9.50743
G1 X28.031 Y44.94 E9.52243
G1 X27.753 Y43.799 E9.56149
G1 X27.605 Y43.024 E9.58773
G1 X27.558 Y42.596 E9.60205
G1 X27.461 Y41.423 E9.6412
G1 X27.435 Y40.634 E9.66745
G1 X27.454 Y40.222 E9.68117
G1 X27.538 Y39.05 E9.72025
G1 X27.634 Y38.267 E9.74649
G1 X27.729 Y37.806 E9.76214
G1 X28.002 Y36.656 E9.80146
G1 X28.223 Y35.898 E9.82772
G1 X28.376 Y35.495 E9.84206
G1 X28.713 Y34.674 E9.87157
G1 X28.338 Y34.384 E9.88734
G1 X27.901 Y33.979 E9.90716
G1 X27.784 Y33.862 E9.91266
G1 X27.254 Y33.276 E9.93894
G1 X26.787 Y32.64 E9.96518
G1 X26.386 Y31.96 E9.99144
G1 X26.056 Y31.242 E10.01772
G1 X25.801 Y30.495 E10.04398
G1 X25.622 Y29.726 E10.07024
G1 X25.522 Y28.942 E10.09652
G1 X25.499 Y28.347 E10.11633
G1 X25.499 Y13.581 E10.60745
G1 X25.539 Y12.792 E10.63372
G1 X25.658 Y12.012 E10.65997
G1 X25.856 Y11.247 E10.68625
G1 X26.13 Y10.507 E10.71249
G0 F6000 X26.53 Y10.591
G1 F1200 X26.877 Y9.905 E10.73806
G1 X27.293 Y9.258 E10.76365
G1 X27.774 Y8.658 E10.78922
G1 X28.066 Y8.348 E10.80339
G1 X28.183 Y8.231 E10.80889
G1 X28.755 Y7.717 E10.83447
G1 X29.377 Y7.264 E10.86006
G1 X30.042 Y6.878 E10.88564
G1 X30.744 Y6.563 E10.91123
G1 X31.475 Y6.323 E10.93682
G1 X32.226 Y6.16 E10.96238
G1 X32.991 Y6.076 E10.98797
G1 X33.416 Y6.064 E11.00212
G1 X38.182 Y6.064 E11.16063
G1 X38.95 Y6.104 E11.18621
G1 X39.71 Y6.223 E11.2118
G1 X40.453 Y6.421 E11.23737
G1 X41.172 Y6.695 E11.26296
G1 X41.858 Y7.042 E11.28853
G1 X42.505 Y7.458 E11.31412
G1 X43.105 Y7.939 E11.33969
G1 X43.415 Y8.231 E11.35386
G1 X43.532 Y8.348 E11.35936
G1 X44.046 Y8.92 E11.38494
G1 X44.499 Y9.542 E11.41053
G1 X44.885 Y10.207 E11.43611
G1 X44.956 Y10.364 E11.44184
G1 X45.392 Y9.863 E11.46393
G1 X46.077 Y9.173 E11.49626
G1 X46.808 Y8.528 E11.52869
G1 X47.571 Y7.938 E11.56077
G1 X48.385 Y7.39 E11.59341
G1 X49.227 Y6.901 E11.62579
G1 X50.105 Y6.465 E11.6584
G1 X50.981 Y6.098 E11.68999
G1 X51.908 Y5.778 E11.7226
G1 X52.856 Y5.52 E11.75528
G1 X53.815 Y5.326 E11.78782
G1 X54.769 Y5.197 E11.81984
G1 X55.761 Y5.128 E11.85292
G1 X56.273 Y5.11 E11.86996
G1 X71.28 Y5.108 E12.36909
G1 X71.763 Y5.124 E12.38516
G1 X72.729 Y5.187 E12.41736
G1 X73.662 Y5.308 E12.44865
G1 X74.622 Y5.495 E12.48118
G1 X75.561 Y5.742 E12.51348
G1 X76.482 Y6.051 E12.54579
G1 X77.377 Y6.418 E12.57796
G1 X78.263 Y6.851 E12.61076
G1 X79.098 Y7.329 E12.64276
G1 X79.923 Y7.875 E12.67567
G1 X80.702 Y8.468 E12.70823
G1 X81.435 Y9.107 E12.74057
G1 X81.572 Y9.244 E12.74701
G1 X82.244 Y8.824 E12.77337
G1 X82.507 Y8.683 E12.7833
G1 X83.203 Y8.355 E12.80889
G1 X83.929 Y8.102 E12.83446
G1 X84.234 Y8.03 E12.84488
G1 X84.33 Y7.877 E12.85089
G1 X84.804 Y7.271 E12.87648
G1 X85.338 Y6.718 E12.90205
G1 X85.927 Y6.223 E12.92764
G1 X86.563 Y5.791 E12.95321
G1 X87.241 Y5.428 E12.97879
G1 X87.954 Y5.138 E13.00439
G1 X88.692 Y4.922 E13.02996
G1 X89.646 Y4.762 E13.06214
G1 X89.943 Y4.732 E13.07207
G1 X90.712 Y4.695 E13.09767
G1 X91.48 Y4.738 E13.12326
G1 X91.789 Y4.788 E13.13367
G1 X91.954 Y4.67 E13.14041
G1 X92.624 Y4.291 E13.16602
G1 X93.329 Y3.984 E13.19159
G1 X94.062 Y3.752 E13.21716
G1 X94.816 Y3.597 E13.24277
G1 X95.581 Y3.521 E13.26834
G1 X96.35 Y3.525 E13.29391
G1 X97.115 Y3.609 E13.31951
G1 X98.049 Y3.824 E13.35139
G1 X98.333 Y3.909 E13.36125
G1 X99.057 Y4.167 E13.38681
G1 X99.751 Y4.5 E13.41241
G1 X100.101 Y4.715 E13.42608
G1 X100.305 Y4.667 E13.43305
G1 X101.068 Y4.571 E13.45862
G1 X101.837 Y4.555 E13.48421
G1 X102.604 Y4.618 E13.5098
G1 X103.36 Y4.761 E13.53539
G1 X104.097 Y4.982 E13.56098
G1 X104.807 Y5.277 E13.58656
G1 X105.482 Y5.645 E13.61213
G1 X106.295 Y6.224 E13.64532
G1 X106.526 Y6.413 E13.65525
G1 X107.095 Y6.93 E13.68082
G1 X107.608 Y7.504 E13.70643
G1 X107.796 Y7.765 E13.71712
G1 X107.954 Y7.791 E13.72245
G1 X108.695 Y7.997 E13.74803
G1 X109.411 Y8.278 E13.77361
G1 X110.094 Y8.633 E13.79921
G1 X110.736 Y9.056 E13.82479
G1 X111.331 Y9.543 E13.85036
G1 X111.872 Y10.09 E13.87595
G1 X112.354 Y10.69 E13.90155
G1 X112.871 Y11.518 E13.93401
G1 X113.012 Y11.781 E13.94394
G1 X113.34 Y12.477 E13.96953
G1 X113.593 Y13.203 E13.9951
G1 X113.665 Y13.508 E14.00552
G1 X113.817 Y13.603 E14.01148
G1 X114.423 Y14.077 E14.03707
G1 X114.977 Y14.611 E14.06267
G1 X115.472 Y15.199 E14.08823
G1 X115.904 Y15.836 E14.11383
G1 X116.267 Y16.514 E14.13941
G1 X116.557 Y17.226 E14.16498
G1 X116.773 Y17.965 E14.19059
G1 X116.933 Y18.919 E14.22276
G1 X116.963 Y19.216 E14.23269
G1 X117 Y19.985 E14.2583
G1 X116.957 Y20.753 E14.28388
G1 X116.907 Y21.061 E14.29426
G1 X117.027 Y21.229 E14.30112
G1 X117.406 Y21.899 E14.32673
G1 X117.713 Y22.604 E14.3523
G1 X117.945 Y23.337 E14.37787
G1 X118.1 Y24.091 E14.40348
G1 X118.176 Y24.856 E14.42905
G1 X118.172 Y25.625 E14.45462
G1 X118.088 Y26.39 E14.48022
G1 X117.871 Y27.331 E14.51234
G1 X117.786 Y27.614 E14.52217
G1 X117.527 Y28.338 E14.54774
G1 X117.194 Y29.031 E14.57331
G1 X117.022 Y29.311 E14.58424
G1 X117.068 Y29.511 E14.59107
G1 X117.162 Y30.275 E14.61667
G1 X117.176 Y31.044 E14.64225
G1 X117.11 Y31.81 E14.66782
G1 X116.965 Y32.565 E14.69339
G1 X116.742 Y33.301 E14.71897
G1 X116.444 Y34.011 E14.74458
G1 X116.074 Y34.685 E14.77016
G1 X115.507 Y35.479 E14.80261
G1 X115.318 Y35.71 E14.81253
G1 X114.801 Y36.279 E14.8381
G1 X114.227 Y36.792 E14.86371
G1 X113.942 Y36.998 E14.87541
G1 X113.907 Y37.205 E14.88239
G1 X113.702 Y37.947 E14.90799
G1 X113.42 Y38.662 E14.93356
G1 X113.066 Y39.345 E14.95914
G1 X112.643 Y39.988 E14.98474
G1 X112.156 Y40.583 E15.01031
G1 X111.609 Y41.124 E15.0359
G1 X111.01 Y41.605 E15.06145
G1 X110.346 Y42.02 E15.0875
G1 X114.484 Y42.02 E15.22513
G1 X115.114 Y41.986 E15.24611
G1 X115.883 Y41.984 E15.27169
G1 X116.308 Y42.018 E15.28587
G1 X117.159 Y42.11 E15.31434
G1 X117.919 Y42.232 E15.33994
G1 X118.414 Y42.357 E15.35692
G1 X119.229 Y42.592 E15.38513
G1 X119.956 Y42.843 E15.41071
G1 X120.423 Y43.051 E15.42772
G1 X121.198 Y43.429 E15.4564
G1 X121.871 Y43.802 E15.48199
G1 X122.275 Y44.073 E15.49817
G1 X122.966 Y44.57 E15.52648
G1 X123.566 Y45.05 E15.55203
G1 X123.933 Y45.401 E15.56893
G1 X124.532 Y46.013 E15.59741
G1 X125.041 Y46.59 E15.623
G1 X125.329 Y46.978 E15.63907
G1 X125.812 Y47.676 E15.6673
G1 X126.216 Y48.331 E15.6929
G1 X126.439 Y48.771 E15.7093
G1 X126.802 Y49.553 E15.73798
G1 X127.089 Y50.267 E15.76357
G1 X127.239 Y50.76 E15.78071
G1 X127.458 Y51.58 E15.80894
G1 X127.618 Y52.332 E15.83451
G1 X127.678 Y52.807 E15.85044
G1 X127.757 Y53.661 E15.87896
G1 X127.787 Y54.43 E15.90456
G1 X127.765 Y54.924 E15.92101
G1 X127.698 Y55.774 E15.94937
G1 X127.598 Y56.537 E15.97496
G1 X127.486 Y57.044 E15.99223
G1 X127.271 Y57.876 E16.02081
G1 X127.04 Y58.61 E16.0464
G1 X126.86 Y59.048 E16.06215
G1 X126.514 Y59.821 E16.09032
G1 X126.164 Y60.506 E16.11591
G1 X125.892 Y60.94 E16.13294
G1 X125.409 Y61.655 E16.16164
G1 X124.946 Y62.269 E16.18722
G1 X124.612 Y62.641 E16.20385
G1 X124.02 Y63.257 E16.23226
G1 X123.459 Y63.783 E16.25784
