;FLAVOR:Marlin
;TIME:2642
;Filament used: 1.71472m
;Layer height: 0.24
;MINX:24.301
;MINY:8.36
;MINZ:0.2
;MAXX:81.301
;MAXY:65.36
;MAXZ:23.96
;POSTPROCESSED
;Generated with Cura_SteamEngine 4.4.0
M140 S60
M105
M190 S60
M104 S200
M105
M109 S200
M82 ;absolute extrusion mode
M201 X500.00 Y500.00 Z100.00 E5000.00 ;Setup machine max acceleration
M203 X500.00 Y500.00 Z10.00 E50.00 ;Setup machine max feedrate
M204 P500.00 R1000.00 T500.00 ;Setup Print/Retract/Travel acceleration
M205 X8.00 Y8.00 Z0.40 E5.00 ;Setup Jerk
M220 S100 ;Reset Feedrate
M221 S100 ;Reset Flowrate

G28 ;Home

G92 E0 ;Reset Extruder
G1 Z2.0 F3000 ;Move Z Axis up
G1 X10.1 Y20 Z0.28 F5000.0 ;Move to start position
G1 X10.1 Y200.0 Z0.28 F1500.0 E15 ;Draw the first line
G1 X10.4 Y200.0 Z0.28 F5000.0 ;Move to side a little
G1 X10.4 Y20 Z0.28 F1500.0 E30 ;Draw the second line
G92 E0 ;Reset Extruder
G1 Z2.0 F3000 ;Move Z Axis up

G92 E0
G92 E0
G1 F2700 E-5
;LAYER_COUNT:100
;LAYER:[layer_num]
;LAYER:0
M107
M204 S500
M205 X8 Y8
G0 F6000 X25.793 Y13.853 Z0.2
;TYPE:SKIRT
G1 F2700 E0
G1 F1200 X26.297 Y13.063 E0.03117
G1 X26.867 Y12.318 E0.06237
G1 X27.499 Y11.624 E0.09359
G1 X28.187 Y10.987 E0.12477
G1 X28.927 Y10.411 E0.15596
G1 X29.713 Y9.899 E0.18716
G1 X30.54 Y9.457 E0.21835
G1 X31.402 Y9.087 E0.24955
G1 X32.292 Y8.791 E0.28074
G1 X33.204 Y8.573 E0.31193
G1 X34.131 Y8.432 E0.34312
G1 X35.002 Y8.373 E0.37216
G1 X35.323 Y8.364 E0.38284
G1 X35.631 Y8.36 E0.39308
G1 X69.594 Y8.36 E1.52269
G1 X69.752 Y8.361 E1.52795
G1 X70.45 Y8.371 E1.55117
G1 X71.386 Y8.425 E1.58235
G1 X72.314 Y8.557 E1.61353
G1 X73.228 Y8.769 E1.64473
G1 X74.12 Y9.058 E1.67592
G1 X74.985 Y9.421 E1.70712
G1 X75.815 Y9.857 E1.7383
G1 X76.606 Y10.362 E1.76952
G1 X77.35 Y10.933 E1.80071
G1 X78.043 Y11.565 E1.83191
G1 X78.68 Y12.253 E1.86309
G1 X79.255 Y12.994 E1.89429
G1 X79.766 Y13.78 E1.92547
G1 X80.208 Y14.608 E1.95669
G1 X80.577 Y15.47 E1.98787
G1 X80.872 Y16.36 E2.01906
G1 X81.09 Y17.272 E2.05025
G1 X81.23 Y18.2 E2.08146
G1 X81.288 Y19.061 E2.11016
G1 X81.297 Y19.381 E2.12081
G1 X81.301 Y19.69 E2.13109
G1 X81.301 Y53.624 E3.25974
G1 X81.3 Y53.76 E3.26426
G1 X81.291 Y54.487 E3.28844
G1 X81.24 Y55.424 E3.31965
G1 X81.108 Y56.352 E3.35083
G1 X80.899 Y57.266 E3.38201
G1 X80.612 Y58.159 E3.41321
G1 X80.25 Y59.025 E3.44443
G1 X79.816 Y59.856 E3.47561
G1 X79.312 Y60.647 E3.50681
G1 X78.743 Y61.392 E3.53799
G1 X78.112 Y62.087 E3.56921
G1 X77.425 Y62.725 E3.60039
G1 X76.686 Y63.302 E3.63157
G1 X75.9 Y63.814 E3.66277
G1 X75.074 Y64.257 E3.69395
G1 X74.212 Y64.629 E3.72518
G1 X73.323 Y64.925 E3.75634
G1 X72.411 Y65.145 E3.78754
G1 X71.484 Y65.286 E3.81873
G1 X70.6 Y65.347 E3.8482
G1 X70.279 Y65.356 E3.85888
G1 X69.971 Y65.36 E3.86913
G1 X36.008 Y65.36 E4.99874
G1 X35.866 Y65.359 E5.00346
G1 X35.168 Y65.35 E5.02668
G1 X34.232 Y65.298 E5.05786
G1 X33.303 Y65.166 E5.08907
G1 X32.389 Y64.956 E5.12026
G1 X31.496 Y64.669 E5.15146
G1 X30.631 Y64.306 E5.18266
G1 X29.8 Y63.872 E5.21384
G1 X29.009 Y63.368 E5.24504
G1 X28.264 Y62.798 E5.27624
G1 X27.57 Y62.167 E5.30743
G1 X26.933 Y61.48 E5.33859
G1 X26.356 Y60.74 E5.3698
G1 X25.844 Y59.954 E5.401
G1 X25.401 Y59.127 E5.43221
G1 X25.03 Y58.266 E5.46339
G1 X24.734 Y57.376 E5.49459
G1 X24.515 Y56.464 E5.52578
G1 X24.374 Y55.537 E5.55697
G1 X24.314 Y54.648 E5.5866
G1 X24.305 Y54.315 E5.59768
G1 X24.301 Y54.018 E5.60756
G1 X24.301 Y20.034 E6.73788
G1 X24.302 Y19.885 E6.74283
G1 X24.311 Y19.22 E6.76495
G1 X24.364 Y18.284 E6.79613
G1 X24.496 Y17.355 E6.82734
G1 X24.707 Y16.441 E6.85854
G1 X24.995 Y15.549 E6.88972
G1 X25.358 Y14.684 E6.92092
G1 X25.793 Y13.853 E6.95211
G0 F6000 X26.19 Y13.966
G1 F1200 X26.693 Y13.195 E6.98273
G1 X27.262 Y12.471 E7.01336
G1 X27.89 Y11.799 E7.04395
G1 X28.575 Y11.183 E7.07459
G1 X29.311 Y10.63 E7.10521
G1 X30.092 Y10.142 E7.13584
G1 X30.912 Y9.724 E7.16645
G1 X31.766 Y9.379 E7.19709
G1 X32.646 Y9.109 E7.2277
G1 X33.546 Y8.917 E7.25831
G1 X34.46 Y8.803 E7.28895
G1 X35.013 Y8.773 E7.30737
G1 X35.334 Y8.764 E7.31805
G1 X35.631 Y8.76 E7.32793
G1 X69.594 Y8.76 E8.45754
G1 X69.746 Y8.761 E8.4626
G1 X70.444 Y8.771 E8.48581
G1 X71.363 Y8.824 E8.51643
G1 X72.274 Y8.957 E8.54705
G1 X73.17 Y9.168 E8.57767
G1 X74.044 Y9.456 E8.60828
G1 X74.891 Y9.819 E8.63892
G1 X75.702 Y10.254 E8.66953
G1 X76.472 Y10.758 E8.70014
G1 X77.196 Y11.327 E8.73077
G1 X77.868 Y11.957 E8.76141
G1 X78.483 Y12.642 E8.79203
G1 X79.036 Y13.378 E8.82264
G1 X79.523 Y14.159 E8.85326
G1 X79.94 Y14.98 E8.88388
G1 X80.285 Y15.834 E8.91452
G1 X80.554 Y16.714 E8.94512
G1 X80.746 Y17.615 E8.97576
G1 X80.859 Y18.528 E9.00636
G1 X80.888 Y19.072 E9.02448
G1 X80.897 Y19.392 E9.03513
G1 X80.901 Y19.69 E9.04504
G1 X80.901 Y53.624 E10.17369
G1 X80.9 Y53.755 E10.17805
G1 X80.891 Y54.482 E10.20223
G1 X80.84 Y55.401 E10.23284
G1 X80.709 Y56.313 E10.26349
G1 X80.499 Y57.209 E10.2941
G1 X80.213 Y58.084 E10.32471
G1 X79.852 Y58.931 E10.35534
G1 X79.418 Y59.743 E10.38596
G1 X78.916 Y60.515 E10.41659
G1 X78.348 Y61.24 E10.44722
G1 X77.72 Y61.913 E10.47784
G1 X77.036 Y62.529 E10.50845
G1 X76.301 Y63.083 E10.53907
G1 X75.521 Y63.572 E10.56969
G1 X74.701 Y63.991 E10.60031
G1 X73.848 Y64.337 E10.63093
G1 X72.968 Y64.608 E10.66155
G1 X72.068 Y64.801 E10.69217
G1 X71.154 Y64.916 E10.72281
G1 X70.589 Y64.947 E10.74163
G1 X70.268 Y64.956 E10.75231
G1 X69.971 Y64.96 E10.76219
G1 X36.008 Y64.96 E11.8918
G1 X35.871 Y64.959 E11.89636
G1 X35.173 Y64.95 E11.91958
G1 X34.254 Y64.898 E11.95019
G1 X33.343 Y64.767 E11.9808
G1 X32.447 Y64.557 E12.01141
G1 X31.572 Y64.27 E12.04204
G1 X30.725 Y63.908 E12.07268
G1 X29.913 Y63.474 E12.1033
G1 X29.142 Y62.972 E12.1339
G1 X28.417 Y62.404 E12.16453
G1 X27.744 Y61.775 E12.19517
G1 X27.129 Y61.091 E12.22576
G1 X26.575 Y60.356 E12.25638
G1 X26.087 Y59.575 E12.28701
G1 X25.668 Y58.755 E12.31763
G1 X25.322 Y57.902 E12.34825
G1 X25.052 Y57.022 E12.37887
G1 X24.859 Y56.121 E12.40951
G1 X24.745 Y55.208 E12.44012
G1 X24.714 Y54.637 E12.45914
G1 X24.705 Y54.304 E12.47021
G1 X24.701 Y54.018 E12.47973
G1 X24.701 Y20.034 E13.61004
G1 X24.702 Y19.891 E13.6148
G1 X24.711 Y19.226 E13.63692
G1 X24.763 Y18.306 E13.66756
G1 X24.895 Y17.395 E13.69818
G1 X25.106 Y16.499 E13.7288
G1 X25.393 Y15.624 E13.75943
G1 X25.756 Y14.778 E13.79004
G1 X26.19 Y13.966 E13.82067
G0 F6000 X26.587 Y14.082
G1 F1200 X27.089 Y13.331 E13.85071
G1 X27.656 Y12.627 E13.88078
G1 X28.282 Y11.977 E13.91079
G1 X28.963 Y11.384 E13.94083
G1 X29.695 Y10.854 E13.97088
G1 X30.47 Y10.391 E14.00091
G1 X31.283 Y9.998 E14.03094
G1 X32.128 Y9.678 E14.061
G1 X32.997 Y9.435 E14.09101
G1 X33.885 Y9.269 E14.12106
G1 X35.024 Y9.173 E14.15907
G1 X35.345 Y9.164 E14.16975
G1 X35.631 Y9.16 E14.17927
G1 X69.594 Y9.16 E15.30888
G1 X69.74 Y9.161 E15.31374
G1 X70.438 Y9.171 E15.33696
G1 X71.34 Y9.224 E15.36701
G1 X72.233 Y9.356 E15.39703
G1 X73.111 Y9.567 E15.42707
G1 X73.967 Y9.855 E15.4571
G1 X74.794 Y10.217 E15.48713
G1 X75.586 Y10.652 E15.51718
G1 X76.337 Y11.154 E15.54723
G1 X77.04 Y11.721 E15.57727
G1 X77.69 Y12.348 E15.60731
G1 X78.282 Y13.03 E15.63734
G1 X78.812 Y13.761 E15.66737
G1 X79.274 Y14.537 E15.69741
G1 X79.667 Y15.35 E15.72745
G1 X79.985 Y16.195 E15.75748
G1 X80.228 Y17.065 E15.78752
G1 X80.393 Y17.953 E15.81756
G1 X80.488 Y19.083 E15.85528
G1 X80.497 Y19.403 E15.86592
G1 X80.501 Y19.69 E15.87547
G1 X80.501 Y53.624 E17.00412
G1 X80.5 Y53.75 E17.00831
G1 X80.491 Y54.477 E17.03249
G1 X80.44 Y55.379 E17.06254
G1 X80.309 Y56.273 E17.09259
G1 X80.1 Y57.151 E17.12261
G1 X79.814 Y58.008 E17.15266
G1 X79.453 Y58.836 E17.1827
G1 X79.021 Y59.628 E17.21271
G1 X78.52 Y60.38 E17.24276
G1 X77.954 Y61.084 E17.27281
G1 X77.329 Y61.735 E17.30282
G1 X76.648 Y62.329 E17.33288
G1 X75.917 Y62.86 E17.36293
G1 X75.143 Y63.324 E17.39295
G1 X74.33 Y63.718 E17.42299
G1 X73.486 Y64.038 E17.45302
G1 X72.616 Y64.283 E17.48308
G1 X71.729 Y64.449 E17.51309
G1 X70.578 Y64.547 E17.55151
G1 X70.257 Y64.556 E17.56219
G1 X69.971 Y64.56 E17.57171
G1 X36.008 Y64.56 E18.70132
G1 X35.876 Y64.559 E18.70571
G1 X35.178 Y64.55 E18.72893
G1 X34.277 Y64.499 E18.75894
G1 X33.383 Y64.367 E18.789
G1 X32.505 Y64.158 E18.81902
G1 X31.648 Y63.871 E18.84908
G1 X30.821 Y63.51 E18.87909
G1 X30.028 Y63.077 E18.90914
G1 X29.277 Y62.576 E18.93917
G1 X28.573 Y62.01 E18.96921
G1 X27.922 Y61.384 E18.99925
G1 X27.329 Y60.703 E19.02929
G1 X26.799 Y59.972 E19.05932
G1 X26.335 Y59.197 E19.08936
G1 X25.941 Y58.384 E19.11941
G1 X25.621 Y57.54 E19.14943
G1 X25.377 Y56.67 E19.17948
G1 X25.211 Y55.782 E19.20953
G1 X25.114 Y54.627 E19.24808
G1 X25.105 Y54.294 E19.25916
G1 X25.101 Y54.018 E19.26834
G1 X25.101 Y20.034 E20.39865
G1 X25.102 Y19.896 E20.40324
G1 X25.111 Y19.231 E20.42536
G1 X25.163 Y18.329 E20.45541
G1 X25.295 Y17.436 E20.48544
G1 X25.505 Y16.558 E20.51546
G1 X25.792 Y15.701 E20.54552
G1 X26.154 Y14.874 E20.57555
G1 X26.587 Y14.082 E20.60557
G1 F2700 E15.60557
;MESH:Lid for Base.STL
G0 F6000 X34.636 Y19.774
G0 X35.715 Y19.774
G0 X36.301 Y53.36
;TYPE:WALL-INNER
G1 F2700 E20.60557
G1 F1200 X36.301 Y20.36 E21.70316
G1 X69.301 Y20.36 E22.80074
G1 X69.301 Y53.36 E23.89832
G1 X36.301 Y53.36 E24.99591
G0 F6000 X35.901 Y53.76
G1 F1200 X35.901 Y19.96 E26.1201
G1 X69.701 Y19.96 E27.24429
G1 X69.701 Y53.76 E28.36849
G1 X35.901 Y53.76 E29.49268
G0 F6000 X35.501 Y54.16
;TYPE:WALL-OUTER
G1 F1200 X35.501 Y19.56 E30.64348
G1 X70.101 Y19.56 E31.79428
G1 X70.101 Y54.16 E32.94508
G1 X35.501 Y54.16 E34.09588
G0 F6000 X35.771 Y53.89
G0 X36.411 Y52.97
G0 X36.691 Y52.97
;TYPE:SKIN
G1 F1200 X36.691 Y20.75 E35.16752
G1 X68.911 Y20.75 E36.23917
G1 X68.911 Y52.97 E37.31081
G1 X36.691 Y52.97 E38.38245
G0 F6000 X36.969 Y52.808
G1 F1200 X36.85 Y52.689 E38.38805
G0 F6000 X36.85 Y52.123
G1 F1200 X37.535 Y52.808 E38.42027
G0 F6000 X38.101 Y52.808
G1 F1200 X36.85 Y51.557 E38.47911
G0 F6000 X36.85 Y50.992
G1 F1200 X38.666 Y52.808 E38.56453
G0 F6000 X39.232 Y52.808
G1 F1200 X36.85 Y50.426 E38.67657
G0 F6000 X36.85 Y49.86
G1 F1200 X39.798 Y52.808 E38.81524
G0 F6000 X40.363 Y52.808
G1 F1200 X36.85 Y49.295 E38.98048
G0 F6000 X36.85 Y48.729
G1 F1200 X40.929 Y52.808 E39.17234
G0 F6000 X41.495 Y52.808
G1 F1200 X36.85 Y48.163 E39.39083
G0 F6000 X36.85 Y47.598
G1 F1200 X42.06 Y52.808 E39.63589
G0 F6000 X42.626 Y52.808
G1 F1200 X36.85 Y47.032 E39.90757
G0 F6000 X36.85 Y46.466
G1 F1200 X43.192 Y52.808 E40.20588
G0 F6000 X43.757 Y52.808
G1 F1200 X36.85 Y45.901 E40.53077
G0 F6000 X36.85 Y45.335
G1 F1200 X44.323 Y52.808 E40.88227
G0 F6000 X44.889 Y52.808
G1 F1200 X36.85 Y44.769 E41.2604
G0 F6000 X36.85 Y44.204
G1 F1200 X45.454 Y52.808 E41.66511
G0 F6000 X46.02 Y52.808
G1 F1200 X36.85 Y43.638 E42.09644
G0 F6000 X36.85 Y43.072
G1 F1200 X46.586 Y52.808 E42.55439
G0 F6000 X47.152 Y52.808
G1 F1200 X36.85 Y42.507 E43.03894
G0 F6000 X36.85 Y41.941
G1 F1200 X47.717 Y52.808 E43.55009
G0 F6000 X48.283 Y52.808
G1 F1200 X36.85 Y41.375 E44.08786
G0 F6000 X36.85 Y40.809
G1 F1200 X48.849 Y52.808 E44.65226
G0 F6000 X49.414 Y52.808
G1 F1200 X36.85 Y40.244 E45.24323
G0 F6000 X36.85 Y39.678
G1 F1200 X49.98 Y52.808 E45.86083
G0 F6000 X50.546 Y52.808
G1 F1200 X36.85 Y39.112 E46.50504
G0 F6000 X36.85 Y38.547
G1 F1200 X51.111 Y52.808 E47.17584
G0 F6000 X51.677 Y52.808
G1 F1200 X36.85 Y37.981 E47.87326
G0 F6000 X36.85 Y37.415
G1 F1200 X52.243 Y52.808 E48.59729
G0 F6000 X52.809 Y52.809
G1 F1200 X36.85 Y36.85 E49.34796
G0 F6000 X36.85 Y36.284
G1 F1200 X53.375 Y52.809 E50.12524
G0 F6000 X53.94 Y52.809
G1 F1200 X36.85 Y35.718 E50.92913
G0 F6000 X36.85 Y35.153
G1 F1200 X54.506 Y52.809 E51.75961
G0 F6000 X55.072 Y52.809
G1 F1200 X36.85 Y34.587 E52.61672
G0 F6000 X36.85 Y34.021
G1 F1200 X55.637 Y52.809 E53.50042
G0 F6000 X56.203 Y52.809
G1 F1200 X36.85 Y33.456 E54.41073
G0 F6000 X36.85 Y32.89
G1 F1200 X56.769 Y52.809 E55.34766
G0 F6000 X57.335 Y52.809
G1 F1200 X36.85 Y32.324 E56.31121
G0 F6000 X36.85 Y31.758
G1 F1200 X57.9 Y52.809 E57.30136
G0 F6000 X58.466 Y52.809
G1 F1200 X36.85 Y31.193 E58.31811
G0 F6000 X36.85 Y30.627
G1 F1200 X59.032 Y52.809 E59.36149
G0 F6000 X59.597 Y52.809
G1 F1200 X36.85 Y30.061 E60.43146
G0 F6000 X36.85 Y29.496
G1 F1200 X60.163 Y52.809 E61.52803
G0 F6000 X60.729 Y52.809
G1 F1200 X36.85 Y28.93 E62.65122
G0 F6000 X36.85 Y28.364
G1 F1200 X61.294 Y52.809 E63.80102
G0 F6000 X61.86 Y52.809
G1 F1200 X36.85 Y27.799 E64.97741
G0 F6000 X36.85 Y27.233
G1 F1200 X62.426 Y52.809 E66.18043
G0 F6000 X62.991 Y52.809
G1 F1200 X36.85 Y26.667 E67.41005
G0 F6000 X36.85 Y26.102
G1 F1200 X63.557 Y52.809 E68.66626
G0 F6000 X64.123 Y52.809
G1 F1200 X36.85 Y25.536 E69.9491
G0 F6000 X36.85 Y24.97
G1 F1200 X64.688 Y52.809 E71.25854
G0 F6000 X65.254 Y52.809
G1 F1200 X36.85 Y24.405 E72.59457
G0 F6000 X36.85 Y23.839
G1 F1200 X65.82 Y52.809 E73.95723
G0 F6000 X66.386 Y52.809
G1 F1200 X36.85 Y23.273 E75.34652
G0 F6000 X36.85 Y22.708
G1 F1200 X66.951 Y52.809 E76.76238
G0 F6000 X67.517 Y52.809
G1 F1200 X36.85 Y22.142 E78.20486
G0 F6000 X36.85 Y21.576
G1 F1200 X68.083 Y52.809 E79.67396
G0 F6000 X68.648 Y52.809
G1 F1200 X36.85 Y21.01 E81.16967
G0 F6000 X37.315 Y20.91
G1 F1200 X68.749 Y52.344 E82.64822
G0 F6000 X68.749 Y51.779
G1 F1200 X37.881 Y20.91 E84.10018
G0 F6000 X38.446 Y20.91
G1 F1200 X68.749 Y51.213 E85.52554
G0 F6000 X68.749 Y50.647
G1 F1200 X39.012 Y20.91 E86.92428
G0 F6000 X39.578 Y20.91
G1 F1200 X68.749 Y50.082 E88.29642
G0 F6000 X68.749 Y49.516
G1 F1200 X40.143 Y20.91 E89.64196
G0 F6000 X40.709 Y20.91
G1 F1200 X68.749 Y48.95 E90.96087
G0 F6000 X68.749 Y48.385
G1 F1200 X41.275 Y20.91 E92.25319
G0 F6000 X41.84 Y20.91
G1 F1200 X68.749 Y47.819 E93.51891
G0 F6000 X68.749 Y47.253
G1 F1200 X42.406 Y20.91 E94.758
G0 F6000 X42.972 Y20.91
G1 F1200 X68.749 Y46.688 E95.9705
G0 F6000 X68.749 Y46.122
G1 F1200 X43.537 Y20.91 E97.15639
G0 F6000 X44.103 Y20.91
G1 F1200 X68.749 Y45.556 E98.31566
G0 F6000 X68.749 Y44.991
G1 F1200 X44.669 Y20.91 E99.44834
G0 F6000 X45.235 Y20.91
G1 F1200 X68.749 Y44.425 E100.55439
G0 F6000 X68.749 Y43.859
G1 F1200 X45.8 Y20.91 E101.63384
G0 F6000 X46.366 Y20.91
G1 F1200 X68.749 Y43.294 E102.68669
G0 F6000 X68.749 Y42.728
G1 F1200 X46.932 Y20.91 E103.71292
G0 F6000 X47.497 Y20.91
G1 F1200 X68.749 Y42.162 E104.71255
G0 F6000 X68.749 Y41.596
G1 F1200 X48.063 Y20.91 E105.68555
G0 F6000 X48.629 Y20.91
G1 F1200 X68.749 Y41.031 E106.63196
G0 F6000 X68.749 Y40.465
G1 F1200 X49.194 Y20.91 E107.55177
G0 F6000 X49.76 Y20.91
G1 F1200 X68.749 Y39.899 E108.44495
G0 F6000 X68.749 Y39.334
G1 F1200 X50.326 Y20.91 E109.31153
G0 F6000 X50.891 Y20.91
G1 F1200 X68.749 Y38.768 E110.15152
G0 F6000 X68.749 Y38.202
G1 F1200 X51.457 Y20.91 E110.96488
G0 F6000 X52.023 Y20.91
G1 F1200 X68.749 Y37.637 E111.75165
G0 F6000 X68.749 Y37.071
G1 F1200 X52.588 Y20.91 E112.51181
G0 F6000 X53.154 Y20.91
G1 F1200 X68.749 Y36.505 E113.24535
G0 F6000 X68.749 Y35.94
G1 F1200 X53.72 Y20.91 E113.95229
G0 F6000 X54.286 Y20.91
G1 F1200 X68.749 Y35.374 E114.63261
G0 F6000 X68.749 Y34.808
G1 F1200 X54.851 Y20.91 E115.28633
G0 F6000 X55.417 Y20.91
G1 F1200 X68.749 Y34.243 E115.91345
G0 F6000 X68.749 Y33.677
G1 F1200 X55.983 Y20.91 E116.51395
G0 F6000 X56.548 Y20.91
G1 F1200 X68.749 Y33.111 E117.08784
G0 F6000 X68.749 Y32.546
G1 F1200 X57.114 Y20.91 E117.63514
G0 F6000 X57.68 Y20.91
G1 F1200 X68.749 Y31.98 E118.15582
G0 F6000 X68.749 Y31.414
G1 F1200 X58.245 Y20.91 E118.64989
G0 F6000 X58.811 Y20.91
G1 F1200 X68.749 Y30.848 E119.11735
G0 F6000 X68.749 Y30.283
G1 F1200 X59.377 Y20.91 E119.5582
G0 F6000 X59.942 Y20.91
G1 F1200 X68.749 Y29.717 E119.97246
G0 F6000 X68.749 Y29.151
G1 F1200 X60.508 Y20.91 E120.36009
G0 F6000 X61.074 Y20.91
G1 F1200 X68.749 Y28.586 E120.72112
G0 F6000 X68.749 Y28.02
G1 F1200 X61.639 Y20.91 E121.05555
G0 F6000 X62.205 Y20.91
G1 F1200 X68.749 Y27.454 E121.36336
G0 F6000 X68.749 Y26.889
G1 F1200 X62.771 Y20.91 E121.64457
G0 F6000 X63.336 Y20.91
G1 F1200 X68.749 Y26.323 E121.89918
G0 F6000 X68.749 Y25.757
G1 F1200 X63.902 Y20.91 E122.12717
G0 F6000 X64.468 Y20.91
G1 F1200 X68.749 Y25.192 E122.32856
G0 F6000 X68.749 Y24.626
G1 F1200 X65.034 Y20.91 E122.50332
G0 F6000 X65.599 Y20.91
G1 F1200 X68.749 Y24.06 E122.65149
G0 F6000 X68.749 Y23.495
G1 F1200 X66.165 Y20.91 E122.77306
G0 F6000 X66.731 Y20.91
G1 F1200 X68.749 Y22.929 E122.868
G0 F6000 X68.749 Y22.363
