;FLAVOR:Marlin
;TIME:2449
;Filament used: 1.74937m
;Layer height: 0.24
;MINX:19.488
;MINY:8.446
;MINZ:0.2
;MAXX:78.912
;MAXY:46.674
;MAXZ:14.84
;POSTPROCESSED
;Generated with Cura_SteamEngine 4.4.0
M140 S60
M105
M190 S60
M104 S200
M105
M109 S200
M82 ;absolute extrusion mode
M201 X500.00 Y500.00 Z100.00 E5000.00 ;Setup machine max acceleration
M203 X500.00 Y500.00 Z10.00 E50.00 ;Setup machine max feedrate
M204 P500.00 R1000.00 T500.00 ;Setup Print/Retract/Travel acceleration
M205 X8.00 Y8.00 Z0.40 E5.00 ;Setup Jerk
M220 S100 ;Reset Feedrate
M221 S100 ;Reset Flowrate

G28 ;Home

G92 E0 ;Reset Extruder
G1 Z2.0 F3000 ;Move Z Axis up
G1 X10.1 Y20 Z0.28 F5000.0 ;Move to start position
G1 X10.1 Y200.0 Z0.28 F1500.0 E15 ;Draw the first line
G1 X10.4 Y200.0 Z0.28 F5000.0 ;Move to side a little
G1 X10.4 Y20 Z0.28 F1500.0 E30 ;Draw the second line
G92 E0 ;Reset Extruder
G1 Z2.0 F3000 ;Move Z Axis up

G92 E0
G92 E0
G1 F2700 E-5
;LAYER_COUNT:62
;LAYER:[layer_num]
;LAYER:0
M107
M204 S500
M205 X8 Y8
G0 F6000 X20.467 Y12.58 Z0.2
;TYPE:SKIRT
G1 F2700 E0
G1 F1200 X20.885 Y11.909 E0.02629
G1 X21.368 Y11.285 E0.05254
G1 X21.773 Y10.848 E0.07236
G1 X21.89 Y10.731 E0.07786
G1 X22.476 Y10.201 E0.10414
G1 X23.112 Y9.734 E0.13038
G1 X23.792 Y9.333 E0.15664
G1 X24.51 Y9.003 E0.18292
G1 X25.257 Y8.748 E0.20917
G1 X26.026 Y8.569 E0.23544
G1 X26.81 Y8.469 E0.26172
G1 X27.405 Y8.446 E0.28153
G1 X44.071 Y8.446 E0.83584
G1 X44.86 Y8.486 E0.86212
G1 X45.64 Y8.605 E0.88836
G1 X46.405 Y8.803 E0.91464
G1 X47.145 Y9.077 E0.94089
G1 X47.854 Y9.425 E0.96716
G1 X48.129 Y9.596 E0.97793
G1 X48.334 Y9.502 E0.98543
G1 X49.081 Y9.247 E1.01168
G1 X49.85 Y9.068 E1.03794
G1 X50.634 Y8.968 E1.06423
G1 X51.229 Y8.945 E1.08403
G1 X70.995 Y8.945 E1.74145
G1 X71.784 Y8.985 E1.76773
G1 X72.564 Y9.104 E1.79397
G1 X73.329 Y9.302 E1.82025
G1 X74.069 Y9.576 E1.8465
G1 X74.778 Y9.924 E1.87277
G1 X75.449 Y10.342 E1.89906
G1 X76.073 Y10.825 E1.92531
G1 X76.646 Y11.368 E1.95156
G1 X77.161 Y11.967 E1.97784
G1 X77.612 Y12.615 E2.0041
G1 X77.996 Y13.306 E2.03039
G1 X78.308 Y14.031 E2.05664
G1 X78.545 Y14.784 E2.0829
G1 X78.704 Y15.558 E2.10918
G1 X78.795 Y16.703 E2.14738
G1 X78.912 Y38.586 E2.87522
G1 X78.876 Y39.375 E2.90149
G1 X78.761 Y40.156 E2.92775
G1 X78.567 Y40.922 E2.95403
G1 X78.297 Y41.664 E2.98029
G1 X77.953 Y42.375 E3.00656
G1 X77.539 Y43.047 E3.03282
G1 X77.059 Y43.675 E3.05911
G1 X76.627 Y44.143 E3.08029
G1 X76.51 Y44.26 E3.08579
G1 X75.924 Y44.79 E3.11207
G1 X75.288 Y45.257 E3.13832
G1 X74.608 Y45.658 E3.16457
G1 X73.89 Y45.988 E3.19085
G1 X73.143 Y46.243 E3.21711
G1 X72.374 Y46.422 E3.24337
G1 X71.59 Y46.522 E3.26966
G1 X70.995 Y46.545 E3.28946
G1 X61.229 Y46.545 E3.61428
G1 X60.44 Y46.505 E3.64055
G1 X59.66 Y46.386 E3.6668
G1 X58.895 Y46.188 E3.69308
G1 X58.155 Y45.914 E3.71933
G1 X57.446 Y45.566 E3.74559
G1 X56.775 Y45.148 E3.77189
G1 X56.151 Y44.665 E3.79813
G1 X55.714 Y44.26 E3.81795
G1 X55.597 Y44.143 E3.82345
G1 X55.067 Y43.557 E3.84973
G1 X54.6 Y42.921 E3.87598
G1 X54.209 Y42.257 E3.90161
G1 X54.109 Y42.4 E3.90741
G1 X53.625 Y43.023 E3.93365
G1 X53.079 Y43.594 E3.95993
G1 X52.479 Y44.107 E3.98618
G1 X51.83 Y44.557 E4.01245
G1 X51.238 Y44.89 E4.03504
G1 X51.149 Y44.935 E4.03836
G1 X50.427 Y45.255 E4.06462
G1 X49.676 Y45.501 E4.09091
G1 X48.905 Y45.669 E4.11715
G1 X48.12 Y45.759 E4.14343
G1 X47.629 Y45.774 E4.15977
G1 X39.703 Y45.774 E4.42339
G1 X39.681 Y45.787 E4.42424
G1 X38.963 Y46.117 E4.45052
G1 X38.216 Y46.372 E4.47678
G1 X37.447 Y46.551 E4.50304
G1 X36.663 Y46.651 E4.52933
G1 X36.068 Y46.674 E4.54913
G1 X35.302 Y46.674 E4.57461
G1 X34.513 Y46.634 E4.60088
G1 X33.733 Y46.515 E4.62713
G1 X32.968 Y46.317 E4.65341
G1 X32.228 Y46.043 E4.67965
G1 X31.519 Y45.695 E4.70592
G1 X30.848 Y45.277 E4.73222
G1 X30.224 Y44.794 E4.75846
G1 X29.787 Y44.389 E4.77828
G1 X29.67 Y44.272 E4.78378
G1 X29.14 Y43.686 E4.81006
G1 X28.673 Y43.05 E4.83631
G1 X28.272 Y42.37 E4.86256
G1 X27.942 Y41.652 E4.88884
G1 X27.687 Y40.905 E4.9151
G1 X27.508 Y40.136 E4.94136
G1 X27.408 Y39.352 E4.96765
G1 X27.385 Y38.757 E4.98745
G1 X27.385 Y34.945 E5.11424
G1 X26.616 Y34.906 E5.13985
G1 X25.836 Y34.787 E5.16609
G1 X25.071 Y34.589 E5.19237
G1 X24.331 Y34.315 E5.21862
G1 X23.622 Y33.967 E5.24489
G1 X22.951 Y33.549 E5.27118
G1 X22.327 Y33.066 E5.29743
G1 X21.89 Y32.661 E5.31724
G1 X21.773 Y32.544 E5.32275
G1 X21.243 Y31.958 E5.34903
G1 X20.776 Y31.322 E5.37527
G1 X20.375 Y30.642 E5.40153
G1 X20.045 Y29.924 E5.42781
G1 X19.79 Y29.177 E5.45406
G1 X19.611 Y28.408 E5.48032
G1 X19.511 Y27.624 E5.50661
G1 X19.488 Y27.029 E5.52641
G1 X19.488 Y16.363 E5.88117
G1 X19.528 Y15.574 E5.90744
G1 X19.647 Y14.794 E5.93369
G1 X19.845 Y14.029 E5.95997
G1 X20.119 Y13.289 E5.98621
G1 X20.467 Y12.58 E6.01248
G0 F6000 X20.866 Y12.687
G1 F1200 X21.282 Y12.04 E6.03807
G1 X21.763 Y11.44 E6.06364
G1 X22.055 Y11.13 E6.07781
G1 X22.172 Y11.013 E6.08331
G1 X22.744 Y10.499 E6.10889
G1 X23.366 Y10.046 E6.13448
G1 X24.031 Y9.66 E6.16006
G1 X24.733 Y9.345 E6.18565
G1 X25.464 Y9.105 E6.21124
G1 X26.215 Y8.942 E6.2368
G1 X26.98 Y8.858 E6.26239
G1 X27.405 Y8.846 E6.27653
G1 X44.071 Y8.846 E6.83085
G1 X44.839 Y8.886 E6.85643
G1 X45.599 Y9.005 E6.88201
G1 X46.342 Y9.203 E6.90759
G1 X47.061 Y9.477 E6.93318
G1 X47.747 Y9.824 E6.95875
G1 X48.098 Y10.05 E6.97263
G1 X48.557 Y9.844 E6.98937
G1 X49.288 Y9.604 E7.01496
G1 X50.039 Y9.441 E7.04052
G1 X50.804 Y9.357 E7.06611
G1 X51.229 Y9.345 E7.08025
G1 X70.995 Y9.345 E7.73767
G1 X71.763 Y9.385 E7.76325
G1 X72.523 Y9.504 E7.78884
G1 X73.266 Y9.702 E7.81441
G1 X73.985 Y9.976 E7.84
G1 X74.671 Y10.323 E7.86557
G1 X75.318 Y10.739 E7.89116
G1 X75.918 Y11.22 E7.91673
G1 X76.465 Y11.761 E7.94232
G1 X76.953 Y12.356 E7.96792
G1 X77.376 Y12.998 E7.99349
G1 X77.731 Y13.681 E8.01909
G1 X78.012 Y14.396 E8.04464
G1 X78.218 Y15.138 E8.07026
G1 X78.346 Y15.896 E8.09582
G1 X78.395 Y16.705 E8.12278
G1 X78.512 Y38.588 E8.85062
G1 X78.476 Y39.357 E8.87623
G1 X78.361 Y40.117 E8.90179
G1 X78.167 Y40.862 E8.9274
G1 X77.897 Y41.582 E8.95297
G1 X77.554 Y42.27 E8.97854
G1 X77.141 Y42.919 E9.00413
G1 X76.663 Y43.522 E9.02972
G1 X76.345 Y43.861 E9.04518
G1 X76.228 Y43.978 E9.05068
G1 X75.656 Y44.492 E9.07626
G1 X75.034 Y44.945 E9.10185
G1 X74.369 Y45.331 E9.12743
G1 X73.667 Y45.646 E9.15302
G1 X72.936 Y45.886 E9.17861
G1 X72.185 Y46.049 E9.20417
G1 X71.42 Y46.133 E9.22977
G1 X70.995 Y46.145 E9.24391
G1 X61.229 Y46.145 E9.56873
G1 X60.461 Y46.105 E9.5943
G1 X59.701 Y45.986 E9.61989
G1 X58.958 Y45.788 E9.64547
G1 X58.239 Y45.514 E9.67106
G1 X57.553 Y45.167 E9.69663
G1 X56.906 Y44.751 E9.72221
G1 X56.306 Y44.27 E9.74779
G1 X55.996 Y43.978 E9.76195
G1 X55.879 Y43.861 E9.76745
G1 X55.365 Y43.289 E9.79303
G1 X54.912 Y42.667 E9.81862
G1 X54.526 Y42.002 E9.8442
G1 X54.281 Y41.457 E9.86407
G1 X53.782 Y42.171 E9.89305
G1 X53.309 Y42.777 E9.91861
G1 X52.775 Y43.331 E9.94421
G1 X52.187 Y43.827 E9.96979
G1 X51.551 Y44.259 E9.99536
G1 X51.057 Y44.533 E10.01415
G1 X50.968 Y44.578 E10.01747
G1 X50.265 Y44.889 E10.04304
G1 X49.533 Y45.125 E10.06862
G1 X48.78 Y45.284 E10.09422
G1 X48.015 Y45.364 E10.1198
G1 X47.629 Y45.374 E10.13264
G1 X39.59 Y45.374 E10.40002
G1 X39.442 Y45.46 E10.40571
G1 X38.74 Y45.775 E10.4313
G1 X38.009 Y46.015 E10.45689
G1 X37.258 Y46.178 E10.48245
G1 X36.493 Y46.262 E10.50805
G1 X36.068 Y46.274 E10.52219
G1 X35.302 Y46.274 E10.54767
G1 X34.534 Y46.234 E10.57325
G1 X33.774 Y46.115 E10.59883
G1 X33.031 Y45.917 E10.62441
G1 X32.312 Y45.643 E10.65
G1 X31.626 Y45.296 E10.67557
G1 X30.979 Y44.88 E10.70115
G1 X30.379 Y44.399 E10.72673
G1 X30.069 Y44.107 E10.74089
G1 X29.952 Y43.99 E10.7464
G1 X29.438 Y43.418 E10.77197
G1 X28.985 Y42.796 E10.79757
G1 X28.599 Y42.131 E10.82314
G1 X28.284 Y41.429 E10.84873
G1 X28.044 Y40.698 E10.87432
G1 X27.881 Y39.947 E10.89988
G1 X27.797 Y39.182 E10.92548
G1 X27.785 Y38.757 E10.93962
G1 X27.785 Y34.546 E11.07968
G1 X27.405 Y34.546 E11.09232
G1 X26.637 Y34.506 E11.1179
G1 X25.877 Y34.387 E11.14348
G1 X25.134 Y34.189 E11.16906
G1 X24.415 Y33.915 E11.19465
G1 X23.729 Y33.568 E11.22022
G1 X23.082 Y33.152 E11.2458
G1 X22.482 Y32.671 E11.27138
G1 X22.172 Y32.379 E11.28554
G1 X22.055 Y32.262 E11.29105
G1 X21.541 Y31.69 E11.31662
G1 X21.088 Y31.068 E11.34222
G1 X20.702 Y30.403 E11.36779
G1 X20.387 Y29.701 E11.39338
G1 X20.147 Y28.97 E11.41897
G1 X19.984 Y28.219 E11.44453
G1 X19.9 Y27.454 E11.47013
G1 X19.888 Y27.029 E11.48427
G1 X19.888 Y16.363 E11.83902
G1 X19.928 Y15.595 E11.8646
G1 X20.047 Y14.835 E11.89019
G1 X20.245 Y14.092 E11.91576
G1 X20.519 Y13.373 E11.94135
G1 X20.866 Y12.687 E11.96692
G0 F6000 X21.265 Y12.797
G1 F1200 X21.68 Y12.174 E11.99182
G1 X22.338 Y11.413 E12.02528
G1 X22.455 Y11.296 E12.03078
G1 X23.012 Y10.796 E12.05568
G1 X23.618 Y10.359 E12.08053
G1 X24.268 Y9.988 E12.10542
G1 X24.954 Y9.689 E12.13031
G1 X25.668 Y9.465 E12.1552
G1 X26.401 Y9.318 E12.18007
G1 X27.405 Y9.246 E12.21354
G1 X44.071 Y9.246 E12.76786
G1 X44.818 Y9.286 E12.79274
G1 X45.556 Y9.405 E12.8176
G1 X46.278 Y9.603 E12.8425
G1 X46.974 Y9.876 E12.86737
G1 X47.637 Y10.223 E12.89226
G1 X48.06 Y10.505 E12.90917
G1 X48.092 Y10.487 E12.91039
G1 X48.778 Y10.188 E12.93528
G1 X49.492 Y9.964 E12.96017
G1 X50.225 Y9.817 E12.98503
G1 X51.229 Y9.745 E13.01851
G1 X70.995 Y9.745 E13.67593
G1 X71.742 Y9.785 E13.70081
G1 X72.48 Y9.904 E13.72567
G1 X73.202 Y10.102 E13.75057
G1 X73.898 Y10.375 E13.77544
G1 X74.561 Y10.722 E13.80033
G1 X75.184 Y11.137 E13.82523
G1 X75.758 Y11.616 E13.85009
G1 X76.279 Y12.153 E13.87498
G1 X76.738 Y12.743 E13.89984
G1 X77.133 Y13.379 E13.92474
G1 X77.457 Y14.053 E13.94961
G1 X77.707 Y14.758 E13.97449
G1 X77.881 Y15.486 E13.99939
G1 X77.976 Y16.228 E14.02427
G1 X77.995 Y16.708 E14.04025
G1 X78.112 Y38.591 E14.76809
G1 X78.076 Y39.338 E14.79296
G1 X77.96 Y40.077 E14.81784
G1 X77.767 Y40.799 E14.8427
G1 X77.497 Y41.497 E14.86759
G1 X77.154 Y42.162 E14.89248
G1 X76.743 Y42.787 E14.91736
G1 X76.062 Y43.578 E14.95207
G1 X75.945 Y43.695 E14.95758
G1 X75.388 Y44.195 E14.98247
G1 X74.782 Y44.632 E15.00732
G1 X74.132 Y45.003 E15.03221
G1 X73.446 Y45.302 E15.0571
G1 X72.732 Y45.526 E15.08199
G1 X71.999 Y45.673 E15.10686
G1 X70.995 Y45.745 E15.14034
G1 X61.229 Y45.745 E15.46516
G1 X60.482 Y45.705 E15.49004
G1 X59.744 Y45.586 E15.5149
G1 X59.022 Y45.388 E15.5398
G1 X58.326 Y45.115 E15.56467
G1 X57.663 Y44.768 E15.58956
G1 X57.04 Y44.353 E15.61445
G1 X56.279 Y43.695 E15.64791
G1 X56.162 Y43.578 E15.65342
G1 X55.662 Y43.021 E15.67831
G1 X55.225 Y42.415 E15.70316
G1 X54.854 Y41.765 E15.72805
G1 X54.555 Y41.079 E15.75294
G1 X54.401 Y40.587 E15.77009
G1 X53.454 Y41.941 E15.82505
G1 X52.993 Y42.531 E15.84995
G1 X52.472 Y43.067 E15.87481
G1 X51.896 Y43.545 E15.89971
G1 X51.273 Y43.959 E15.92459
G1 X50.877 Y44.176 E15.93961
G1 X50.788 Y44.221 E15.94292
G1 X50.103 Y44.522 E15.96781
G1 X49.39 Y44.749 E15.9927
G1 X48.657 Y44.898 E16.01757
G1 X47.629 Y44.974 E16.05186
G1 X39.482 Y44.974 E16.32283
G1 X39.205 Y45.132 E16.33343
G1 X38.519 Y45.431 E16.35832
G1 X37.805 Y45.655 E16.38321
G1 X37.072 Y45.802 E16.40808
G1 X36.068 Y45.874 E16.44156
G1 X35.302 Y45.874 E16.46703
G1 X34.555 Y45.834 E16.49192
G1 X33.817 Y45.715 E16.51678
G1 X33.095 Y45.517 E16.54168
G1 X32.399 Y45.244 E16.56655
G1 X31.736 Y44.897 E16.59143
G1 X31.113 Y44.482 E16.61633
G1 X30.352 Y43.824 E16.64979
G1 X30.235 Y43.707 E16.6553
G1 X29.735 Y43.15 E16.68019
G1 X29.298 Y42.544 E16.70504
G1 X28.927 Y41.894 E16.72993
G1 X28.628 Y41.208 E16.75482
G1 X28.404 Y40.494 E16.77971
G1 X28.257 Y39.761 E16.80458
G1 X28.185 Y38.757 E16.83806
G1 X28.185 Y34.146 E16.99142
G1 X27.405 Y34.146 E17.01736
G1 X26.658 Y34.106 E17.04224
G1 X25.92 Y33.987 E17.06711
G1 X25.198 Y33.789 E17.09201
G1 X24.502 Y33.516 E17.11687
G1 X23.839 Y33.169 E17.14176
G1 X23.216 Y32.754 E17.16666
G1 X22.455 Y32.096 E17.20012
G1 X22.338 Y31.979 E17.20562
G1 X21.838 Y31.422 E17.23052
G1 X21.401 Y30.816 E17.25537
G1 X21.03 Y30.166 E17.28026
G1 X20.731 Y29.48 E17.30515
G1 X20.507 Y28.766 E17.33004
G1 X20.36 Y28.033 E17.3549
G1 X20.288 Y27.029 E17.38838
G1 X20.288 Y16.363 E17.74313
G1 X20.328 Y15.616 E17.76802
G1 X20.447 Y14.878 E17.79288
G1 X20.645 Y14.156 E17.81778
G1 X20.918 Y13.46 E17.84265
G1 X21.265 Y12.797 E17.86753
G0 F6000 X21.663 Y12.91
G1 F1200 X22.077 Y12.313 E17.8917
G1 X22.621 Y11.696 E17.91906
G1 X22.738 Y11.579 E17.92456
G1 X23.279 Y11.095 E17.9487
G1 X23.87 Y10.672 E17.97288
G1 X24.504 Y10.318 E17.99703
G1 X25.173 Y10.035 E18.02119
G1 X25.869 Y9.827 E18.04535
G1 X26.584 Y9.697 E18.06952
G1 X27.405 Y9.646 E18.09688
G1 X44.071 Y9.646 E18.65119
G1 X44.796 Y9.686 E18.67534
G1 X45.513 Y9.805 E18.69952
G1 X46.212 Y10.003 E18.72368
G1 X46.885 Y10.276 E18.74784
G1 X47.524 Y10.621 E18.77199
G1 X48.039 Y10.978 E18.79283
G1 X48.328 Y10.817 E18.80383
G1 X48.997 Y10.534 E18.82799
G1 X49.693 Y10.326 E18.85215
G1 X50.408 Y10.196 E18.87633
G1 X51.229 Y10.145 E18.90368
G1 X70.995 Y10.145 E19.5611
G1 X71.72 Y10.185 E19.58525
G1 X72.437 Y10.304 E19.60943
G1 X73.136 Y10.502 E19.63359
G1 X73.809 Y10.775 E19.65775
G1 X74.448 Y11.12 E19.6819
G1 X75.045 Y11.534 E19.70606
G1 X75.593 Y12.01 E19.73021
G1 X76.086 Y12.544 E19.75438
G1 X76.516 Y13.129 E19.77853
G1 X76.88 Y13.758 E19.8027
G1 X77.173 Y14.423 E19.82687
G1 X77.391 Y15.116 E19.85103
G1 X77.531 Y15.828 E19.87517
G1 X77.595 Y16.71 E19.90458
G1 X77.712 Y38.593 E20.63242
G1 X77.676 Y39.318 E20.65656
G1 X77.56 Y40.035 E20.68072
G1 X77.367 Y40.735 E20.70487
G1 X77.097 Y41.41 E20.72905
G1 X76.755 Y42.051 E20.75322
G1 X76.345 Y42.65 E20.77736
G1 X75.779 Y43.295 E20.8059
G1 X75.662 Y43.412 E20.8114
G1 X75.121 Y43.896 E20.83555
G1 X74.53 Y44.319 E20.85972
G1 X73.896 Y44.673 E20.88387
G1 X73.227 Y44.956 E20.90803
G1 X72.531 Y45.164 E20.93219
G1 X71.816 Y45.294 E20.95636
G1 X70.995 Y45.345 E20.98372
G1 X61.229 Y45.345 E21.30854
G1 X60.504 Y45.305 E21.33269
G1 X59.787 Y45.186 E21.35686
G1 X59.088 Y44.988 E21.38103
G1 X58.415 Y44.715 E21.40518
G1 X57.776 Y44.37 E21.42934
G1 X57.179 Y43.956 E21.4535
G1 X56.562 Y43.412 E21.48086
G1 X56.445 Y43.295 E21.48636
G1 X55.961 Y42.754 E21.51051
G1 X55.538 Y42.163 E21.53468
G1 X55.184 Y41.529 E21.55883
G1 X54.901 Y40.86 E21.58299
G1 X54.693 Y40.164 E21.60715
G1 X54.593 Y39.615 E21.62571
G1 X53.126 Y41.712 E21.71083
G1 X52.678 Y42.283 E21.73497
G1 X52.169 Y42.802 E21.75915
G1 X51.607 Y43.262 E21.7833
G1 X50.696 Y43.819 E21.81882
G1 X50.607 Y43.864 E21.82214
G1 X49.942 Y44.156 E21.84629
G1 X49.249 Y44.372 E21.87043
G1 X48.536 Y44.511 E21.8946
G1 X47.629 Y44.574 E21.92484
G1 X39.377 Y44.574 E22.1993
G1 X38.969 Y44.802 E22.21484
G1 X38.3 Y45.085 E22.239
G1 X37.604 Y45.293 E22.26316
G1 X36.889 Y45.423 E22.28733
G1 X36.068 Y45.474 E22.31469
G1 X35.302 Y45.474 E22.34017
G1 X34.577 Y45.434 E22.36432
G1 X33.86 Y45.315 E22.3885
G1 X33.161 Y45.117 E22.41266
G1 X32.488 Y44.844 E22.43681
G1 X31.849 Y44.499 E22.46097
G1 X31.252 Y44.085 E22.48513
G1 X30.635 Y43.541 E22.51249
G1 X30.518 Y43.424 E22.51799
G1 X30.034 Y42.883 E22.54214
G1 X29.611 Y42.292 E22.56631
G1 X29.257 Y41.658 E22.59046
G1 X28.974 Y40.989 E22.61462
G1 X28.766 Y40.293 E22.63878
G1 X28.636 Y39.578 E22.66295
G1 X28.585 Y38.757 E22.69031
G1 X28.585 Y33.746 E22.85698
G1 X27.405 Y33.746 E22.89623
G1 X26.68 Y33.706 E22.92038
G1 X25.963 Y33.587 E22.94455
G1 X25.264 Y33.389 E22.96871
G1 X24.591 Y33.116 E22.99287
G1 X23.952 Y32.771 E23.01702
G1 X23.355 Y32.357 E23.04118
G1 X22.738 Y31.813 E23.06854
G1 X22.621 Y31.696 E23.07405
G1 X22.137 Y31.155 E23.09819
G1 X21.714 Y30.564 E23.12236
G1 X21.36 Y29.93 E23.14651
G1 X21.077 Y29.261 E23.17067
G1 X20.869 Y28.565 E23.19484
G1 X20.739 Y27.85 E23.21901
G1 X20.688 Y27.029 E23.24637
G1 X20.688 Y16.363 E23.60112
G1 X20.728 Y15.638 E23.62527
G1 X20.847 Y14.921 E23.64944
G1 X21.045 Y14.222 E23.67361
G1 X21.318 Y13.549 E23.69776
G1 X21.663 Y12.91 E23.72191
G0 F6000 X21.717 Y13.642
G1 F1200 X22.062 Y13.028 E23.74534
G1 X22.473 Y12.457 E23.76874
G1 X22.904 Y11.979 E23.79015
G1 X23.021 Y11.862 E23.79565
G1 X23.546 Y11.393 E23.81906
G1 X24.121 Y10.987 E23.84247
G1 X24.739 Y10.649 E23.8659
G1 X25.39 Y10.382 E23.88931
G1 X26.068 Y10.192 E23.91272
G1 X26.763 Y10.079 E23.93614
G1 X27.405 Y10.046 E23.95753
