;FLAVOR:Marlin
;TIME:2926
;Filament used: 2.10301m
;Layer height: 0.24
;MINX:23.731
;MINY:12.606
;MINZ:0.2
;MAXX:74.331
;MAXY:77.206
;MAXZ:14.84
;POSTPROCESSED
;Generated with Cura_SteamEngine 4.4.0
M140 S60
M105
M190 S60
M104 S200
M105
M109 S200
M82 ;absolute extrusion mode
M201 X500.00 Y500.00 Z100.00 E5000.00 ;Setup machine max acceleration
M203 X500.00 Y500.00 Z10.00 E50.00 ;Setup machine max feedrate
M204 P500.00 R1000.00 T500.00 ;Setup Print/Retract/Travel acceleration
M205 X8.00 Y8.00 Z0.40 E5.00 ;Setup Jerk
M220 S100 ;Reset Feedrate
M221 S100 ;Reset Flowrate

G28 ;Home

G92 E0 ;Reset Extruder
G1 Z2.0 F3000 ;Move Z Axis up
G1 X10.1 Y20 Z0.28 F5000.0 ;Move to start position
G1 X10.1 Y200.0 Z0.28 F1500.0 E15 ;Draw the first line
G1 X10.4 Y200.0 Z0.28 F5000.0 ;Move to side a little
G1 X10.4 Y20 Z0.28 F1500.0 E30 ;Draw the second line
G92 E0 ;Reset Extruder
G1 Z2.0 F3000 ;Move Z Axis up

G92 E0
G92 E0
G1 F2700 E-5
;LAYER_COUNT:62
;LAYER:[layer_num]
;LAYER:0
M107
M204 S500
M205 X8 Y8
G0 F6000 X25.128 Y16.069 Z0.2
;TYPE:SKIRT
G1 F2700 E0
G1 F1200 X25.611 Y15.445 E0.02625
G1 X26.016 Y15.008 E0.04606
G1 X26.133 Y14.891 E0.05157
G1 X26.719 Y14.361 E0.07785
G1 X27.355 Y13.894 E0.10409
G1 X28.035 Y13.493 E0.13035
G1 X28.753 Y13.163 E0.15663
G1 X29.5 Y12.908 E0.18288
G1 X30.269 Y12.729 E0.20914
G1 X31.053 Y12.629 E0.23543
G1 X31.648 Y12.606 E0.25523
G1 X66.414 Y12.606 E1.41156
G1 X67.203 Y12.646 E1.43783
G1 X67.983 Y12.765 E1.46407
G1 X68.748 Y12.963 E1.49036
G1 X69.488 Y13.237 E1.5166
G1 X70.197 Y13.585 E1.54287
G1 X70.868 Y14.003 E1.56916
G1 X71.492 Y14.486 E1.59541
G1 X71.929 Y14.891 E1.61523
G1 X72.046 Y15.008 E1.62073
G1 X72.576 Y15.594 E1.64701
G1 X73.043 Y16.23 E1.67325
G1 X73.444 Y16.91 E1.69951
G1 X73.774 Y17.628 E1.72579
G1 X74.029 Y18.375 E1.75205
G1 X74.208 Y19.144 E1.77831
G1 X74.308 Y19.928 E1.80459
G1 X74.331 Y20.523 E1.8244
G1 X74.331 Y64.416 E3.28428
G1 X74.308 Y65.013 E3.30416
G1 X74.251 Y65.756 E3.32894
G1 X74.151 Y66.539 E3.3552
G1 X74.069 Y66.937 E3.36871
G1 X73.889 Y67.706 E3.39498
G1 X73.67 Y68.465 E3.42125
G1 X73.506 Y68.898 E3.43665
G1 X73.207 Y69.624 E3.46277
G1 X72.87 Y70.338 E3.48903
G1 X72.67 Y70.689 E3.50246
G1 X72.265 Y71.359 E3.5285
G1 X71.823 Y72.013 E3.55476
G1 X71.54 Y72.368 E3.56986
G1 X71.033 Y72.966 E3.59593
G1 X70.492 Y73.542 E3.62222
G1 X70.181 Y73.825 E3.6362
G1 X69.587 Y74.338 E3.66231
G1 X68.964 Y74.823 E3.68857
G1 X68.593 Y75.068 E3.70335
G1 X67.927 Y75.48 E3.7294
G1 X67.235 Y75.861 E3.75567
G1 X66.842 Y76.039 E3.77002
G1 X66.113 Y76.345 E3.79632
G1 X65.37 Y76.613 E3.82259
G1 X64.948 Y76.729 E3.83715
G1 X64.192 Y76.914 E3.86303
G1 X63.416 Y77.063 E3.88932
G1 X62.993 Y77.11 E3.90347
G1 X62.21 Y77.176 E3.92961
G1 X61.559 Y77.204 E3.95128
G1 X57.504 Y77.206 E4.08615
G1 X56.864 Y77.18 E4.10745
G1 X56.057 Y77.114 E4.13438
G1 X55.274 Y77.01 E4.16065
G1 X54.79 Y76.904 E4.17713
G1 X53.979 Y76.7 E4.20495
G1 X53.224 Y76.469 E4.23121
G1 X52.763 Y76.285 E4.24772
G1 X52.002 Y75.953 E4.27533
G1 X51.295 Y75.601 E4.3016
G1 X50.844 Y75.327 E4.31915
G1 X50.147 Y74.87 E4.34687
G1 X49.51 Y74.404 E4.37312
G1 X49.126 Y74.072 E4.39001
G1 X48.51 Y73.502 E4.41792
G1 X47.959 Y72.937 E4.44417
G1 X47.629 Y72.537 E4.46142
G1 X47.119 Y71.875 E4.48921
G1 X46.669 Y71.226 E4.51548
G1 X46.414 Y70.782 E4.53251
G1 X46.022 Y70.046 E4.56024
G1 X45.686 Y69.331 E4.58652
G1 X45.503 Y68.837 E4.60404
G1 X45.242 Y68.051 E4.63159
G1 X45.032 Y67.29 E4.65784
G1 X44.942 Y66.817 E4.67386
G1 X44.809 Y65.98 E4.70205
G1 X44.791 Y65.862 E4.70602
G1 X44.659 Y64.941 E4.73696
G1 X44.565 Y64.627 E4.74786
G1 X44.423 Y64.329 E4.75884
G1 X44.236 Y64.052 E4.76996
G1 X44.021 Y63.818 E4.78053
G1 X43.772 Y63.618 E4.79115
G1 X43.476 Y63.445 E4.80255
G1 X43.18 Y63.328 E4.81314
G1 X42.832 Y63.248 E4.82502
G1 X42.257 Y63.206 E4.84419
G1 X31.648 Y63.206 E5.19705
G1 X30.859 Y63.166 E5.22333
G1 X30.079 Y63.047 E5.24957
G1 X29.314 Y62.849 E5.27585
G1 X28.574 Y62.575 E5.3021
G1 X27.865 Y62.227 E5.32836
G1 X27.194 Y61.809 E5.35466
G1 X26.57 Y61.326 E5.3809
G1 X26.133 Y60.921 E5.40072
G1 X26.016 Y60.804 E5.40622
G1 X25.486 Y60.218 E5.4325
G1 X25.019 Y59.582 E5.45875
G1 X24.618 Y58.902 E5.485
G1 X24.288 Y58.184 E5.51129
G1 X24.033 Y57.437 E5.53754
G1 X23.854 Y56.668 E5.5638
G1 X23.754 Y55.884 E5.59009
G1 X23.731 Y55.289 E5.60989
G1 X23.731 Y20.523 E6.76621
G1 X23.771 Y19.734 E6.79249
G1 X23.89 Y18.954 E6.81873
G1 X24.088 Y18.189 E6.84502
G1 X24.362 Y17.449 E6.87126
G1 X24.71 Y16.74 E6.89753
G1 X25.128 Y16.069 E6.92382
G0 F6000 X25.525 Y16.2
G1 F1200 X26.006 Y15.6 E6.9494
G1 X26.298 Y15.29 E6.96356
G1 X26.415 Y15.173 E6.96907
G1 X26.987 Y14.659 E6.99465
G1 X27.609 Y14.206 E7.02024
G1 X28.274 Y13.82 E7.04581
G1 X28.976 Y13.505 E7.0714
G1 X29.707 Y13.265 E7.09699
G1 X30.458 Y13.102 E7.12255
G1 X31.223 Y13.018 E7.14815
G1 X31.648 Y13.006 E7.16229
G1 X66.414 Y13.006 E8.31861
G1 X67.182 Y13.046 E8.34419
G1 X67.942 Y13.165 E8.36978
G1 X68.685 Y13.363 E8.39535
G1 X69.404 Y13.637 E8.42094
G1 X70.09 Y13.984 E8.44651
G1 X70.737 Y14.4 E8.4721
G1 X71.337 Y14.881 E8.49767
G1 X71.647 Y15.173 E8.51184
G1 X71.764 Y15.29 E8.51734
G1 X72.278 Y15.862 E8.54292
G1 X72.731 Y16.484 E8.56851
G1 X73.117 Y17.149 E8.59409
G1 X73.432 Y17.851 E8.61968
G1 X73.672 Y18.582 E8.64527
G1 X73.835 Y19.333 E8.67083
G1 X73.919 Y20.098 E8.69642
G1 X73.931 Y20.523 E8.71057
G1 X73.931 Y64.416 E10.17045
G1 X73.909 Y64.982 E10.18929
G1 X73.852 Y65.725 E10.21408
G1 X73.679 Y66.846 E10.2518
G1 X73.499 Y67.615 E10.27807
G1 X73.285 Y68.353 E10.30363
G1 X73.136 Y68.746 E10.31761
G1 X72.837 Y69.472 E10.34372
G1 X72.328 Y70.482 E10.38134
G1 X71.923 Y71.152 E10.40738
G1 X71.491 Y71.789 E10.43298
G1 X71.234 Y72.109 E10.44663
G1 X70.727 Y72.707 E10.47271
G1 X69.92 Y73.522 E10.51085
G1 X69.326 Y74.035 E10.53696
G1 X68.718 Y74.507 E10.56256
G1 X68.382 Y74.728 E10.57593
G1 X67.716 Y75.14 E10.60198
G1 X67.042 Y75.51 E10.62755
G1 X66.687 Y75.67 E10.64051
G1 X65.958 Y75.976 E10.6668
G1 X65.234 Y76.237 E10.6924
G1 X64.853 Y76.341 E10.70553
G1 X64.097 Y76.526 E10.73142
G1 X62.96 Y76.712 E10.76974
G1 X62.177 Y76.778 E10.79588
G1 X61.559 Y76.804 E10.81645
G1 X57.504 Y76.806 E10.95132
G1 X56.897 Y76.781 E10.97152
G1 X56.09 Y76.715 E10.99845
G1 X55.328 Y76.613 E11.02403
G1 X54.888 Y76.516 E11.03901
G1 X54.077 Y76.312 E11.06683
G1 X53.342 Y76.086 E11.0924
G1 X52.923 Y75.919 E11.1074
G1 X52.162 Y75.587 E11.13502
G1 X51.474 Y75.243 E11.1606
G1 X51.063 Y74.992 E11.17662
G1 X50.366 Y74.535 E11.20434
G1 X49.746 Y74.081 E11.2299
G1 X49.398 Y73.778 E11.24525
G1 X48.782 Y73.208 E11.27316
G1 X48.246 Y72.657 E11.29873
G1 X47.946 Y72.293 E11.31442
G1 X47.436 Y71.631 E11.34221
G1 X46.999 Y70.998 E11.36779
G1 X46.767 Y70.594 E11.38329
G1 X46.375 Y69.858 E11.41102
G1 X46.049 Y69.161 E11.43662
G1 X45.883 Y68.711 E11.45257
G1 X45.622 Y67.925 E11.48012
G1 X45.418 Y67.183 E11.50571
G1 X45.337 Y66.754 E11.52023
G1 X45.204 Y65.917 E11.54842
G1 X45.187 Y65.805 E11.55219
G1 X45.051 Y64.854 E11.58414
G1 X44.939 Y64.482 E11.59706
G1 X44.773 Y64.132 E11.60994
G1 X44.551 Y63.804 E11.62312
G1 X44.295 Y63.525 E11.63571
G1 X43.994 Y63.284 E11.64854
G1 X43.655 Y63.086 E11.66159
G1 X43.298 Y62.945 E11.67436
G1 X42.893 Y62.851 E11.68819
G1 X42.272 Y62.806 E11.7089
G1 X31.648 Y62.806 E12.06225
G1 X30.88 Y62.766 E12.08783
G1 X30.12 Y62.647 E12.11342
G1 X29.377 Y62.449 E12.13899
G1 X28.658 Y62.175 E12.16458
G1 X27.972 Y61.828 E12.19015
G1 X27.325 Y61.412 E12.21574
G1 X26.725 Y60.931 E12.24131
G1 X26.415 Y60.639 E12.25548
G1 X26.298 Y60.522 E12.26098
G1 X25.784 Y59.95 E12.28656
G1 X25.331 Y59.328 E12.31215
G1 X24.945 Y58.663 E12.33773
G1 X24.63 Y57.961 E12.36332
G1 X24.39 Y57.23 E12.38891
G1 X24.227 Y56.479 E12.41447
G1 X24.143 Y55.714 E12.44006
G1 X24.131 Y55.289 E12.45421
G1 X24.131 Y20.523 E13.61053
G1 X24.171 Y19.755 E13.63611
G1 X24.29 Y18.995 E13.66169
G1 X24.488 Y18.252 E13.68727
G1 X24.762 Y17.533 E13.71286
G1 X25.109 Y16.847 E13.73843
G1 X25.525 Y16.2 E13.76401
G0 F6000 X25.923 Y16.334
G1 F1200 X26.581 Y15.573 E13.79747
G1 X26.698 Y15.456 E13.80297
G1 X27.255 Y14.956 E13.82787
G1 X27.861 Y14.519 E13.85272
G1 X28.511 Y14.148 E13.87761
G1 X29.197 Y13.849 E13.9025
G1 X29.911 Y13.625 E13.92739
G1 X30.644 Y13.478 E13.95226
G1 X31.648 Y13.406 E13.98573
G1 X66.414 Y13.406 E15.14206
G1 X67.161 Y13.446 E15.16694
G1 X67.899 Y13.565 E15.1918
G1 X68.621 Y13.763 E15.2167
G1 X69.317 Y14.036 E15.24157
G1 X69.98 Y14.383 E15.26646
G1 X70.603 Y14.798 E15.29135
G1 X71.364 Y15.456 E15.32481
G1 X71.481 Y15.573 E15.33032
G1 X71.981 Y16.13 E15.35521
G1 X72.418 Y16.736 E15.38006
G1 X72.789 Y17.386 E15.40495
G1 X73.088 Y18.072 E15.42984
G1 X73.312 Y18.786 E15.45473
G1 X73.459 Y19.519 E15.4796
G1 X73.531 Y20.523 E15.51308
G1 X73.531 Y64.416 E16.97296
G1 X73.51 Y64.951 E16.99077
G1 X73.453 Y65.694 E17.01556
G1 X73.29 Y66.754 E17.05123
G1 X73.11 Y67.523 E17.0775
G1 X72.901 Y68.242 E17.1024
G1 X72.767 Y68.594 E17.11493
G1 X72.468 Y69.32 E17.14104
G1 X71.986 Y70.275 E17.17662
G1 X71.581 Y70.945 E17.20266
G1 X70.929 Y71.851 E17.23979
G1 X70.422 Y72.449 E17.26586
G1 X69.658 Y73.22 E17.30196
G1 X69.064 Y73.733 E17.32807
G1 X68.172 Y74.388 E17.36488
G1 X67.506 Y74.8 E17.39092
G1 X66.532 Y75.301 E17.42735
G1 X65.803 Y75.607 E17.45365
G1 X64.758 Y75.952 E17.49025
G1 X64.002 Y76.137 E17.51614
G1 X62.926 Y76.313 E17.5524
G1 X62.143 Y76.379 E17.57854
G1 X61.558 Y76.404 E17.59801
G1 X57.503 Y76.406 E17.73288
G1 X56.929 Y76.383 E17.75199
G1 X56.122 Y76.317 E17.77892
G1 X55.381 Y76.216 E17.80379
G1 X54.985 Y76.129 E17.81728
G1 X54.174 Y75.925 E17.84509
G1 X53.46 Y75.704 E17.86995
G1 X53.083 Y75.552 E17.88347
G1 X52.322 Y75.22 E17.91108
G1 X51.653 Y74.885 E17.93597
G1 X51.283 Y74.658 E17.95041
G1 X50.586 Y74.201 E17.97813
G1 X49.983 Y73.758 E18.00301
G1 X49.67 Y73.485 E18.01683
G1 X49.054 Y72.915 E18.04474
G1 X48.533 Y72.378 E18.06963
G1 X48.263 Y72.049 E18.08378
G1 X47.753 Y71.387 E18.11158
G1 X47.329 Y70.771 E18.13645
G1 X47.12 Y70.406 E18.15044
G1 X46.728 Y69.67 E18.17817
G1 X46.412 Y68.992 E18.20305
G1 X46.263 Y68.585 E18.21747
G1 X46.002 Y67.799 E18.24502
G1 X45.804 Y67.077 E18.26992
G1 X45.732 Y66.692 E18.28294
G1 X45.599 Y65.855 E18.31113
G1 X45.583 Y65.749 E18.3147
G1 X45.442 Y64.767 E18.34769
G1 X45.313 Y64.338 E18.36259
G1 X45.119 Y63.93 E18.37762
G1 X44.866 Y63.555 E18.39266
G1 X44.573 Y63.235 E18.4071
G1 X44.219 Y62.952 E18.42217
G1 X43.829 Y62.724 E18.43719
G1 X43.418 Y62.562 E18.45189
G1 X42.954 Y62.455 E18.46773
G1 X42.288 Y62.406 E18.48994
G1 X31.648 Y62.406 E18.84383
G1 X30.901 Y62.366 E18.86871
G1 X30.163 Y62.247 E18.89357
G1 X29.441 Y62.049 E18.91847
G1 X28.745 Y61.776 E18.94334
G1 X28.082 Y61.429 E18.96822
G1 X27.459 Y61.014 E18.99312
G1 X26.698 Y60.356 E19.02658
G1 X26.581 Y60.239 E19.03209
G1 X26.081 Y59.682 E19.05698
G1 X25.644 Y59.076 E19.08183
G1 X25.273 Y58.426 E19.10672
G1 X24.974 Y57.74 E19.13161
G1 X24.75 Y57.026 E19.1565
G1 X24.603 Y56.293 E19.18137
G1 X24.531 Y55.289 E19.21485
G1 X24.531 Y20.523 E20.37117
G1 X24.571 Y19.776 E20.39605
G1 X24.69 Y19.038 E20.42091
G1 X24.888 Y18.316 E20.44581
G1 X25.161 Y17.62 E20.47068
G1 X25.508 Y16.957 E20.49557
G1 X25.923 Y16.334 E20.52047
G0 F6000 X26.32 Y16.473
G1 F1200 X26.864 Y15.856 E20.54782
G1 X26.981 Y15.739 E20.55333
G1 X27.522 Y15.255 E20.57747
G1 X28.113 Y14.832 E20.60164
G1 X28.747 Y14.478 E20.6258
G1 X29.416 Y14.195 E20.64996
G1 X30.112 Y13.987 E20.67412
G1 X30.827 Y13.857 E20.69829
G1 X31.648 Y13.806 E20.72565
G1 X66.414 Y13.806 E21.88197
G1 X67.139 Y13.846 E21.90612
G1 X67.856 Y13.965 E21.93029
G1 X68.555 Y14.163 E21.95446
G1 X69.228 Y14.436 E21.97861
G1 X69.867 Y14.781 E22.00276
G1 X70.464 Y15.195 E22.02693
G1 X71.081 Y15.739 E22.05429
G1 X71.198 Y15.856 E22.05979
G1 X71.682 Y16.397 E22.08393
G1 X72.105 Y16.988 E22.10811
G1 X72.459 Y17.622 E22.13226
G1 X72.742 Y18.291 E22.15642
G1 X72.95 Y18.987 E22.18058
G1 X73.08 Y19.702 E22.20475
G1 X73.131 Y20.523 E22.23211
G1 X73.131 Y64.416 E23.692
G1 X73.112 Y64.921 E23.7088
G1 X73.055 Y65.664 E23.73359
G1 X72.9 Y66.663 E23.76721
G1 X72.72 Y67.432 E23.79348
G1 X72.397 Y68.441 E23.82872
G1 X72.098 Y69.167 E23.85483
G1 X71.643 Y70.068 E23.8884
G1 X71.238 Y70.738 E23.91444
G1 X70.624 Y71.592 E23.94943
G1 X70.117 Y72.19 E23.9755
G1 X69.397 Y72.917 E24.00953
G1 X68.803 Y73.43 E24.03564
G1 X67.961 Y74.048 E24.07038
G1 X67.295 Y74.46 E24.09643
G1 X66.377 Y74.933 E24.13077
G1 X65.648 Y75.239 E24.15707
G1 X64.663 Y75.564 E24.19157
G1 X63.907 Y75.749 E24.21745
G1 X62.892 Y75.915 E24.25166
G1 X62.109 Y75.981 E24.2778
G1 X61.558 Y76.004 E24.29614
G1 X57.503 Y76.006 E24.43101
G1 X56.962 Y75.984 E24.44902
G1 X56.155 Y75.918 E24.47595
G1 X55.083 Y75.741 E24.51209
G1 X54.272 Y75.537 E24.5399
G1 X53.243 Y75.185 E24.57607
G1 X52.482 Y74.853 E24.60369
G1 X51.833 Y74.527 E24.62784
G1 X51.502 Y74.323 E24.64077
G1 X50.805 Y73.866 E24.6685
G1 X50.221 Y73.435 E24.69264
G1 X49.941 Y73.191 E24.70499
G1 X49.325 Y72.621 E24.7329
G1 X48.82 Y72.099 E24.75706
G1 X48.58 Y71.805 E24.76968
G1 X48.07 Y71.143 E24.79748
G1 X47.659 Y70.544 E24.82164
G1 X47.473 Y70.218 E24.83412
G1 X47.081 Y69.482 E24.86186
G1 X46.775 Y68.823 E24.88602
G1 X46.642 Y68.459 E24.89891
G1 X46.381 Y67.673 E24.92646
G1 X46.127 Y66.629 E24.9622
G1 X45.994 Y65.792 E24.99038
G1 X45.979 Y65.692 E24.99375
G1 X45.834 Y64.682 E25.02768
G1 X45.688 Y64.196 E25.04456
G1 X45.467 Y63.73 E25.06172
G1 X45.183 Y63.309 E25.07861
G1 X44.841 Y62.937 E25.09541
G1 X44.453 Y62.626 E25.11195
G1 X44 Y62.362 E25.12939
G1 X43.542 Y62.181 E25.14577
G1 X43.016 Y62.059 E25.16373
G1 X42.289 Y62.006 E25.18797
G1 X31.648 Y62.006 E25.5419
G1 X30.923 Y61.966 E25.56605
G1 X30.206 Y61.847 E25.59022
G1 X29.507 Y61.649 E25.61438
G1 X28.834 Y61.376 E25.63854
G1 X28.195 Y61.031 E25.66269
G1 X27.598 Y60.617 E25.68686
G1 X26.981 Y60.073 E25.71421
G1 X26.864 Y59.956 E25.71972
G1 X26.38 Y59.415 E25.74386
G1 X25.957 Y58.824 E25.76803
G1 X25.603 Y58.19 E25.79219
G1 X25.32 Y57.521 E25.81635
G1 X25.112 Y56.825 E25.84051
G1 X24.982 Y56.11 E25.86468
G1 X24.931 Y55.289 E25.89204
G1 X24.931 Y20.523 E27.04836
G1 X24.971 Y19.798 E27.07251
G1 X25.09 Y19.081 E27.09668
G1 X25.288 Y18.382 E27.12085
G1 X25.561 Y17.709 E27.145
G1 X25.906 Y17.07 E27.16915
G1 X26.32 Y16.473 E27.19332
G0 F6000 X26.305 Y17.188
G1 F1200 X26.716 Y16.617 E27.21672
G1 X27.147 Y16.139 E27.23812
G1 X27.264 Y16.022 E27.24363
G1 X27.789 Y15.553 E27.26704
G1 X28.364 Y15.147 E27.29045
G1 X28.982 Y14.809 E27.31388
G1 X29.633 Y14.542 E27.33728
G1 X30.311 Y14.352 E27.3607
G1 X31.006 Y14.239 E27.38412
G1 X31.648 Y14.206 E27.4055
G1 X66.414 Y14.206 E28.56183
G1 X67.117 Y14.246 E28.58525
G1 X67.811 Y14.365 E28.60866
G1 X68.486 Y14.563 E28.63206
G1 X69.135 Y14.835 E28.65547
G1 X69.749 Y15.18 E28.67889
G1 X70.32 Y15.591 E28.70229
G1 X70.798 Y16.022 E28.7237
G1 X70.915 Y16.139 E28.7292
G1 X71.384 Y16.664 E28.75262
G1 X71.79 Y17.239 E28.77603
G1 X72.128 Y17.857 E28.79945
G1 X72.395 Y18.508 E28.82286
G1 X72.585 Y19.186 E28.84628
G1 X72.698 Y19.881 E28.8697
G1 X72.731 Y20.523 E28.89108
G1 X72.731 Y64.416 E30.35096
G1 X72.713 Y64.89 E30.36674
G1 X72.656 Y65.633 E30.39153
G1 X72.511 Y66.572 E30.42313
G1 X72.331 Y67.341 E30.4494
G1 X72.027 Y68.289 E30.48251
G1 X71.728 Y69.015 E30.50862
G1 X71.301 Y69.861 E30.54014
G1 X70.896 Y70.531 E30.56618
G1 X70.319 Y71.333 E30.59904
G1 X69.812 Y71.931 E30.62512
G1 X69.135 Y72.614 E30.6571
G1 X68.541 Y73.127 E30.68321
G1 X67.751 Y73.708 E30.71582
G1 X67.085 Y74.12 E30.74187
G1 X66.223 Y74.564 E30.77412
G1 X65.494 Y74.87 E30.80042
G1 X64.568 Y75.175 E30.83284
G1 X63.812 Y75.36 E30.85873
G1 X62.859 Y75.516 E30.89085
G1 X62.076 Y75.582 E30.91698
G1 X61.558 Y75.604 E30.93423
G1 X57.503 Y75.606 E31.0691
G1 X56.995 Y75.585 E31.08601
G1 X56.188 Y75.519 E31.11294
G1 X55.181 Y75.353 E31.14688
G1 X54.37 Y75.149 E31.1747
G1 X53.403 Y74.819 E31.20868
G1 X52.642 Y74.487 E31.2363
G1 X51.721 Y73.989 E31.27112
G1 X51.024 Y73.532 E31.29884
G1 X50.213 Y72.898 E31.33308
G1 X49.597 Y72.328 E31.36099
G1 X48.896 Y71.561 E31.39555
G1 X48.386 Y70.899 E31.42335
G1 X47.826 Y70.03 E31.45773
G1 X47.434 Y69.294 E31.48547
G1 X47.022 Y68.333 E31.52024
G1 X46.761 Y67.547 E31.54779
