;FLAVOR:Marlin
;TIME:1710
;Filament used: 1.17468m
;Layer height: 0.24
;MINX:23.892
;MINY:9.192
;MINZ:0.2
;MAXX:86.852
;MAXY:55.942
;MAXZ:12.92
;POSTPROCESSED
;Generated with Cura_SteamEngine 4.4.0
M140 S60
M105
M190 S60
M104 S200
M105
M109 S200
M82 ;absolute extrusion mode
M201 X500.00 Y500.00 Z100.00 E5000.00 ;Setup machine max acceleration
M203 X500.00 Y500.00 Z10.00 E50.00 ;Setup machine max feedrate
M204 P500.00 R1000.00 T500.00 ;Setup Print/Retract/Travel acceleration
M205 X8.00 Y8.00 Z0.40 E5.00 ;Setup Jerk
M220 S100 ;Reset Feedrate
M221 S100 ;Reset Flowrate

G28 ;Home

G92 E0 ;Reset Extruder
G1 Z2.0 F3000 ;Move Z Axis up
G1 X10.1 Y20 Z0.28 F5000.0 ;Move to start position
G1 X10.1 Y200.0 Z0.28 F1500.0 E15 ;Draw the first line
G1 X10.4 Y200.0 Z0.28 F5000.0 ;Move to side a little
G1 X10.4 Y20 Z0.28 F1500.0 E30 ;Draw the second line
G92 E0 ;Reset Extruder
G1 Z2.0 F3000 ;Move Z Axis up

G92 E0
G92 E0
G1 F2700 E-5
;LAYER_COUNT:54
;LAYER:[layer_num]
;LAYER:0
M107
M204 S500
M205 X8 Y8
G0 F6000 X25.381 Y15.605 Z0.2
;TYPE:SKIRT
G1 F2700 E0
G1 F1200 X25.885 Y14.814 E0.0312
G1 X26.455 Y14.069 E0.06239
G1 X27.086 Y13.375 E0.09359
G1 X27.774 Y12.737 E0.1248
G1 X28.513 Y12.161 E0.15596
G1 X29.299 Y11.649 E0.18716
G1 X30.126 Y11.206 E0.21837
G1 X30.988 Y10.836 E0.24957
G1 X31.878 Y10.54 E0.28076
G1 X32.79 Y10.321 E0.31196
G1 X33.717 Y10.18 E0.34314
G1 X34.593 Y10.12 E0.37235
G1 X34.914 Y10.111 E0.38303
G1 X35.222 Y10.107 E0.39327
G1 X42.325 Y10.107 E0.62952
G1 X44.933 Y10.07 E0.71627
G1 X47.454 Y9.963 E0.8002
G1 X49.949 Y9.786 E0.88339
G1 X52.439 Y9.539 E0.96661
G1 X53.691 Y9.379 E1.00859
G1 X53.832 Y9.362 E1.01332
G1 X54.597 Y9.274 E1.03893
G1 X55.519 Y9.207 E1.06968
G1 X55.847 Y9.197 E1.08059
G1 X56.182 Y9.192 E1.09173
G1 X75.145 Y9.192 E1.72245
G1 X75.303 Y9.193 E1.7277
G1 X76.001 Y9.203 E1.75092
G1 X76.937 Y9.257 E1.7821
G1 X77.865 Y9.389 E1.81328
G1 X78.779 Y9.601 E1.84448
G1 X79.671 Y9.89 E1.87567
G1 X80.536 Y10.253 E1.90687
G1 X81.366 Y10.689 E1.93805
G1 X82.157 Y11.194 E1.96927
G1 X82.901 Y11.765 E2.00046
G1 X83.594 Y12.397 E2.03166
G1 X84.231 Y13.085 E2.06284
G1 X84.806 Y13.826 E2.09404
G1 X85.317 Y14.612 E2.12522
G1 X85.759 Y15.44 E2.15644
G1 X86.128 Y16.302 E2.18762
G1 X86.423 Y17.192 E2.21881
G1 X86.641 Y18.104 E2.25
G1 X86.781 Y19.032 E2.28121
G1 X86.839 Y19.893 E2.30991
G1 X86.848 Y20.213 E2.32056
G1 X86.852 Y20.522 E2.33084
G1 X86.852 Y34.456 E2.79428
G1 X86.851 Y34.607 E2.79931
G1 X86.841 Y35.334 E2.82349
G1 X86.788 Y36.271 E2.8547
G1 X86.656 Y37.199 E2.88588
G1 X86.445 Y38.113 E2.91708
G1 X86.156 Y39.005 E2.94827
G1 X85.793 Y39.87 E2.97947
G1 X85.358 Y40.701 E3.01066
G1 X84.853 Y41.491 E3.04185
G1 X84.283 Y42.236 E3.07305
G1 X83.652 Y42.93 E3.10425
G1 X82.963 Y43.567 E3.13545
G1 X82.223 Y44.143 E3.16664
G1 X81.437 Y44.654 E3.19783
G1 X80.61 Y45.096 E3.22901
G1 X79.748 Y45.466 E3.26021
G1 X78.458 Y45.867 E3.30514
G1 X75.724 Y46.536 E3.39876
G1 X73.245 Y47.22 E3.48429
G1 X70.886 Y47.946 E3.56639
G1 X68.51 Y48.749 E3.6498
G1 X66.131 Y49.629 E3.73417
G1 X63.761 Y50.582 E3.81913
G1 X61.511 Y51.562 E3.90076
G1 X59.236 Y52.631 E3.98436
G1 X58.127 Y53.199 E4.0258
G1 X57.973 Y53.276 E4.03153
G1 X56.712 Y53.897 E4.07828
G1 X55.854 Y54.275 E4.10946
G1 X54.966 Y54.579 E4.14068
G1 X54.056 Y54.806 E4.17187
G1 X53.13 Y54.954 E4.20306
G1 X52.357 Y55.017 E4.22886
G1 X51.574 Y55.053 E4.25493
G1 X51.365 Y55.061 E4.26189
G1 X50.214 Y55.092 E4.30018
G1 X47.73 Y55.229 E4.38293
G1 X45.201 Y55.441 E4.46734
G1 X42.645 Y55.728 E4.55288
G1 X42.078 Y55.804 E4.57191
G1 X41.853 Y55.832 E4.57945
G1 X41.59 Y55.862 E4.58826
G1 X40.691 Y55.927 E4.61824
G1 X40.375 Y55.937 E4.62875
G1 X39.859 Y55.942 E4.64591
G1 X39.203 Y55.932 E4.66773
G1 X38.267 Y55.877 E4.69892
G1 X37.339 Y55.744 E4.7301
G1 X36.425 Y55.531 E4.76132
G1 X35.533 Y55.242 E4.7925
G1 X34.669 Y54.877 E4.8237
G1 X33.839 Y54.441 E4.85488
G1 X33.049 Y53.935 E4.88608
G1 X32.305 Y53.364 E4.91728
G1 X31.613 Y52.731 E4.94847
G1 X30.977 Y52.042 E4.97966
G1 X30.402 Y51.301 E5.01085
G1 X29.892 Y50.514 E5.04204
G1 X29.451 Y49.686 E5.07325
G1 X29.082 Y48.824 E5.10443
G1 X28.88 Y48.241 E5.12495
G1 X28.64 Y47.48 E5.15149
G1 X28.529 Y47.106 E5.16447
G1 X28.21 Y45.955 E5.20419
G1 X27.476 Y43.567 E5.28729
G1 X26.656 Y41.146 E5.3723
G1 X25.794 Y38.823 E5.45471
G1 X24.705 Y36.128 E5.55139
G1 X24.391 Y35.245 E5.58256
G1 X24.153 Y34.337 E5.61378
G1 X23.993 Y33.413 E5.64497
G1 X23.909 Y32.374 E5.67964
G1 X23.898 Y32.045 E5.69059
G1 X23.892 Y31.677 E5.70283
G1 X23.892 Y21.805 E6.03118
G1 X23.893 Y21.661 E6.03597
G1 X23.902 Y20.972 E6.05888
G1 X23.954 Y20.036 E6.09006
G1 X24.086 Y19.107 E6.12127
G1 X24.296 Y18.193 E6.15246
G1 X24.584 Y17.301 E6.18364
G1 X24.946 Y16.436 E6.21483
G1 X25.381 Y15.605 E6.24603
G0 F6000 X25.779 Y15.718
G1 F1200 X26.281 Y14.946 E6.27665
G1 X26.849 Y14.222 E6.30726
G1 X27.478 Y13.549 E6.3379
G1 X28.163 Y12.934 E6.36852
G1 X28.898 Y12.38 E6.39913
G1 X29.679 Y11.892 E6.42976
G1 X30.499 Y11.473 E6.46039
G1 X31.352 Y11.128 E6.49099
G1 X32.232 Y10.857 E6.52162
G1 X33.132 Y10.665 E6.55222
G1 X34.046 Y10.551 E6.58286
G1 X34.604 Y10.52 E6.60145
G1 X34.925 Y10.511 E6.61213
G1 X35.222 Y10.507 E6.62201
G1 X42.331 Y10.507 E6.85845
G1 X44.956 Y10.47 E6.94577
G1 X47.464 Y10.363 E7.02926
G1 X49.984 Y10.185 E7.11329
G1 X52.493 Y9.936 E7.19715
G1 X53.742 Y9.776 E7.23903
G1 X53.878 Y9.759 E7.24359
G1 X54.643 Y9.671 E7.2692
G1 X55.531 Y9.607 E7.29881
G1 X55.859 Y9.597 E7.30972
G1 X56.182 Y9.592 E7.32047
G1 X75.145 Y9.592 E7.95118
G1 X75.297 Y9.593 E7.95624
G1 X75.995 Y9.603 E7.97945
G1 X76.914 Y9.656 E8.01007
G1 X77.825 Y9.789 E8.04069
G1 X78.721 Y10 E8.07131
G1 X79.595 Y10.288 E8.10191
G1 X80.442 Y10.651 E8.13256
G1 X81.253 Y11.086 E8.16317
G1 X82.023 Y11.59 E8.19378
G1 X82.747 Y12.159 E8.22441
G1 X83.419 Y12.789 E8.25505
G1 X84.034 Y13.474 E8.28566
G1 X84.587 Y14.21 E8.31628
G1 X85.074 Y14.991 E8.3469
G1 X85.491 Y15.812 E8.37752
G1 X85.836 Y16.666 E8.40816
G1 X86.105 Y17.546 E8.43876
G1 X86.297 Y18.447 E8.4694
G1 X86.41 Y19.36 E8.5
G1 X86.439 Y19.904 E8.51812
G1 X86.448 Y20.224 E8.52877
G1 X86.452 Y20.522 E8.53868
G1 X86.452 Y34.456 E9.00213
G1 X86.451 Y34.602 E9.00698
G1 X86.441 Y35.329 E9.03117
G1 X86.388 Y36.248 E9.06178
G1 X86.256 Y37.159 E9.0924
G1 X86.045 Y38.055 E9.12302
G1 X85.758 Y38.93 E9.15364
G1 X85.395 Y39.776 E9.18426
G1 X84.961 Y40.588 E9.21489
G1 X84.457 Y41.359 E9.24552
G1 X83.889 Y42.083 E9.27613
G1 X83.26 Y42.755 E9.30674
G1 X82.575 Y43.37 E9.33736
G1 X81.839 Y43.923 E9.36798
G1 X81.058 Y44.411 E9.39861
G1 X80.238 Y44.829 E9.42922
G1 X79.384 Y45.174 E9.45986
G1 X78.363 Y45.479 E9.4953
G1 X75.587 Y46.159 E9.59036
G1 X73.168 Y46.826 E9.67382
G1 X70.746 Y47.571 E9.7581
G1 X68.38 Y48.371 E9.84117
G1 X65.979 Y49.258 E9.9263
G1 X63.644 Y50.198 E10.01002
G1 X61.318 Y51.211 E10.0944
G1 X59.062 Y52.271 E10.17731
G1 X57.945 Y52.843 E10.21905
G1 X57.796 Y52.917 E10.22458
G1 X56.535 Y53.538 E10.27133
G1 X55.692 Y53.909 E10.30196
G1 X54.82 Y54.205 E10.33259
G1 X53.926 Y54.424 E10.36321
G1 X53.016 Y54.565 E10.39383
G1 X52.339 Y54.618 E10.41642
G1 X51.556 Y54.654 E10.44249
G1 X51.355 Y54.661 E10.44918
G1 X50.216 Y54.692 E10.48708
G1 X47.673 Y54.832 E10.57179
G1 X45.162 Y55.042 E10.65559
G1 X42.629 Y55.326 E10.74037
G1 X42.024 Y55.408 E10.76068
G1 X41.807 Y55.435 E10.76795
G1 X41.544 Y55.465 E10.77675
G1 X40.678 Y55.528 E10.80563
G1 X40.362 Y55.538 E10.81615
G1 X39.865 Y55.542 E10.83268
G1 X39.209 Y55.532 E10.8545
G1 X38.29 Y55.478 E10.88512
G1 X37.379 Y55.344 E10.91574
G1 X36.484 Y55.132 E10.94634
G1 X35.609 Y54.843 E10.97698
G1 X34.764 Y54.479 E11.00759
G1 X33.953 Y54.044 E11.0382
G1 X33.183 Y53.539 E11.06882
G1 X32.459 Y52.97 E11.09945
G1 X31.788 Y52.34 E11.13006
G1 X31.174 Y51.654 E11.16068
G1 X30.622 Y50.917 E11.19131
G1 X30.135 Y50.135 E11.22195
G1 X29.719 Y49.314 E11.25256
G1 X29.262 Y48.121 E11.29505
G1 X29.022 Y47.36 E11.32159
G1 X28.915 Y46.999 E11.33412
G1 X28.602 Y45.868 E11.37315
G1 X27.851 Y43.428 E11.45806
G1 X27.038 Y41.026 E11.5424
G1 X26.169 Y38.682 E11.62555
G1 X25.076 Y35.979 E11.72252
G1 X24.768 Y35.111 E11.75316
G1 X24.537 Y34.22 E11.78377
G1 X24.384 Y33.312 E11.8144
G1 X24.309 Y32.36 E11.84616
G1 X24.298 Y32.031 E11.85711
G1 X24.292 Y31.677 E11.86888
G1 X24.292 Y21.805 E12.19723
G1 X24.293 Y21.667 E12.20182
G1 X24.302 Y20.978 E12.22473
G1 X24.354 Y20.058 E12.25538
G1 X24.485 Y19.147 E12.28599
G1 X24.696 Y18.251 E12.31661
G1 X24.983 Y17.376 E12.34724
G1 X25.345 Y16.53 E12.37784
G1 X25.779 Y15.718 E12.40847
G0 F6000 X26.176 Y15.833
G1 F1200 X26.677 Y15.082 E12.43849
G1 X27.243 Y14.378 E12.46854
G1 X27.869 Y13.727 E12.49858
G1 X28.551 Y13.134 E12.52864
G1 X29.282 Y12.604 E12.55867
G1 X30.056 Y12.14 E12.58868
G1 X30.869 Y11.747 E12.61872
G1 X31.714 Y11.427 E12.64877
G1 X32.584 Y11.183 E12.67882
G1 X33.471 Y11.017 E12.70884
G1 X34.615 Y10.92 E12.74702
G1 X34.936 Y10.911 E12.7577
G1 X35.222 Y10.907 E12.76722
G1 X42.337 Y10.907 E13.00386
G1 X44.943 Y10.87 E13.09055
G1 X47.508 Y10.761 E13.17594
G1 X50.015 Y10.583 E13.25953
G1 X52.546 Y10.333 E13.34412
G1 X53.792 Y10.173 E13.3859
G1 X53.923 Y10.157 E13.39029
G1 X54.688 Y10.069 E13.4159
G1 X55.543 Y10.007 E13.44442
G1 X55.871 Y9.997 E13.45533
G1 X56.182 Y9.992 E13.46568
G1 X75.145 Y9.992 E14.09639
G1 X75.291 Y9.993 E14.10124
G1 X75.989 Y10.003 E14.12446
G1 X76.891 Y10.056 E14.15451
G1 X77.784 Y10.188 E14.18454
G1 X78.662 Y10.399 E14.21457
G1 X79.518 Y10.687 E14.24461
G1 X80.345 Y11.049 E14.27464
G1 X81.137 Y11.484 E14.30469
G1 X81.888 Y11.986 E14.33473
G1 X82.591 Y12.553 E14.36477
G1 X83.241 Y13.18 E14.39481
G1 X83.833 Y13.862 E14.42485
G1 X84.363 Y14.593 E14.45488
G1 X84.825 Y15.369 E14.48492
G1 X85.218 Y16.182 E14.51495
G1 X85.536 Y17.027 E14.54498
G1 X85.779 Y17.897 E14.57503
G1 X85.944 Y18.785 E14.60507
G1 X86.039 Y19.915 E14.64278
G1 X86.048 Y20.235 E14.65343
G1 X86.052 Y20.522 E14.66298
G1 X86.052 Y34.456 E15.12642
G1 X86.051 Y34.596 E15.13108
G1 X86.041 Y35.323 E15.15526
G1 X85.989 Y36.225 E15.18531
G1 X85.857 Y37.118 E15.21534
G1 X85.646 Y37.997 E15.2454
G1 X85.359 Y38.853 E15.27543
G1 X84.997 Y39.68 E15.30546
G1 X84.563 Y40.472 E15.33549
G1 X84.061 Y41.223 E15.36554
G1 X83.495 Y41.926 E15.39556
G1 X82.868 Y42.577 E15.42562
G1 X82.187 Y43.169 E15.45563
G1 X81.456 Y43.699 E15.48566
G1 X80.68 Y44.162 E15.51572
G1 X79.867 Y44.555 E15.54575
G1 X79.022 Y44.875 E15.5758
G1 X78.268 Y45.09 E15.60188
G1 X75.523 Y45.762 E15.69588
G1 X73.04 Y46.447 E15.78155
G1 X70.616 Y47.193 E15.8659
G1 X68.218 Y48.003 E15.95009
G1 X65.839 Y48.883 E16.03445
G1 X63.501 Y49.824 E16.11828
G1 X61.167 Y50.84 E16.20294
G1 X58.889 Y51.91 E16.28665
G1 X57.763 Y52.487 E16.32873
G1 X57.619 Y52.559 E16.33409
G1 X56.358 Y53.18 E16.38084
G1 X55.531 Y53.542 E16.41086
G1 X54.675 Y53.83 E16.4409
G1 X53.797 Y54.042 E16.47094
G1 X52.904 Y54.175 E16.50097
G1 X52.32 Y54.218 E16.52045
G1 X51.537 Y54.254 E16.54652
G1 X51.344 Y54.261 E16.55294
G1 X50.183 Y54.292 E16.59157
G1 X47.653 Y54.432 E16.67585
G1 X45.152 Y54.641 E16.75932
G1 X42.537 Y54.935 E16.84685
G1 X41.971 Y55.011 E16.86584
G1 X41.762 Y55.037 E16.87284
G1 X41.499 Y55.067 E16.88165
G1 X40.666 Y55.128 E16.90943
G1 X40.35 Y55.138 E16.91994
G1 X39.872 Y55.142 E16.93584
G1 X39.216 Y55.132 E16.95766
G1 X38.314 Y55.078 E16.98772
G1 X37.421 Y54.945 E17.01775
G1 X36.543 Y54.733 E17.04779
G1 X35.687 Y54.445 E17.07783
G1 X34.86 Y54.081 E17.10788
G1 X34.069 Y53.647 E17.13789
G1 X33.319 Y53.143 E17.16794
G1 X32.616 Y52.576 E17.19798
G1 X31.967 Y51.948 E17.22802
G1 X31.375 Y51.266 E17.25806
G1 X30.846 Y50.534 E17.2881
G1 X30.384 Y49.758 E17.31813
G1 X29.993 Y48.944 E17.34817
G1 X29.643 Y48.001 E17.38162
G1 X29.403 Y47.24 E17.40816
G1 X29.301 Y46.893 E17.42019
G1 X28.984 Y45.749 E17.45968
G1 X28.237 Y43.319 E17.54423
G1 X27.416 Y40.895 E17.62935
G1 X26.55 Y38.56 E17.71218
G1 X25.446 Y35.829 E17.81016
G1 X25.145 Y34.977 E17.84021
G1 X24.921 Y34.102 E17.87025
G1 X24.774 Y33.211 E17.90029
G1 X24.709 Y32.347 E17.92911
G1 X24.698 Y32.018 E17.94006
G1 X24.692 Y31.677 E17.9514
G1 X24.692 Y21.805 E18.27974
G1 X24.693 Y21.672 E18.28417
G1 X24.702 Y20.983 E18.30709
G1 X24.754 Y20.081 E18.33714
G1 X24.885 Y19.188 E18.36715
G1 X25.095 Y18.309 E18.39721
G1 X25.381 Y17.453 E18.42723
G1 X25.743 Y16.625 E18.45729
G1 X26.176 Y15.833 E18.48731
G1 F2700 E13.48731
;MESH:Spacer Thicker.STL
G0 F6000 X34.227 Y21.521
G0 X35.306 Y21.521
G0 X35.892 Y31.007
;TYPE:WALL-INNER
G1 F2700 E18.48731
G1 F1200 X35.892 Y22.107 E18.78332
G1 X48.692 Y22.107 E19.20905
G1 X48.692 Y31.007 E19.50507
G1 X35.892 Y31.007 E19.9308
G0 F6000 X35.492 Y31.407
G1 F1200 X35.492 Y21.707 E20.25342
G1 X49.092 Y21.707 E20.70576
G1 X49.092 Y31.407 E21.02838
G1 X35.492 Y31.407 E21.48072
G0 F6000 X35.092 Y31.807
;TYPE:WALL-OUTER
G1 F1200 X35.092 Y21.307 E21.82995
G1 X49.492 Y21.307 E22.3089
G1 X49.492 Y31.807 E22.65813
G1 X35.092 Y31.807 E23.13708
G0 F6000 X35.362 Y31.537
G0 X36.002 Y30.617
G0 X36.282 Y30.617
;TYPE:SKIN
G1 F1200 X36.282 Y22.497 E23.40715
G1 X48.302 Y22.497 E23.80694
G1 X48.302 Y30.617 E24.07701
G1 X36.282 Y30.617 E24.47679
G0 F6000 X36.679 Y30.456
G1 F1200 X36.441 Y30.218 E24.48799
G0 F6000 X36.441 Y29.653
G1 F1200 X37.244 Y30.456 E24.52576
G0 F6000 X37.81 Y30.456
G1 F1200 X36.441 Y29.087 E24.59015
G0 F6000 X36.441 Y28.521
G1 F1200 X38.376 Y30.456 E24.68117
G0 F6000 X38.941 Y30.456
G1 F1200 X36.441 Y27.956 E24.79876
G0 F6000 X36.441 Y27.39
G1 F1200 X39.507 Y30.456 E24.94298
G0 F6000 X40.073 Y30.456
G1 F1200 X36.441 Y26.824 E25.11382
G0 F6000 X36.441 Y26.259
G1 F1200 X40.638 Y30.456 E25.31123
G0 F6000 X41.204 Y30.456
G1 F1200 X36.441 Y25.693 E25.53527
G0 F6000 X36.441 Y25.127
G1 F1200 X41.77 Y30.456 E25.78593
G0 F6000 X42.335 Y30.456
G1 F1200 X36.441 Y24.562 E26.06316
G0 F6000 X36.441 Y23.996
G1 F1200 X42.901 Y30.456 E26.36702
G0 F6000 X43.467 Y30.456
G1 F1200 X36.441 Y23.43 E26.6975
G0 F6000 X36.441 Y22.865
G1 F1200 X44.032 Y30.456 E27.05456
G0 F6000 X44.598 Y30.456
G1 F1200 X36.799 Y22.657 E27.4214
G0 F6000 X37.364 Y22.657
G1 F1200 X45.164 Y30.456 E27.78826
G0 F6000 X45.73 Y30.456
G1 F1200 X37.93 Y22.657 E28.15513
G0 F6000 X38.496 Y22.657
G1 F1200 X46.295 Y30.456 E28.52197
G0 F6000 X46.861 Y30.456
G1 F1200 X39.061 Y22.657 E28.88884
G0 F6000 X39.627 Y22.657
G1 F1200 X47.427 Y30.456 E29.2557
G0 F6000 X47.992 Y30.456
G1 F1200 X40.193 Y22.657 E29.62254
G0 F6000 X40.759 Y22.657
G1 F1200 X48.141 Y30.039 E29.96977
G0 F6000 X48.141 Y29.473
G1 F1200 X41.324 Y22.657 E30.29039
G0 F6000 X41.89 Y22.657
G1 F1200 X48.141 Y28.907 E30.5844
G0 F6000 X48.141 Y28.342
G1 F1200 X42.456 Y22.657 E30.8518
G0 F6000 X43.021 Y22.657
G1 F1200 X48.141 Y27.776 E31.09261
G0 F6000 X48.141 Y27.21
G1 F1200 X43.587 Y22.657 E31.30679
G0 F6000 X44.153 Y22.657
G1 F1200 X48.141 Y26.645 E31.49438
G0 F6000 X48.141 Y26.079
G1 F1200 X44.718 Y22.657 E31.65536
G0 F6000 X45.284 Y22.657
G1 F1200 X48.141 Y25.513 E31.78972
G0 F6000 X48.141 Y24.948
G1 F1200 X45.85 Y22.657 E31.89748
G0 F6000 X46.415 Y22.657
G1 F1200 X48.141 Y24.382 E31.97864
G0 F6000 X48.141 Y23.816
G1 F1200 X46.981 Y22.657 E32.03318
G0 F6000 X47.547 Y22.657
G1 F1200 X48.141 Y23.251 E32.06112
G0 F6000 X48.882 Y23.251
G1 F2700 E27.06112
;MESH:Locking Pin.STL
G0 F6000 X49.278 Y31.593
G0 X49.278 Y32.672
G0 X49.278 Y38.378
G0 X49.278 Y39.463
G0 X53.424 Y40.043
;TYPE:WALL-INNER
G1 F2700 E32.06112
G1 F1200 X53.205 Y40.356 E32.07383
G1 X51.324 Y43.043 E32.18292
G1 X40.345 Y43.043 E32.54808
G1 X40.345 Y40.043 E32.64786
G1 X53.041 Y40.043 E33.07014
G1 X53.042 Y40.043 E33.07017
G1 X53.424 Y40.043 E33.07724
G0 F6000 X53.809 Y39.643
G1 F1200 X53.81 Y39.643 E33.07728
G1 X54.192 Y39.643 E33.08998
G1 X53.973 Y39.956 E33.09706
G1 X51.532 Y43.443 E33.23863
G1 X39.945 Y43.443 E33.62402
G1 X39.945 Y39.643 E33.7504
G1 X53.809 Y39.643 E34.21152
G0 F6000 X54.488 Y39.489
G0 X54.96 Y39.243
;TYPE:WALL-OUTER
G1 F1200 X51.74 Y43.843 E34.39828
G1 X40.145 Y43.843 E34.78393
G1 X40.145 Y44.743 E34.81386
G1 X39.545 Y44.743 E34.83382
G1 X39.545 Y34.793 E35.16476
G1 X40.145 Y34.793 E35.18472
G1 X40.145 Y39.243 E35.33272
G1 X54.96 Y39.243 E35.82547
G0 F6000 X54.488 Y39.489
G0 X52.674 Y40.153
G0 X52.674 Y40.433
;TYPE:SKIN
G1 F1200 X51.12 Y42.653 E35.9156
