;FLAVOR:Marlin
;TIME:4410
;Filament used: 4.24612m
;Layer height: 0.28
;MINX:17.613
;MINY:12.944
;MINZ:0.2
;MAXX:116.345
;MAXY:65.702
;MAXZ:29.88
;POSTPROCESSED
;Generated with Cura_SteamEngine 4.3.0
M140 S60
M105
M190 S60
M104 S200
M105
M109 S200
M82 ;absolute extrusion mode
M201 X500.00 Y500.00 Z100.00 E5000.00 ;Setup machine max acceleration
M203 X500.00 Y500.00 Z10.00 E50.00 ;Setup machine max feedrate
M204 P500.00 R1000.00 T500.00 ;Setup Print/Retract/Travel acceleration
M205 X8.00 Y8.00 Z0.40 E5.00 ;Setup Jerk
M220 S100 ;Reset Feedrate
M221 S100 ;Reset Flowrate

G28 ;Home

G92 E0 ;Reset Extruder
G1 Z2.0 F3000 ;Move Z Axis up
G1 X10.1 Y20 Z0.28 F5000.0 ;Move to start position
G1 X10.1 Y200.0 Z0.28 F1500.0 E15 ;Draw the first line
G1 X10.4 Y200.0 Z0.28 F5000.0 ;Move to side a little
G1 X10.4 Y20 Z0.28 F1500.0 E30 ;Draw the second line
G92 E0 ;Reset Extruder
G1 Z2.0 F3000 ;Move Z Axis up

G92 E0
G92 E0
G1 F2700 E-5
;LAYER_COUNT:107
;LAYER:[layer_num]
;LAYER:0
M107
M204 S500
M205 X8 Y8
G0 F6000 X21.182 Y18.414 Z0.2
;TYPE:SKIRT
G1 F2700 E0
G1 F1200 X21.696 Y17.814 E0.02628
G1 X22.052 Y17.462 E0.04293
G1 X22.965 Y16.616 E0.08433
G1 X23.571 Y16.109 E0.11061
G1 X23.989 Y15.815 E0.1276
G1 X25.021 Y15.138 E0.16866
G1 X25.702 Y14.739 E0.19491
G1 X26.152 Y14.523 E0.21151
G1 X27.286 Y14.023 E0.25273
G1 X28.024 Y13.741 E0.27901
G1 X28.489 Y13.606 E0.29511
G1 X29.69 Y13.297 E0.33636
G1 X30.464 Y13.139 E0.36263
G1 X30.972 Y13.079 E0.37965
G1 X32.205 Y12.974 E0.4208
G1 X32.867 Y12.946 E0.44284
G1 X82.886 Y12.944 E2.10648
G1 X83.514 Y12.969 E2.12738
G1 X84.728 Y13.067 E2.16789
G1 X85.511 Y13.171 E2.19416
G1 X86.007 Y13.279 E2.21105
G1 X87.209 Y13.582 E2.25228
G1 X87.964 Y13.813 E2.27854
G1 X88.408 Y13.99 E2.29444
G1 X89.539 Y14.481 E2.33544
G1 X90.247 Y14.832 E2.36173
G1 X90.681 Y15.094 E2.37859
G1 X91.725 Y15.772 E2.41999
G1 X92.365 Y16.235 E2.44627
G1 X92.744 Y16.561 E2.46289
G1 X93.654 Y17.394 E2.50393
G1 X94.208 Y17.956 E2.53017
G1 X94.528 Y18.338 E2.54675
G1 X95.293 Y19.315 E2.58802
G1 X95.344 Y19.388 E2.59098
G1 X96.07 Y18.795 E2.62216
G1 X96.604 Y18.419 E2.64388
G1 X97.479 Y17.886 E2.67796
G1 X98.083 Y17.57 E2.70063
G1 X99.07 Y17.138 E2.73646
G1 X99.69 Y16.916 E2.75837
G1 X100.723 Y16.624 E2.79407
G1 X101.383 Y16.486 E2.8165
G1 X102.42 Y16.341 E2.85132
G1 X103.088 Y16.293 E2.8736
G1 X104.148 Y16.289 E2.90886
G1 X104.816 Y16.332 E2.93112
G1 X105.896 Y16.478 E2.96737
G1 X106.553 Y16.614 E2.98968
G1 X107.573 Y16.898 E3.0249
G1 X108.195 Y17.118 E3.04684
G1 X109.155 Y17.532 E3.08161
G1 X109.761 Y17.843 E3.10427
G1 X110.665 Y18.387 E3.13936
G1 X111.205 Y18.764 E3.16126
G1 X112.065 Y19.461 E3.19808
G1 X112.553 Y19.917 E3.2203
G1 X113.275 Y20.689 E3.25545
G1 X113.697 Y21.207 E3.27768
G1 X114.302 Y22.062 E3.31251
G1 X114.654 Y22.637 E3.33494
G1 X115.143 Y23.571 E3.37
G1 X115.408 Y24.174 E3.39191
G1 X115.776 Y25.203 E3.42826
G1 X115.96 Y25.858 E3.45088
G1 X116.176 Y26.885 E3.48579
G1 X116.268 Y27.542 E3.50785
G1 X116.343 Y28.601 E3.54317
G1 X116.345 Y29.271 E3.56545
G1 X116.276 Y30.326 E3.60061
G1 X116.188 Y30.985 E3.62273
G1 X115.976 Y32.029 E3.65816
G1 X115.796 Y32.681 E3.68066
G1 X115.437 Y33.7 E3.71659
G1 X115.175 Y34.306 E3.73855
G1 X114.694 Y35.239 E3.77346
G1 X114.346 Y35.816 E3.79587
G1 X113.728 Y36.698 E3.83169
G1 X113.31 Y37.214 E3.85378
G1 X112.571 Y38.006 E3.88981
G1 X112.076 Y38.468 E3.91233
G1 X111.264 Y39.13 E3.94717
G1 X110.725 Y39.512 E3.96915
G1 X109.832 Y40.059 E4.00398
G1 X109.232 Y40.373 E4.0265
G1 X108.244 Y40.805 E4.06237
G1 X107.624 Y41.027 E4.08427
G1 X106.591 Y41.319 E4.11997
G1 X105.931 Y41.457 E4.1424
G1 X104.882 Y41.603 E4.17763
G1 X104.214 Y41.65 E4.1999
G1 X103.178 Y41.654 E4.23436
G1 X102.51 Y41.612 E4.25662
G1 X101.418 Y41.465 E4.29327
G1 X100.761 Y41.329 E4.31558
G1 X99.741 Y41.045 E4.3508
G1 X99.119 Y40.825 E4.37274
G1 X98.154 Y40.408 E4.40771
G1 X97.549 Y40.097 E4.43033
G1 X97.005 Y39.77 E4.45144
G1 X97.054 Y39.913 E4.45647
G1 X97.233 Y40.682 E4.48273
G1 X97.333 Y41.466 E4.50902
G1 X97.356 Y42.061 E4.52882
G1 X97.356 Y44.144 E4.5981
G1 X99.439 Y44.144 E4.66738
G1 X100.228 Y44.184 E4.69366
G1 X101.008 Y44.303 E4.7199
G1 X101.773 Y44.501 E4.74618
G1 X102.513 Y44.775 E4.77243
G1 X103.222 Y45.123 E4.7987
G1 X103.893 Y45.541 E4.82499
G1 X104.517 Y46.024 E4.85124
G1 X104.954 Y46.429 E4.87105
G1 X105.071 Y46.546 E4.87656
G1 X105.601 Y47.132 E4.90284
G1 X106.068 Y47.768 E4.92908
G1 X106.469 Y48.448 E4.95534
G1 X106.799 Y49.166 E4.98162
G1 X107.054 Y49.913 E5.00787
G1 X107.233 Y50.682 E5.03413
G1 X107.333 Y51.466 E5.06042
G1 X107.356 Y52.061 E5.08023
G1 X107.356 Y56.827 E5.23874
G1 X107.316 Y57.616 E5.26502
G1 X107.197 Y58.396 E5.29126
G1 X106.999 Y59.161 E5.31755
G1 X106.725 Y59.901 E5.34379
G1 X106.377 Y60.61 E5.37006
G1 X105.959 Y61.281 E5.39635
G1 X105.476 Y61.905 E5.4226
G1 X105.071 Y62.342 E5.44242
G1 X104.954 Y62.459 E5.44792
G1 X104.368 Y62.989 E5.4742
G1 X103.732 Y63.456 E5.50044
G1 X103.052 Y63.857 E5.5267
G1 X102.334 Y64.187 E5.55298
G1 X101.587 Y64.442 E5.57923
G1 X100.818 Y64.621 E5.60549
G1 X100.034 Y64.721 E5.63178
G1 X99.439 Y64.744 E5.65159
G1 X84.673 Y64.744 E6.14271
G1 X83.884 Y64.704 E6.16898
G1 X83.104 Y64.585 E6.19522
G1 X82.339 Y64.387 E6.22151
G1 X81.599 Y64.113 E6.24775
G1 X80.89 Y63.765 E6.27402
G1 X80.219 Y63.347 E6.30032
G1 X79.595 Y62.864 E6.32656
G1 X79.158 Y62.459 E6.34638
G1 X79.041 Y62.342 E6.35188
G1 X78.511 Y61.756 E6.37816
G1 X78.044 Y61.12 E6.4044
G1 X77.643 Y60.44 E6.43066
G1 X77.407 Y59.927 E6.44944
G1 X77.066 Y59.929 E6.46078
G1 X76.862 Y59.919 E6.46758
G1 X75.955 Y59.821 E6.49792
G1 X75.561 Y59.755 E6.51121
G1 X74.79 Y59.585 E6.53747
G1 X74.298 Y59.433 E6.55459
G1 X73.911 Y59.299 E6.56821
G1 X73.653 Y59.195 E6.57747
G1 X73.494 Y59.43 E6.5869
G1 X72.767 Y60.346 E6.6258
G1 X72 Y61.177 E6.66341
G1 X71.144 Y61.975 E6.70234
G1 X70.27 Y62.675 E6.73958
G1 X69.314 Y63.33 E6.77812
G1 X68.349 Y63.891 E6.81525
G1 X67.292 Y64.403 E6.85431
G1 X66.248 Y64.815 E6.89164
G1 X65.148 Y65.158 E6.92997
G1 X64.053 Y65.412 E6.96735
G1 X62.89 Y65.591 E7.00649
G1 X61.775 Y65.677 E7.04368
G1 X61.176 Y65.7 E7.06362
G1 X36.154 Y65.702 E7.89586
G1 X35.577 Y65.681 E7.91506
G1 X34.484 Y65.6 E7.95151
G1 X33.331 Y65.427 E7.99029
G1 X32.231 Y65.177 E8.02781
G1 X31.137 Y64.842 E8.06587
G1 X30.094 Y64.437 E8.10308
G1 X29.037 Y63.933 E8.14203
G1 X28.069 Y63.378 E8.17914
G1 X27.093 Y62.715 E8.21838
G1 X26.213 Y62.015 E8.25578
G1 X25.368 Y61.235 E8.29403
G1 X24.605 Y60.418 E8.33121
G1 X23.871 Y59.502 E8.37025
G1 X23.236 Y58.575 E8.40762
G1 X22.653 Y57.572 E8.44621
G1 X22.163 Y56.562 E8.48355
G1 X21.734 Y55.476 E8.52238
G1 X21.403 Y54.413 E8.55941
G1 X21.14 Y53.273 E8.59833
G1 X20.97 Y52.161 E8.63574
G1 X20.88 Y51.01 E8.67414
G1 X20.876 Y49.891 E8.71136
G1 X20.958 Y48.733 E8.74997
G1 X21.121 Y47.62 E8.78738
G1 X21.275 Y46.845 E8.81366
G1 X21.381 Y46.464 E8.82682
G1 X21.708 Y45.397 E8.86394
G1 X22.131 Y44.314 E8.90261
G1 X22.617 Y43.299 E8.94004
G1 X23.193 Y42.295 E8.97853
G1 X23.818 Y41.372 E9.01561
G1 X24.24 Y40.84 E9.03819
G1 X24.047 Y40.714 E9.04586
G1 X23.408 Y40.25 E9.07213
G1 X23.03 Y39.926 E9.08869
G1 X22.12 Y39.093 E9.12972
G1 X21.566 Y38.531 E9.15597
G1 X21.248 Y38.152 E9.17242
G1 X20.483 Y37.176 E9.21367
G1 X20.028 Y36.53 E9.23995
G1 X19.767 Y36.086 E9.25708
G1 X19.174 Y34.994 E9.29841
G1 X18.833 Y34.282 E9.32466
G1 X18.659 Y33.825 E9.34093
G1 X18.254 Y32.656 E9.38208
G1 X18.033 Y31.898 E9.40834
G1 X17.934 Y31.41 E9.4249
G1 X17.727 Y30.192 E9.46599
G1 X17.635 Y29.408 E9.49224
G1 X17.617 Y28.91 E9.50882
G1 X17.613 Y27.669 E9.5501
G1 X17.65 Y26.88 E9.57637
G1 X17.715 Y26.384 E9.593
G1 X17.915 Y25.162 E9.63419
G1 X18.082 Y24.39 E9.66046
G1 X18.229 Y23.908 E9.67722
G1 X18.627 Y22.739 E9.71829
G1 X18.919 Y22.005 E9.74457
G1 X19.14 Y21.562 E9.76103
G1 X19.725 Y20.473 E9.80215
G1 X20.133 Y19.797 E9.82841
G1 X20.424 Y19.395 E9.84492
G1 X21.182 Y18.414 E9.88615
G0 F6000 X21.498 Y18.658
G1 F1200 X22 Y18.075 E9.91174
G1 X22.324 Y17.755 E9.92688
G1 X23.237 Y16.909 E9.96828
G1 X23.828 Y16.416 E9.99388
G1 X24.208 Y16.15 E10.00931
G1 X25.24 Y15.473 E10.05036
G1 X25.904 Y15.085 E10.07594
G1 X26.314 Y14.889 E10.09105
G1 X27.448 Y14.389 E10.13227
G1 X28.166 Y14.116 E10.15782
G1 X28.589 Y13.993 E10.17247
G1 X29.79 Y13.684 E10.21372
G1 X30.544 Y13.532 E10.2393
G1 X31.006 Y13.478 E10.25477
G1 X32.239 Y13.373 E10.29593
G1 X32.867 Y13.346 E10.31684
G1 X82.886 Y13.344 E11.98048
G1 X83.481 Y13.368 E12.00028
G1 X84.695 Y13.466 E12.04079
G1 X85.458 Y13.568 E12.0664
G1 X85.909 Y13.666 E12.08175
G1 X87.111 Y13.969 E12.12298
G1 X87.846 Y14.196 E12.14856
G1 X88.249 Y14.357 E12.16299
G1 X89.38 Y14.848 E12.204
G1 X90.069 Y15.191 E12.2296
G1 X90.463 Y15.43 E12.24493
G1 X91.507 Y16.108 E12.28633
G1 X92.13 Y16.56 E12.31193
G1 X92.474 Y16.856 E12.32703
G1 X93.384 Y17.689 E12.36806
G1 X93.923 Y18.237 E12.39363
G1 X94.213 Y18.585 E12.40869
G1 X94.978 Y19.562 E12.44996
G1 X95.275 Y19.985 E12.46715
G1 X95.488 Y19.785 E12.47687
G1 X96.301 Y19.122 E12.51176
G1 X96.835 Y18.746 E12.53349
G1 X97.665 Y18.24 E12.56582
G1 X98.269 Y17.924 E12.58849
G1 X99.204 Y17.514 E12.62245
G1 X99.824 Y17.292 E12.64435
G1 X100.804 Y17.016 E12.67821
G1 X101.464 Y16.878 E12.70064
G1 X102.449 Y16.74 E12.73372
G1 X103.117 Y16.692 E12.756
G1 X104.122 Y16.688 E12.78942
G1 X104.79 Y16.731 E12.81169
G1 X105.815 Y16.87 E12.84609
G1 X106.472 Y17.006 E12.86841
G1 X107.44 Y17.276 E12.90183
G1 X108.062 Y17.496 E12.92377
G1 X108.973 Y17.888 E12.95676
G1 X109.579 Y18.199 E12.97941
G1 X110.436 Y18.715 E13.01269
G1 X110.976 Y19.092 E13.03459
G1 X111.792 Y19.753 E13.06952
G1 X112.28 Y20.209 E13.09173
G1 X112.965 Y20.942 E13.1251
G1 X113.387 Y21.46 E13.14732
G1 X113.961 Y22.27 E13.18034
G1 X114.313 Y22.845 E13.20277
G1 X114.777 Y23.732 E13.23606
G1 X115.042 Y24.335 E13.25797
G1 X115.391 Y25.311 E13.29244
G1 X115.575 Y25.966 E13.31507
G1 X115.779 Y26.941 E13.3482
G1 X115.871 Y27.598 E13.37027
G1 X115.943 Y28.602 E13.40375
G1 X115.945 Y29.272 E13.42603
G1 X115.88 Y30.273 E13.45939
G1 X115.792 Y30.932 E13.48151
G1 X115.59 Y31.922 E13.51511
G1 X115.41 Y32.574 E13.53761
G1 X115.069 Y33.542 E13.57175
G1 X114.807 Y34.148 E13.5937
G1 X114.352 Y35.033 E13.6268
G1 X114.004 Y35.61 E13.64921
G1 X113.417 Y36.446 E13.68319
G1 X112.999 Y36.962 E13.70527
G1 X112.298 Y37.714 E13.73947
G1 X111.803 Y38.176 E13.76199
G1 X111.033 Y38.803 E13.79502
G1 X110.494 Y39.185 E13.81699
G1 X109.646 Y39.704 E13.85006
G1 X109.046 Y40.018 E13.87258
G1 X108.11 Y40.429 E13.90658
G1 X107.49 Y40.651 E13.92848
G1 X106.51 Y40.927 E13.96235
G1 X105.85 Y41.065 E13.98477
G1 X104.854 Y41.204 E14.01822
G1 X104.186 Y41.251 E14.04049
G1 X103.203 Y41.254 E14.07319
G1 X102.535 Y41.212 E14.09545
G1 X101.499 Y41.073 E14.13022
G1 X100.842 Y40.937 E14.15253
G1 X99.874 Y40.667 E14.18596
G1 X99.252 Y40.447 E14.2079
G1 X98.337 Y40.052 E14.24105
G1 X97.732 Y39.741 E14.26367
G1 X96.882 Y39.23 E14.29666
G1 X96.34 Y38.852 E14.31864
G1 X96.145 Y38.694 E14.32699
G1 X96.457 Y39.389 E14.35232
G1 X96.697 Y40.12 E14.37791
G1 X96.86 Y40.871 E14.40347
G1 X96.944 Y41.636 E14.42907
G1 X96.956 Y42.061 E14.44321
G1 X96.956 Y44.544 E14.5258
G1 X99.439 Y44.544 E14.60838
G1 X100.207 Y44.584 E14.63396
G1 X100.967 Y44.703 E14.65955
G1 X101.71 Y44.901 E14.68512
G1 X102.429 Y45.175 E14.71071
G1 X103.115 Y45.522 E14.73628
G1 X103.762 Y45.938 E14.76187
G1 X104.362 Y46.419 E14.78744
G1 X104.672 Y46.711 E14.80161
G1 X104.789 Y46.828 E14.80711
G1 X105.303 Y47.4 E14.83269
G1 X105.756 Y48.022 E14.85828
G1 X106.142 Y48.687 E14.88385
G1 X106.457 Y49.389 E14.90945
G1 X106.697 Y50.12 E14.93504
G1 X106.86 Y50.871 E14.9606
G1 X106.944 Y51.636 E14.98619
G1 X106.956 Y52.061 E15.00033
G1 X106.956 Y56.827 E15.15885
G1 X106.916 Y57.595 E15.18443
G1 X106.797 Y58.355 E15.21002
G1 X106.599 Y59.098 E15.23559
G1 X106.325 Y59.817 E15.26118
G1 X105.978 Y60.503 E15.28675
G1 X105.562 Y61.15 E15.31234
G1 X105.081 Y61.75 E15.33791
G1 X104.789 Y62.06 E15.35208
G1 X104.672 Y62.177 E15.35758
G1 X104.1 Y62.691 E15.38316
G1 X103.478 Y63.144 E15.40875
G1 X102.813 Y63.53 E15.43432
G1 X102.111 Y63.845 E15.45992
G1 X101.38 Y64.085 E15.48551
G1 X100.629 Y64.248 E15.51107
G1 X99.864 Y64.332 E15.53666
G1 X99.439 Y64.344 E15.5508
G1 X84.673 Y64.344 E16.04192
G1 X83.905 Y64.304 E16.0675
G1 X83.145 Y64.185 E16.09309
G1 X82.402 Y63.987 E16.11866
G1 X81.683 Y63.713 E16.14425
G1 X80.997 Y63.366 E16.16982
G1 X80.35 Y62.95 E16.19541
G1 X79.75 Y62.469 E16.22098
G1 X79.44 Y62.177 E16.23515
G1 X79.323 Y62.06 E16.24065
G1 X78.809 Y61.488 E16.26623
G1 X78.356 Y60.866 E16.29182
G1 X77.97 Y60.201 E16.3174
G1 X77.667 Y59.527 E16.34197
G1 X77.086 Y59.529 E16.3613
G1 X76.882 Y59.519 E16.36809
G1 X76.021 Y59.426 E16.3969
G1 X75.627 Y59.36 E16.41018
G1 X74.876 Y59.194 E16.43576
G1 X74.429 Y59.055 E16.45133
G1 X74.042 Y58.921 E16.46495
G1 X73.502 Y58.702 E16.48434
G1 X73.162 Y59.205 E16.50453
G1 X72.473 Y60.075 E16.54144
G1 X71.706 Y60.906 E16.57905
G1 X70.894 Y61.663 E16.61598
G1 X70.02 Y62.363 E16.65322
G1 X69.113 Y62.984 E16.68978
G1 X68.148 Y63.545 E16.72691
G1 X67.145 Y64.031 E16.76398
G1 X66.101 Y64.443 E16.80131
G1 X65.057 Y64.769 E16.83768
G1 X63.962 Y65.023 E16.87507
G1 X62.859 Y65.192 E16.91218
G1 X61.744 Y65.278 E16.94938
G1 X61.176 Y65.3 E16.96828
G1 X36.154 Y65.302 E17.80052
G1 X35.606 Y65.282 E17.81876
G1 X34.513 Y65.201 E17.85521
G1 X33.42 Y65.037 E17.89197
G1 X32.32 Y64.787 E17.92949
G1 X31.281 Y64.469 E17.96563
G1 X30.238 Y64.064 E18.00284
G1 X29.236 Y63.586 E18.03977
G1 X28.268 Y63.031 E18.07688
G1 X27.342 Y62.402 E18.11411
G1 X26.462 Y61.702 E18.15151
G1 X25.661 Y60.962 E18.18778
G1 X24.898 Y60.145 E18.22496
G1 X24.201 Y59.276 E18.26202
G1 X23.566 Y58.349 E18.29939
G1 X23.013 Y57.397 E18.33601
G1 X22.523 Y56.387 E18.37334
G1 X22.116 Y55.357 E18.41018
G1 X21.785 Y54.294 E18.44721
G1 X21.535 Y53.212 E18.48414
G1 X21.365 Y52.1 E18.52156
G1 X21.28 Y51.008 E18.55799
G1 X21.276 Y49.889 E18.59521
G1 X21.354 Y48.791 E18.63182
G1 X21.517 Y47.678 E18.66923
G1 X21.764 Y46.582 E18.7066
G1 X22.091 Y45.515 E18.74372
G1 X22.492 Y44.487 E18.78042
G1 X22.978 Y43.472 E18.81785
G1 X23.525 Y42.519 E18.85439
G1 X24.15 Y41.596 E18.89147
G1 X24.826 Y40.743 E18.92767
G1 X24.265 Y40.378 E18.94993
G1 X23.643 Y39.926 E18.9755
G1 X23.3 Y39.631 E18.99055
G1 X22.39 Y38.798 E19.03158
G1 X21.851 Y38.25 E19.05715
G1 X21.563 Y37.905 E19.0721
G1 X20.798 Y36.929 E19.11334
G1 X20.355 Y36.3 E19.13893
G1 X20.119 Y35.895 E19.15452
G1 X19.526 Y34.803 E19.19585
G1 X19.195 Y34.109 E19.22142
G1 X19.037 Y33.694 E19.23619
G1 X18.632 Y32.525 E19.27734
G1 X18.418 Y31.787 E19.3029
G1 X18.329 Y31.343 E19.31796
G1 X18.122 Y30.125 E19.35905
G1 X18.032 Y29.361 E19.38464
G1 X18.017 Y28.909 E19.39968
G1 X18.013 Y27.668 E19.44096
G1 X18.051 Y26.9 E19.46653
G1 X18.11 Y26.449 E19.48166
G1 X18.31 Y25.227 E19.52284
G1 X18.474 Y24.475 E19.54844
G1 X18.608 Y24.037 E19.56368
G1 X19.006 Y22.868 E19.60475
G1 X19.291 Y22.154 E19.63032
G1 X19.492 Y21.751 E19.6453
G1 X20.077 Y20.662 E19.68641
G1 X20.476 Y20.004 E19.71201
G1 X20.74 Y19.639 E19.72699
G1 X21.498 Y18.658 E19.76823
G0 F6000 X21.815 Y18.903
G1 F1200 X22.303 Y18.336 E19.79311
G1 X22.596 Y18.048 E19.80677
G1 X23.509 Y17.202 E19.84817
G1 X24.084 Y16.724 E19.87304
G1 X24.427 Y16.484 E19.88696
G1 X25.459 Y15.807 E19.92801
G1 X26.106 Y15.431 E19.9529
G1 X26.475 Y15.255 E19.9665
G1 X27.609 Y14.755 E20.00772
G1 X28.309 Y14.49 E20.03262
G1 X28.689 Y14.381 E20.04577
G1 X29.89 Y14.072 E20.08701
G1 X30.623 Y13.924 E20.11188
G1 X31.04 Y13.876 E20.12584
G1 X32.273 Y13.771 E20.167
G1 X32.867 Y13.746 E20.18678
G1 X82.886 Y13.744 E21.85042
G1 X83.449 Y13.767 E21.86916
G1 X84.663 Y13.865 E21.90967
G1 X85.405 Y13.965 E21.93457
G1 X85.811 Y14.054 E21.94839
G1 X87.013 Y14.357 E21.98962
G1 X87.728 Y14.579 E22.01452
G1 X88.09 Y14.724 E22.02749
G1 X89.221 Y15.215 E22.0685
G1 X89.89 Y15.549 E22.09337
G1 X90.246 Y15.765 E22.10722
G1 X91.29 Y16.443 E22.14862
G1 X91.894 Y16.884 E22.1735
G1 X92.203 Y17.151 E22.18708
G1 X93.113 Y17.984 E22.22811
G1 X93.637 Y18.517 E22.25297
G1 X93.898 Y18.831 E22.26655
G1 X94.663 Y19.808 E22.30783
G1 X95.093 Y20.421 E22.33273
G1 X95.203 Y20.611 E22.34003
