;FLAVOR:Marlin
;TIME:4601
;Filament used: 3.67785m
;Layer height: 0.24
;MINX:15.946
;MINY:15.388
;MINZ:0.2
;MAXX:81.546
;MAXY:80.988
;MAXZ:23
;POSTPROCESSED
;Generated with Cura_SteamEngine 4.3.0
M140 S60
M105
M190 S60
M104 S200
M105
M109 S200
M82 ;absolute extrusion mode
M201 X500.00 Y500.00 Z100.00 E5000.00 ;Setup machine max acceleration
M203 X500.00 Y500.00 Z10.00 E50.00 ;Setup machine max feedrate
M204 P500.00 R1000.00 T500.00 ;Setup Print/Retract/Travel acceleration
M205 X8.00 Y8.00 Z0.40 E5.00 ;Setup Jerk
M220 S100 ;Reset Feedrate
M221 S100 ;Reset Flowrate

G28 ;Home

G92 E0 ;Reset Extruder
G1 Z2.0 F3000 ;Move Z Axis up
G1 X10.1 Y20 Z0.28 F5000.0 ;Move to start position
G1 X10.1 Y200.0 Z0.28 F1500.0 E15 ;Draw the first line
G1 X10.4 Y200.0 Z0.28 F5000.0 ;Move to side a little
G1 X10.4 Y20 Z0.28 F1500.0 E30 ;Draw the second line
G92 E0 ;Reset Extruder
G1 Z2.0 F3000 ;Move Z Axis up

G92 E0
G92 E0
G1 F2700 E-5
;LAYER_COUNT:96
;LAYER:[layer_num]
;LAYER:0
M107
M204 S500
M205 X8 Y8
G0 F6000 X18.231 Y17.79 Z0.2
;TYPE:SKIRT
G1 F2700 E0
G1 F1200 X18.348 Y17.673 E0.0055
G1 X18.934 Y17.143 E0.03178
G1 X19.57 Y16.676 E0.05803
G1 X20.25 Y16.275 E0.08428
G1 X20.968 Y15.945 E0.11057
G1 X21.715 Y15.69 E0.13682
G1 X22.484 Y15.511 E0.16308
G1 X23.268 Y15.411 E0.18937
G1 X23.863 Y15.388 E0.20917
G1 X73.629 Y15.388 E1.86439
G1 X74.418 Y15.428 E1.89067
G1 X75.198 Y15.547 E1.91691
G1 X75.963 Y15.745 E1.9432
G1 X76.703 Y16.019 E1.96944
G1 X77.412 Y16.367 E1.99571
G1 X78.083 Y16.785 E2.022
G1 X78.707 Y17.268 E2.04825
G1 X79.28 Y17.811 E2.07451
G1 X79.795 Y18.41 E2.10078
G1 X80.246 Y19.058 E2.12704
G1 X80.63 Y19.749 E2.15333
G1 X80.942 Y20.474 E2.17958
G1 X81.179 Y21.227 E2.20584
G1 X81.338 Y22.001 E2.23212
G1 X81.429 Y23.17 E2.27112
G1 X81.546 Y73.053 E3.93024
G1 X81.508 Y73.841 E3.95648
G1 X81.39 Y74.622 E3.98275
G1 X81.194 Y75.387 E4.00902
G1 X80.922 Y76.129 E4.0353
G1 X80.576 Y76.838 E4.06154
G1 X80.16 Y77.51 E4.08783
G1 X79.678 Y78.135 E4.11408
G1 X79.261 Y78.586 E4.13451
G1 X79.144 Y78.703 E4.14001
G1 X78.558 Y79.233 E4.16629
G1 X77.922 Y79.7 E4.19253
G1 X77.242 Y80.101 E4.21879
G1 X76.524 Y80.431 E4.24507
G1 X75.777 Y80.686 E4.27133
G1 X75.008 Y80.865 E4.29759
G1 X74.224 Y80.965 E4.32387
G1 X73.629 Y80.988 E4.34368
G1 X23.863 Y80.988 E5.9989
G1 X23.074 Y80.948 E6.02518
G1 X22.294 Y80.829 E6.05142
G1 X21.529 Y80.631 E6.0777
G1 X20.789 Y80.357 E6.10395
G1 X20.08 Y80.009 E6.13022
G1 X19.409 Y79.591 E6.15651
G1 X18.785 Y79.108 E6.18276
G1 X18.348 Y78.703 E6.20257
G1 X18.231 Y78.586 E6.20808
G1 X17.701 Y78 E6.23436
G1 X17.234 Y77.364 E6.2606
G1 X16.833 Y76.684 E6.28686
G1 X16.503 Y75.966 E6.31314
G1 X16.248 Y75.219 E6.33939
G1 X16.069 Y74.45 E6.36565
G1 X15.969 Y73.666 E6.39194
G1 X15.946 Y73.071 E6.41175
G1 X15.946 Y23.305 E8.06697
G1 X15.986 Y22.516 E8.09325
G1 X16.105 Y21.736 E8.11949
G1 X16.303 Y20.971 E8.14577
G1 X16.577 Y20.231 E8.17202
G1 X16.925 Y19.522 E8.19829
G1 X17.343 Y18.851 E8.22458
G1 X17.826 Y18.227 E8.25082
G1 X18.231 Y17.79 E8.27064
G0 F6000 X18.513 Y18.072
G1 F1200 X18.63 Y17.955 E8.27614
G1 X19.202 Y17.441 E8.30172
G1 X19.824 Y16.988 E8.32731
G1 X20.489 Y16.602 E8.35289
G1 X21.191 Y16.287 E8.37848
G1 X21.922 Y16.047 E8.40407
G1 X22.673 Y15.884 E8.42963
G1 X23.438 Y15.8 E8.45523
G1 X23.863 Y15.788 E8.46937
G1 X73.629 Y15.788 E10.12459
G1 X74.397 Y15.828 E10.15017
G1 X75.157 Y15.947 E10.17576
G1 X75.9 Y16.145 E10.20133
G1 X76.619 Y16.419 E10.22692
G1 X77.305 Y16.766 E10.25249
G1 X77.952 Y17.182 E10.27808
G1 X78.552 Y17.663 E10.30365
G1 X79.099 Y18.204 E10.32924
G1 X79.587 Y18.799 E10.35484
G1 X80.01 Y19.441 E10.38041
G1 X80.365 Y20.124 E10.40601
G1 X80.646 Y20.839 E10.43156
G1 X80.852 Y21.581 E10.45717
G1 X80.98 Y22.339 E10.48274
G1 X81.029 Y23.171 E10.51046
G1 X81.146 Y73.054 E12.16958
G1 X81.108 Y73.822 E12.19516
G1 X80.99 Y74.582 E12.22074
G1 X80.794 Y75.326 E12.24633
G1 X80.522 Y76.045 E12.27189
G1 X80.177 Y76.732 E12.29746
G1 X79.762 Y77.38 E12.32306
G1 X79.282 Y77.981 E12.34864
G1 X78.979 Y78.304 E12.36337
G1 X78.862 Y78.421 E12.36887
G1 X78.29 Y78.935 E12.39445
G1 X77.668 Y79.388 E12.42004
G1 X77.003 Y79.774 E12.44562
G1 X76.301 Y80.089 E12.47121
G1 X75.57 Y80.329 E12.4968
G1 X74.819 Y80.492 E12.52236
G1 X74.054 Y80.576 E12.54796
G1 X73.629 Y80.588 E12.5621
G1 X23.863 Y80.588 E14.21732
G1 X23.095 Y80.548 E14.2429
G1 X22.335 Y80.429 E14.26848
G1 X21.592 Y80.231 E14.29406
G1 X20.873 Y79.957 E14.31965
G1 X20.187 Y79.61 E14.34522
G1 X19.54 Y79.194 E14.3708
G1 X18.94 Y78.713 E14.39638
G1 X18.63 Y78.421 E14.41055
G1 X18.513 Y78.304 E14.41605
G1 X17.999 Y77.732 E14.44163
G1 X17.546 Y77.11 E14.46722
G1 X17.16 Y76.445 E14.49279
G1 X16.845 Y75.743 E14.51838
G1 X16.605 Y75.012 E14.54397
G1 X16.442 Y74.261 E14.56953
G1 X16.358 Y73.496 E14.59513
G1 X16.346 Y73.071 E14.60927
G1 X16.346 Y23.305 E16.2645
G1 X16.386 Y22.537 E16.29008
G1 X16.505 Y21.777 E16.31566
G1 X16.703 Y21.034 E16.34124
G1 X16.977 Y20.315 E16.36683
G1 X17.324 Y19.629 E16.3924
G1 X17.74 Y18.982 E16.41798
G1 X18.221 Y18.382 E16.44356
G1 X18.513 Y18.072 E16.45772
G0 F6000 X18.796 Y18.355
G1 F1200 X18.913 Y18.238 E16.46323
G1 X19.47 Y17.738 E16.48812
G1 X20.076 Y17.301 E16.51297
G1 X20.726 Y16.93 E16.53786
G1 X21.412 Y16.631 E16.56275
G1 X22.126 Y16.407 E16.58764
G1 X22.859 Y16.26 E16.61251
G1 X23.863 Y16.188 E16.64599
G1 X73.629 Y16.188 E18.30121
G1 X74.376 Y16.228 E18.32609
G1 X75.114 Y16.347 E18.35095
G1 X75.836 Y16.545 E18.37585
G1 X76.532 Y16.818 E18.40072
G1 X77.195 Y17.165 E18.42561
G1 X77.818 Y17.58 E18.45051
G1 X78.392 Y18.059 E18.47537
G1 X78.913 Y18.596 E18.50026
G1 X79.372 Y19.186 E18.52512
G1 X79.767 Y19.822 E18.55002
G1 X80.091 Y20.496 E18.57489
G1 X80.341 Y21.201 E18.59977
G1 X80.515 Y21.929 E18.62467
G1 X80.61 Y22.671 E18.64955
G1 X80.629 Y23.172 E18.66622
G1 X80.746 Y73.055 E20.32534
G1 X80.708 Y73.802 E20.35022
G1 X80.59 Y74.54 E20.37508
G1 X80.394 Y75.262 E20.39996
G1 X80.122 Y75.959 E20.42485
G1 X79.778 Y76.623 E20.44972
G1 X79.364 Y77.247 E20.47463
G1 X78.696 Y78.021 E20.50863
G1 X78.579 Y78.138 E20.51413
G1 X78.022 Y78.638 E20.53903
G1 X77.416 Y79.075 E20.56388
G1 X76.766 Y79.446 E20.58877
G1 X76.08 Y79.745 E20.61366
G1 X75.366 Y79.969 E20.63855
G1 X74.633 Y80.116 E20.66342
G1 X73.629 Y80.188 E20.69689
G1 X23.863 Y80.188 E22.35212
G1 X23.116 Y80.148 E22.377
G1 X22.378 Y80.029 E22.40186
G1 X21.656 Y79.831 E22.42676
G1 X20.96 Y79.558 E22.45163
G1 X20.297 Y79.211 E22.47652
G1 X19.674 Y78.796 E22.50142
G1 X18.913 Y78.138 E22.53488
G1 X18.796 Y78.021 E22.54038
G1 X18.296 Y77.464 E22.56527
G1 X17.859 Y76.858 E22.59012
G1 X17.488 Y76.208 E22.61502
G1 X17.189 Y75.522 E22.63991
G1 X16.965 Y74.808 E22.6648
G1 X16.818 Y74.075 E22.68966
G1 X16.746 Y73.071 E22.72314
G1 X16.746 Y23.305 E24.37836
G1 X16.786 Y22.558 E24.40324
G1 X16.905 Y21.82 E24.42811
G1 X17.103 Y21.098 E24.45301
G1 X17.376 Y20.402 E24.47787
G1 X17.723 Y19.739 E24.50276
G1 X18.138 Y19.116 E24.52766
G1 X18.796 Y18.355 E24.56112
G0 F6000 X19.079 Y18.638
G1 F1200 X19.196 Y18.521 E24.56662
G1 X19.737 Y18.037 E24.59077
G1 X20.328 Y17.614 E24.61494
G1 X20.962 Y17.26 E24.63909
G1 X21.631 Y16.977 E24.66325
G1 X22.327 Y16.769 E24.68741
G1 X23.042 Y16.639 E24.71158
G1 X23.863 Y16.588 E24.73894
G1 X73.629 Y16.588 E26.39417
G1 X74.354 Y16.628 E26.41832
G1 X75.071 Y16.747 E26.44249
G1 X75.77 Y16.945 E26.46665
G1 X76.443 Y17.218 E26.49081
G1 X77.082 Y17.563 E26.51496
G1 X77.679 Y17.977 E26.53913
G1 X78.227 Y18.453 E26.56327
G1 X78.72 Y18.987 E26.58744
G1 X79.15 Y19.572 E26.61159
G1 X79.514 Y20.201 E26.63576
G1 X79.807 Y20.866 E26.65993
G1 X80.025 Y21.559 E26.68409
G1 X80.165 Y22.271 E26.70823
G1 X80.229 Y23.173 E26.7383
G1 X80.346 Y73.056 E28.39742
G1 X80.308 Y73.781 E28.42157
G1 X80.19 Y74.498 E28.44574
G1 X79.994 Y75.197 E28.46988
G1 X79.723 Y75.871 E28.49405
G1 X79.379 Y76.511 E28.51821
G1 X78.967 Y77.109 E28.54237
G1 X78.413 Y77.738 E28.57024
G1 X78.296 Y77.855 E28.57575
G1 X77.755 Y78.339 E28.59989
G1 X77.164 Y78.762 E28.62406
G1 X76.53 Y79.116 E28.64822
G1 X75.861 Y79.399 E28.67238
G1 X75.165 Y79.607 E28.69654
G1 X74.45 Y79.737 E28.72071
G1 X73.629 Y79.788 E28.74807
G1 X23.863 Y79.788 E30.40329
G1 X23.138 Y79.748 E30.42744
G1 X22.421 Y79.629 E30.45161
G1 X21.722 Y79.431 E30.47578
G1 X21.049 Y79.158 E30.49993
G1 X20.41 Y78.813 E30.52409
G1 X19.813 Y78.399 E30.54825
G1 X19.196 Y77.855 E30.57561
G1 X19.079 Y77.738 E30.58111
G1 X18.595 Y77.197 E30.60526
G1 X18.172 Y76.606 E30.62943
G1 X17.818 Y75.972 E30.65358
G1 X17.535 Y75.303 E30.67774
G1 X17.327 Y74.607 E30.7019
G1 X17.197 Y73.892 E30.72607
G1 X17.146 Y73.071 E30.75343
G1 X17.146 Y23.305 E32.40865
G1 X17.186 Y22.58 E32.4328
G1 X17.305 Y21.863 E32.45698
G1 X17.503 Y21.164 E32.48114
G1 X17.776 Y20.491 E32.5053
G1 X18.121 Y19.852 E32.52945
G1 X18.535 Y19.255 E32.55361
G1 X19.079 Y18.638 E32.58097
G0 F6000 X19.362 Y18.921
G1 F1200 X19.479 Y18.804 E32.58648
G1 X20.004 Y18.335 E32.60989
G1 X20.579 Y17.929 E32.6333
G1 X21.197 Y17.591 E32.65673
G1 X21.848 Y17.324 E32.68013
G1 X22.526 Y17.134 E32.70355
G1 X23.221 Y17.021 E32.72697
G1 X23.863 Y16.988 E32.74835
G1 X73.629 Y16.988 E34.40358
G1 X74.332 Y17.028 E34.427
G1 X75.026 Y17.147 E34.45042
G1 X75.701 Y17.345 E34.47381
G1 X76.35 Y17.617 E34.49722
G1 X76.964 Y17.962 E34.52064
G1 X77.535 Y18.373 E34.54404
G1 X78.056 Y18.847 E34.56747
G1 X78.52 Y19.377 E34.5909
G1 X78.92 Y19.956 E34.6143
G1 X79.252 Y20.577 E34.63772
G1 X79.512 Y21.231 E34.66113
G1 X79.696 Y21.911 E34.68456
G1 X79.802 Y22.607 E34.70798
G1 X79.829 Y23.173 E34.72683
G1 X79.946 Y73.056 E36.38595
G1 X79.908 Y73.759 E36.40936
G1 X79.79 Y74.453 E36.43278
G1 X79.594 Y75.13 E36.45622
G1 X79.323 Y75.779 E36.47961
G1 X78.98 Y76.394 E36.50303
G1 X78.57 Y76.966 E36.52644
G1 X78.13 Y77.455 E36.54832
G1 X78.013 Y77.572 E36.55382
G1 X77.488 Y78.041 E36.57723
G1 X76.913 Y78.447 E36.60065
G1 X76.295 Y78.785 E36.62407
G1 X75.644 Y79.052 E36.64748
G1 X74.966 Y79.242 E36.6709
G1 X74.271 Y79.355 E36.69432
G1 X73.629 Y79.388 E36.7157
G1 X23.863 Y79.388 E38.37092
G1 X23.16 Y79.348 E38.39434
G1 X22.466 Y79.229 E38.41776
G1 X21.791 Y79.031 E38.44116
G1 X21.142 Y78.759 E38.46456
G1 X20.528 Y78.414 E38.48799
G1 X19.957 Y78.003 E38.51139
G1 X19.479 Y77.572 E38.53279
G1 X19.362 Y77.455 E38.5383
G1 X18.893 Y76.93 E38.56171
G1 X18.487 Y76.355 E38.58512
G1 X18.149 Y75.737 E38.60855
G1 X17.882 Y75.086 E38.63195
G1 X17.692 Y74.408 E38.65537
G1 X17.579 Y73.713 E38.67879
G1 X17.546 Y73.071 E38.70017
G1 X17.546 Y23.305 E40.3554
G1 X17.586 Y22.602 E40.37882
G1 X17.705 Y21.908 E40.40224
G1 X17.903 Y21.233 E40.42563
G1 X18.175 Y20.584 E40.44904
G1 X18.52 Y19.97 E40.47246
G1 X18.931 Y19.399 E40.49586
G1 X19.362 Y18.921 E40.51727
G0 F6000 X19.645 Y19.204
G1 F1200 X19.762 Y19.087 E40.52277
G1 X20.271 Y18.634 E40.54543
G1 X20.829 Y18.245 E40.56806
G1 X21.429 Y17.923 E40.59071
G1 X22.063 Y17.674 E40.61336
G1 X22.722 Y17.501 E40.63602
G1 X23.396 Y17.407 E40.65866
G1 X23.863 Y17.388 E40.6742
G1 X73.629 Y17.388 E42.32943
G1 X74.309 Y17.428 E42.35208
G1 X74.979 Y17.547 E42.37471
G1 X75.631 Y17.744 E42.39737
G1 X76.255 Y18.016 E42.42001
G1 X76.843 Y18.36 E42.44267
G1 X77.387 Y18.77 E42.46532
G1 X77.878 Y19.241 E42.48795
G1 X78.312 Y19.766 E42.51061
G1 X78.681 Y20.338 E42.53325
G1 X78.98 Y20.95 E42.5559
G1 X79.205 Y21.592 E42.57853
G1 X79.354 Y22.257 E42.6012
G1 X79.429 Y23.174 E42.6318
G1 X79.546 Y73.057 E44.29092
G1 X79.508 Y73.737 E44.31357
G1 X79.39 Y74.408 E44.33623
G1 X79.194 Y75.06 E44.35887
G1 X78.924 Y75.685 E44.38152
G1 X78.582 Y76.274 E44.40417
G1 X78.173 Y76.818 E44.42681
G1 X77.847 Y77.172 E44.44281
G1 X77.73 Y77.289 E44.44832
G1 X77.221 Y77.742 E44.47098
G1 X76.663 Y78.131 E44.49361
G1 X76.063 Y78.453 E44.51625
G1 X75.429 Y78.702 E44.53891
G1 X74.77 Y78.875 E44.56157
G1 X74.096 Y78.969 E44.5842
G1 X73.629 Y78.988 E44.59975
G1 X23.863 Y78.988 E46.25497
G1 X23.183 Y78.948 E46.27763
G1 X22.513 Y78.829 E46.30026
G1 X21.861 Y78.632 E46.32292
G1 X21.237 Y78.36 E46.34556
G1 X20.649 Y78.016 E46.36821
G1 X20.105 Y77.606 E46.39087
G1 X19.762 Y77.289 E46.40641
G1 X19.645 Y77.172 E46.41191
G1 X19.192 Y76.663 E46.43457
G1 X18.803 Y76.105 E46.4572
G1 X18.481 Y75.505 E46.47984
G1 X18.232 Y74.871 E46.5025
G1 X18.059 Y74.212 E46.52516
G1 X17.965 Y73.538 E46.54779
G1 X17.946 Y73.071 E46.56334
G1 X17.946 Y23.305 E48.21856
G1 X17.986 Y22.625 E48.24122
G1 X18.105 Y21.955 E48.26385
G1 X18.302 Y21.303 E48.28651
G1 X18.574 Y20.679 E48.30915
G1 X18.918 Y20.091 E48.3318
G1 X19.328 Y19.547 E48.35446
G1 X19.645 Y19.204 E48.37
G0 F6000 X19.928 Y19.487
G1 F1200 X20.045 Y19.37 E48.3755
G1 X20.537 Y18.934 E48.39736
G1 X21.078 Y18.562 E48.4192
G1 X21.66 Y18.258 E48.44104
G1 X22.275 Y18.027 E48.46289
G1 X22.914 Y17.872 E48.48476
G1 X23.863 Y17.788 E48.51645
G1 X73.629 Y17.788 E50.17167
G1 X74.285 Y17.828 E50.19353
G1 X74.931 Y17.947 E50.21538
G1 X75.558 Y18.144 E50.23724
G1 X76.156 Y18.416 E50.25909
G1 X76.717 Y18.758 E50.28094
G1 X77.232 Y19.166 E50.30279
G1 X77.694 Y19.633 E50.32464
G1 X78.095 Y20.153 E50.34648
G1 X78.431 Y20.717 E50.36832
G1 X78.695 Y21.319 E50.39018
G1 X78.885 Y21.948 E50.41204
G1 X78.996 Y22.595 E50.43387
G1 X79.029 Y23.175 E50.45319
G1 X79.146 Y73.058 E52.11231
G1 X79.108 Y73.714 E52.13417
G1 X78.99 Y74.36 E52.15601
G1 X78.794 Y74.988 E52.17789
G1 X78.524 Y75.587 E52.19974
G1 X78.183 Y76.148 E52.22158
G1 X77.564 Y76.889 E52.25369
G1 X77.447 Y77.006 E52.25919
G1 X76.955 Y77.442 E52.28106
G1 X76.414 Y77.814 E52.3029
G1 X75.832 Y78.118 E52.32474
G1 X75.217 Y78.349 E52.34659
G1 X74.578 Y78.504 E52.36846
G1 X73.629 Y78.588 E52.40014
G1 X23.863 Y78.588 E54.05537
G1 X23.207 Y78.548 E54.07723
G1 X22.561 Y78.429 E54.09907
G1 X21.934 Y78.232 E54.12093
G1 X21.336 Y77.96 E54.14278
G1 X20.775 Y77.618 E54.16464
G1 X20.045 Y77.006 E54.19632
G1 X19.928 Y76.889 E54.20182
G1 X19.492 Y76.397 E54.22369
G1 X19.12 Y75.856 E54.24552
G1 X18.816 Y75.274 E54.26736
G1 X18.585 Y74.659 E54.28921
G1 X18.43 Y74.02 E54.31108
G1 X18.346 Y73.071 E54.34277
G1 X18.346 Y23.305 E55.99799
G1 X18.386 Y22.649 E56.01985
G1 X18.505 Y22.003 E56.0417
G1 X18.702 Y21.376 E56.06356
G1 X18.974 Y20.778 E56.08541
G1 X19.316 Y20.217 E56.10726
G1 X19.928 Y19.487 E56.13895
G0 F6000 X20.21 Y19.769
G1 F1200 X20.327 Y19.652 E56.14445
G1 X20.802 Y19.235 E56.16547
G1 X21.325 Y18.88 E56.1865
G1 X21.889 Y18.594 E56.20753
G1 X22.484 Y18.382 E56.22854
G1 X23.102 Y18.246 E56.24958
G1 X23.863 Y18.188 E56.27497
G1 X73.629 Y18.188 E57.93019
G1 X74.26 Y18.228 E57.95122
G1 X74.881 Y18.347 E57.97225
G1 X75.481 Y18.544 E57.99326
G1 X76.053 Y18.815 E58.01431
G1 X76.585 Y19.155 E58.03531
G1 X77.07 Y19.561 E58.05635
G1 X77.5 Y20.024 E58.07736
G1 X77.869 Y20.538 E58.09841
G1 X78.169 Y21.094 E58.11942
G1 X78.397 Y21.683 E58.14043
G1 X78.549 Y22.297 E58.16146
G1 X78.629 Y23.176 E58.19082
G1 X78.746 Y73.059 E59.84994
G1 X78.708 Y73.69 E59.87097
G1 X78.59 Y74.311 E59.89199
G1 X78.395 Y74.913 E59.91304
G1 X78.125 Y75.484 E59.93404
G1 X77.786 Y76.018 E59.95508
G1 X77.282 Y76.607 E59.98087
G1 X77.165 Y76.724 E59.98637
G1 X76.69 Y77.141 E60.00739
G1 X76.167 Y77.496 E60.02842
G1 X75.603 Y77.782 E60.04945
G1 X75.008 Y77.994 E60.07046
G1 X74.39 Y78.13 E60.0915
G1 X73.629 Y78.188 E60.11689
G1 X23.863 Y78.188 E61.77211
G1 X23.232 Y78.148 E61.79314
G1 X22.611 Y78.029 E61.81417
G1 X22.011 Y77.832 E61.83518
G1 X21.439 Y77.561 E61.85623
G1 X20.907 Y77.221 E61.87723
G1 X20.327 Y76.724 E61.90263
G1 X20.21 Y76.607 E61.90813
G1 X19.793 Y76.132 E61.92916
G1 X19.438 Y75.609 E61.95018
G1 X19.152 Y75.045 E61.97121
G1 X18.94 Y74.45 E61.99222
G1 X18.804 Y73.832 E62.01327
G1 X18.746 Y73.071 E62.03865
G1 X18.746 Y23.305 E63.69388
G1 X18.786 Y22.674 E63.71491
G1 X18.905 Y22.053 E63.73594
G1 X19.102 Y21.453 E63.75694
G1 X19.373 Y20.881 E63.77799
G1 X19.713 Y20.349 E63.79899
G1 X20.21 Y19.769 E63.8244
G0 F6000 X20.493 Y20.052
G1 F1200 X20.61 Y19.935 E63.8299
G1 X21.066 Y19.536 E63.85005
G1 X21.571 Y19.2 E63.87023
G1 X22.115 Y18.933 E63.89038
G1 X22.69 Y18.74 E63.91056
G1 X23.285 Y18.624 E63.93072
G1 X23.863 Y18.588 E63.94998
G1 X73.629 Y18.588 E65.6052
G1 X74.234 Y18.628 E65.62537
G1 X74.828 Y18.747 E65.64552
G1 X75.402 Y18.943 E65.66569
